;FLAVOR:Marlin
;TIME:1200
;Filament used: 1.29514m
;Layer height: 0.2
;MINX:82.703
;MINY:90.203
;MINZ:0.2
;MAXX:137.297
;MAXY:129.797
;MAXZ:4
;Generated with Cura_SteamEngine 4.12.1
M140 S50
M105
M190 S50
M104 S200
M105
M109 S200
M82 ;absolute extrusion mode
M201 X500.00 Y500.00 Z100.00 E5000.00 ;Setup machine max acceleration
M203 X500.00 Y500.00 Z10.00 E50.00 ;Setup machine max feedrate
M204 P500.00 R1000.00 T500.00 ;Setup Print/Retract/Travel acceleration
M205 X8.00 Y8.00 Z0.40 E5.00 ;Setup Jerk
M220 S100 ;Reset Feedrate
M221 S100 ;Reset Flowrate

G28 ;Home

G92 E0 ;Reset Extruder
G1 Z2.0 F3000 ;Move Z Axis up
G1 X10.1 Y20 Z0.28 F5000.0 ;Move to start position
G1 X10.1 Y200.0 Z0.28 F1500.0 E15 ;Draw the first line
G1 X10.4 Y200.0 Z0.28 F5000.0 ;Move to side a little
G1 X10.4 Y20 Z0.28 F1500.0 E30 ;Draw the second line
G92 E0 ;Reset Extruder
G1 Z2.0 F3000 ;Move Z Axis up

G92 E0
G92 E0
G1 F2700 E-5
;LAYER_COUNT:20
;LAYER:0
M107
;MESH:a1e1s.stl
G0 F6000 X117.5 Y129.392 Z0.2
;TYPE:WALL-INNER
G1 F2700 E0
G1 F1200 X111.506 Y128.443 E0.20184
G1 X106.101 Y125.689 E0.40361
G1 X101.811 Y121.399 E0.60539
G1 X99.057 Y115.994 E0.80716
G1 X98.805 Y114.4 E0.86083
G1 X87.549 Y114.4 E1.23521
G1 X86.141 Y114.177 E1.28262
G1 X84.917 Y113.553 E1.32832
G1 X83.947 Y112.583 E1.37394
G1 X83.323 Y111.359 E1.41964
G1 X83.108 Y110 E1.4654
G1 X83.323 Y108.641 E1.51116
G1 X83.947 Y107.417 E1.55686
G1 X84.917 Y106.447 E1.60249
G1 X86.141 Y105.823 E1.64818
G1 X87.549 Y105.6 E1.6956
G1 X98.805 Y105.6 E2.06997
G1 X99.057 Y104.006 E2.12365
G1 X101.811 Y98.601 E2.32541
G1 X106.101 Y94.311 E2.5272
G1 X111.506 Y91.557 E2.72896
G1 X117.5 Y90.608 E2.9308
G1 X123.494 Y91.557 E3.13265
G1 X128.899 Y94.311 E3.33441
G1 X133.189 Y98.601 E3.5362
G1 X135.943 Y104.006 E3.73796
G1 X136.892 Y110 E3.9398
G1 X135.943 Y115.994 E4.14165
G1 X133.189 Y121.399 E4.34341
G1 X128.899 Y125.689 E4.5452
G1 X123.494 Y128.443 E4.74696
G1 X117.5 Y129.392 E4.94881
G0 F6000 X117.5 Y129.797
;TYPE:WALL-OUTER
G1 F1200 X111.381 Y128.828 E5.15486
G1 X105.862 Y126.016 E5.36088
G1 X101.484 Y121.638 E5.5668
G1 X98.672 Y116.119 E5.77282
G1 X98.463 Y114.8 E5.81724
G1 X87.518 Y114.8 E6.18127
G1 X86.016 Y114.562 E6.23185
G1 X84.678 Y113.88 E6.2818
G1 X83.62 Y112.822 E6.33156
G1 X82.938 Y111.484 E6.38151
G1 X82.703 Y110 E6.43149
G1 X82.938 Y108.516 E6.48146
G1 X83.62 Y107.178 E6.53141
G1 X84.678 Y106.12 E6.58118
G1 X86.016 Y105.438 E6.63113
G1 X87.518 Y105.2 E6.68171
G1 X98.463 Y105.2 E7.04574
G1 X98.672 Y103.881 E7.09015
G1 X101.484 Y98.362 E7.29617
G1 X105.862 Y93.984 E7.5021
G1 X111.381 Y91.172 E7.70811
G1 X117.5 Y90.203 E7.91417
G1 X123.619 Y91.172 E8.12022
G1 X129.138 Y93.984 E8.32624
G1 X133.516 Y98.362 E8.53217
G1 X136.328 Y103.881 E8.73818
G1 X137.297 Y110 E8.94424
G1 X136.328 Y116.119 E9.15029
G1 X133.516 Y121.638 E9.35631
G1 X129.138 Y126.016 E9.56224
G1 X123.619 Y128.828 E9.76825
G1 X117.5 Y129.797 E9.97431
G0 F6000 X117.5 Y129.357
G0 X117.5 Y128.996
;TYPE:SKIN
G1 F1200 X111.624 Y128.066 E10.17218
G1 X106.332 Y125.37 E10.36972
G1 X102.13 Y121.168 E10.56736
G1 X99.434 Y115.876 E10.7649
G1 X99.138 Y114.01 E10.82774
G1 X87.584 Y114.01 E11.21203
G1 X86.259 Y113.8 E11.25665
G1 X85.148 Y113.234 E11.29812
G1 X84.266 Y112.352 E11.33961
G1 X83.7 Y111.241 E11.38108
G1 X83.504 Y110 E11.42286
G1 X83.7 Y108.759 E11.46465
G1 X84.266 Y107.648 E11.50612
G1 X85.148 Y106.766 E11.54761
G1 X86.259 Y106.2 E11.58908
G1 X87.584 Y105.99 E11.6337
G1 X99.138 Y105.99 E12.01799
G1 X99.434 Y104.124 E12.08083
G1 X102.13 Y98.832 E12.27837
G1 X106.332 Y94.63 E12.47601
G1 X111.624 Y91.934 E12.67355
G1 X117.5 Y91.004 E12.87142
G1 X123.376 Y91.934 E13.06929
G1 X128.668 Y94.63 E13.26683
G1 X132.87 Y98.832 E13.46448
G1 X135.566 Y104.124 E13.66201
G1 X136.496 Y110 E13.85988
G1 X135.566 Y115.876 E14.05775
G1 X132.87 Y121.168 E14.25529
G1 X128.668 Y125.37 E14.45294
G1 X123.376 Y128.066 E14.65048
G1 X117.5 Y128.996 E14.84835
G1 F2700 E9.84835
G0 F6000 X117.456 Y129.273
G0 X123.44 Y128.279
G0 X128.798 Y125.549
G0 X133.049 Y121.298
G0 X135.779 Y115.94
G0 X136.72 Y110
G0 X135.779 Y104.06
G0 X133.049 Y98.702
G0 X128.798 Y94.451
G0 X127.881 Y93.916
G1 F2700 E14.84835
G0 F6000 X127.682 Y94.306
G1 F1200 X133.192 Y99.817 E15.10754
G0 F6000 X133.584 Y99.618
G0 X134.172 Y100.772
G0 X133.78 Y100.97
G1 F1200 X126.528 Y93.719 E15.44863
G0 F6000 X126.727 Y93.328
G0 X125.574 Y92.741
G0 X125.375 Y93.131
G1 F1200 X134.368 Y102.124 E15.87163
G0 F6000 X134.76 Y101.926
G0 X135.347 Y103.079
G0 X134.956 Y103.277
G1 F1200 X124.222 Y92.544 E16.37651
G0 F6000 X124.421 Y92.153
G0 X123.246 Y91.63
G0 X123.177 Y92.064
G1 F1200 X135.435 Y104.322 E16.95308
G0 F6000 X135.541 Y104.994
G1 F1200 X122.505 Y91.958 E17.56626
G0 F6000 X121.833 Y91.851
G1 F1200 X135.647 Y105.666 E18.21605
G0 F6000 X135.754 Y106.338
G1 F1200 X121.161 Y91.745 E18.90246
G0 F6000 X120.489 Y91.639
G1 F1200 X135.86 Y107.01 E19.62546
G0 F6000 X135.966 Y107.682
G1 F1200 X119.817 Y91.533 E20.38506
G0 F6000 X119.145 Y91.426
G1 F1200 X136.072 Y108.354 E21.18128
G0 F6000 X136.178 Y109.025
G1 F1200 X118.473 Y91.32 E22.01407
G0 F6000 X117.801 Y91.214
G1 F1200 X136.284 Y109.697 E22.88345
G0 F6000 X136.289 Y110.268
G1 F1200 X117.231 Y91.209 E23.77991
G0 F6000 X116.742 Y91.286
G1 F1200 X136.212 Y110.756 E24.69572
G0 F6000 X136.135 Y111.245
G1 F1200 X116.254 Y91.363 E25.63088
G0 F6000 X115.765 Y91.44
G1 F1200 X136.058 Y111.734 E26.58543
G0 F6000 X135.981 Y112.222
G1 F1200 X115.277 Y91.518 E27.55928
G0 F6000 X114.788 Y91.595
G1 F1200 X135.903 Y112.71 E28.55246
G0 F6000 X135.826 Y113.199
G1 F1200 X114.3 Y91.672 E29.565
G0 F6000 X113.812 Y91.75
G1 F1200 X135.749 Y113.687 E30.59685
G0 F6000 X135.672 Y114.176
G1 F1200 X113.323 Y91.827 E31.64808
G0 F6000 X112.835 Y91.904
G1 F1200 X135.595 Y114.665 E32.71866
G0 F6000 X135.517 Y115.153
G1 F1200 X112.346 Y91.981 E33.80858
G0 F6000 X111.858 Y92.059
G1 F1200 X135.44 Y115.641 E34.91781
G0 F6000 X135.293 Y116.06
G1 F1200 X111.44 Y92.206 E36.0398
G0 F6000 X111.065 Y92.397
G1 F1200 X135.102 Y116.435 E37.17045
G0 F6000 X134.911 Y116.809
G1 F1200 X110.69 Y92.588 E38.30973
G0 F6000 X110.315 Y92.779
G1 F1200 X134.72 Y117.184 E39.45767
G0 F6000 X134.529 Y117.559
G1 F1200 X109.94 Y92.97 E40.61426
G0 F6000 X109.566 Y93.161
G1 F1200 X134.338 Y117.934 E41.77948
G0 F6000 X134.147 Y118.308
G1 F1200 X109.191 Y93.352 E42.95334
G0 F6000 X108.816 Y93.543
G1 F1200 X133.956 Y118.682 E44.13582
G0 F6000 X133.765 Y119.057
G1 F1200 X108.441 Y93.734 E45.32696
G0 F6000 X108.067 Y93.924
G1 F1200 X133.574 Y119.432 E46.52676
G0 F6000 X133.383 Y119.807
G1 F1200 X107.692 Y94.115 E47.73521
G0 F6000 X107.317 Y94.306
G1 F1200 X133.192 Y120.181 E48.95229
G0 F6000 X133.001 Y120.556
G1 F1200 X106.942 Y94.497 E50.17802
G0 F6000 X106.568 Y94.688
G1 F1200 X132.81 Y120.931 E51.41239
G0 F6000 X132.562 Y121.249
G1 F1200 X106.249 Y94.936 E52.65007
G0 F6000 X105.967 Y95.218
G1 F1200 X132.279 Y121.531 E53.88773
G0 F6000 X131.997 Y121.814
G1 F1200 X105.684 Y95.501 E55.12541
G0 F6000 X105.401 Y95.784
G1 F1200 X131.714 Y122.097 E56.3631
G0 F6000 X131.431 Y122.38
G1 F1200 X105.118 Y96.067 E57.60078
G0 F6000 X104.835 Y96.35
G1 F1200 X131.148 Y122.663 E58.83846
G0 F6000 X130.865 Y122.946
G1 F1200 X104.552 Y96.633 E60.07615
G0 F6000 X104.269 Y96.916
G1 F1200 X130.582 Y123.228 E61.3138
G0 F6000 X130.299 Y123.511
G1 F1200 X103.987 Y97.198 E62.55146
G0 F6000 X103.704 Y97.481
G1 F1200 X130.017 Y123.794 E63.78915
G0 F6000 X129.734 Y124.077
G1 F1200 X103.421 Y97.764 E65.02683
G0 F6000 X103.138 Y98.047
G1 F1200 X129.451 Y124.36 E66.26451
G0 F6000 X129.168 Y124.643
G1 F1200 X102.855 Y98.33 E67.5022
G0 F6000 X102.572 Y98.613
G1 F1200 X128.885 Y124.925 E68.73985
G0 F6000 X128.602 Y125.208
G1 F1200 X102.29 Y98.895 E69.97751
G0 F6000 X102.089 Y99.26
G1 F1200 X128.237 Y125.408 E71.20744
G0 F6000 X127.862 Y125.599
G1 F1200 X101.898 Y99.635 E72.4287
G0 F6000 X101.707 Y100.01
G1 F1200 X127.487 Y125.79 E73.64132
G0 F6000 X127.113 Y125.981
G1 F1200 X101.516 Y100.385 E74.8453
G0 F6000 X101.325 Y100.759
G1 F1200 X126.738 Y126.172 E76.04065
G0 F6000 X126.363 Y126.363
G1 F1200 X101.134 Y101.134 E77.22734
G0 F6000 X100.943 Y101.509
G1 F1200 X125.988 Y126.554 E78.40538
G0 F6000 X125.614 Y126.746
G1 F1200 X100.752 Y101.884 E79.57481
G0 F6000 X100.561 Y102.258
G1 F1200 X125.239 Y126.936 E80.73559
G0 F6000 X124.865 Y127.127
G1 F1200 X100.37 Y102.633 E81.88774
G0 F6000 X100.18 Y103.008
G1 F1200 X124.49 Y127.318 E83.0312
G0 F6000 X124.115 Y127.509
G1 F1200 X99.989 Y103.383 E84.16602
G0 F6000 X99.798 Y103.758
G1 F1200 X123.74 Y127.7 E85.29218
G0 F6000 X123.366 Y127.891
G1 F1200 X99.607 Y104.132 E86.40973
G0 F6000 X99.518 Y104.609
G1 F1200 X122.888 Y127.979 E87.50898
G0 F6000 X122.4 Y128.057
G1 F1200 X99.44 Y105.097 E88.58895
G0 F6000 X99.362 Y105.585
G1 F1200 X121.912 Y128.134 E89.64961
G0 F6000 X121.423 Y128.211
G1 F1200 X99.285 Y106.073 E90.69091
G0 F6000 X98.795 Y106.149
G1 F1200 X120.935 Y128.288 E91.73228
G0 F6000 X120.446 Y128.366
G1 F1200 X98.229 Y106.149 E92.7773
G0 F6000 X97.664 Y106.149
G1 F1200 X119.957 Y128.443 E93.82592
G0 F6000 X119.469 Y128.52
G1 F1200 X97.098 Y106.149 E94.87819
G0 F6000 X96.532 Y106.149
G1 F1200 X118.981 Y128.597 E95.93409
G0 F6000 X118.492 Y128.675
G1 F1200 X95.967 Y106.149 E96.99362
G0 F6000 X95.401 Y106.149
G1 F1200 X118.004 Y128.752 E98.0568
G0 F6000 X117.515 Y128.829
G1 F1200 X94.835 Y106.149 E99.1236
G0 F6000 X94.27 Y106.149
G1 F1200 X116.849 Y128.728 E100.18564
G0 F6000 X116.177 Y128.622
G1 F1200 X93.704 Y106.149 E101.24271
G0 F6000 X93.138 Y106.149
G1 F1200 X115.505 Y128.516 E102.29478
G0 F6000 X114.834 Y128.41
G1 F1200 X92.573 Y106.149 E103.34187
G0 F6000 X92.007 Y106.149
G1 F1200 X114.162 Y128.304 E104.38397
G0 F6000 X113.49 Y128.198
G1 F1200 X99.299 Y114.006 E105.0515
G0 F6000 X99.141 Y113.849
G1 F1200 X91.441 Y106.149 E105.41368
G0 F6000 X90.875 Y106.149
G1 F1200 X98.575 Y113.849 E105.77587
G0 F6000 X98.009 Y113.849
G1 F1200 X90.31 Y106.149 E106.13803
G0 F6000 X89.744 Y106.149
G1 F1200 X97.444 Y113.849 E106.50021
G0 F6000 X96.878 Y113.849
G1 F1200 X89.178 Y106.149 E106.8624
G0 F6000 X88.613 Y106.149
G1 F1200 X96.312 Y113.849 E107.22456
G0 F6000 X95.747 Y113.849
G1 F1200 X88.047 Y106.149 E107.58674
G0 F6000 X87.498 Y106.165
G1 F1200 X95.181 Y113.849 E107.94815
G0 F6000 X94.615 Y113.849
G1 F1200 X87.009 Y106.242 E108.30594
G0 F6000 X86.52 Y106.319
G1 F1200 X94.05 Y113.849 E108.66012
G0 F6000 X93.484 Y113.849
G1 F1200 X86.095 Y106.46 E109.00768
G0 F6000 X85.721 Y106.652
G1 F1200 X92.918 Y113.849 E109.34621
G0 F6000 X92.353 Y113.849
G1 F1200 X85.347 Y106.843 E109.67575
G0 F6000 X85.038 Y107.099
G1 F1200 X91.787 Y113.849 E109.99322
G0 F6000 X91.221 Y113.849
G1 F1200 X84.755 Y107.382 E110.29739
G0 F6000 X84.472 Y107.665
G1 F1200 X90.656 Y113.849 E110.58826
G0 F6000 X90.09 Y113.849
G1 F1200 X84.256 Y108.015 E110.86268
G0 F6000 X84.065 Y108.389
G1 F1200 X89.524 Y113.849 E111.11947
G0 F6000 X88.958 Y113.849
G1 F1200 X83.874 Y108.764 E111.35863
G0 F6000 X83.785 Y109.24
G1 F1200 X88.393 Y113.849 E111.5754
G0 F6000 X87.827 Y113.849
G1 F1200 X83.708 Y109.73 E111.76915
G0 F6000 X83.714 Y110.301
G1 F1200 X87.198 Y113.785 E111.93302
G0 F6000 X86.527 Y113.68
G1 F1200 X83.819 Y110.972 E112.0604
G0 F6000 X83.384 Y111.04
G0 X83.858 Y112.166
G0 X84.249 Y111.968
G1 F1200 X85.53 Y113.249 E112.12066
G0 F6000 X85.33 Y113.64
G0 X86.195 Y114.013
G0 X87.56 Y114.229
G0 X98.659 Y114.57
G0 X98.971 Y114.747
G0 X99.405 Y114.679
G1 F1200 X112.818 Y128.092 E112.75156
G0 F6000 X112.147 Y127.986
G1 F1200 X99.512 Y115.351 E113.34587
G0 F6000 X99.76 Y116.164
G1 F1200 X111.333 Y127.738 E113.89026
G0 F6000 X111.133 Y128.129
G0 X109.98 Y127.542
G0 X110.18 Y127.151
G1 F1200 X100.347 Y117.318 E114.35277
G0 F6000 X99.956 Y117.516
G0 X100.543 Y118.669
G0 X100.935 Y118.471
G1 F1200 X109.026 Y126.562 E114.73335
G0 F6000 X108.826 Y126.954
G0 X107.673 Y126.366
G0 X107.873 Y125.975
G1 F1200 X101.522 Y119.624 E115.03208
G0 F6000 X101.131 Y119.822
G0 X101.719 Y120.977
G0 X102.111 Y120.778
G1 F1200 X106.72 Y125.387 E115.24887
G0 F6000 X106.561 Y125.7
;MESH:NONMESH
G0 F300 X106.561 Y125.7 Z0.4
G0 F6000 X106.52 Y125.779
G0 X111.56 Y128.279
G0 X117.5 Y129.392
;TIME_ELAPSED:188.919530
;LAYER:1
M106 S85
;TYPE:WALL-INNER
;MESH:a1e1s.stl
G1 F1800 X111.506 Y128.443 E115.45071
G1 X106.101 Y125.689 E115.65248
G1 X101.811 Y121.399 E115.85426
G1 X99.057 Y115.994 E116.05603
G1 X98.805 Y114.4 E116.1097
G1 X87.549 Y114.4 E116.48408
G1 X86.141 Y114.177 E116.53149
G1 X84.917 Y113.553 E116.57719
G1 X83.947 Y112.583 E116.62281
G1 X83.323 Y111.359 E116.66851
G1 X83.108 Y110 E116.71427
G1 X83.323 Y108.641 E116.76003
G1 X83.947 Y107.417 E116.80573
G1 X84.917 Y106.447 E116.85136
G1 X86.141 Y105.823 E116.89705
G1 X87.549 Y105.6 E116.94446
G1 X98.805 Y105.6 E117.31884
G1 X99.057 Y104.006 E117.37252
G1 X101.811 Y98.601 E117.57428
G1 X106.101 Y94.311 E117.77607
G1 X111.506 Y91.557 E117.97783
G1 X117.5 Y90.608 E118.17967
G1 X123.494 Y91.557 E118.38152
G1 X128.899 Y94.311 E118.58328
G1 X133.189 Y98.601 E118.78507
G1 X135.943 Y104.006 E118.98683
G1 X136.892 Y110 E119.18867
G1 X135.943 Y115.994 E119.39052
G1 X133.189 Y121.399 E119.59228
G1 X128.899 Y125.689 E119.79407
G1 X123.494 Y128.443 E119.99583
G1 X117.5 Y129.392 E120.19768
G0 F9000 X117.5 Y129.797
;TYPE:WALL-OUTER
G1 F1800 X111.381 Y128.828 E120.40373
G1 X105.862 Y126.016 E120.60975
G1 X101.484 Y121.638 E120.81567
G1 X98.672 Y116.119 E121.02169
G1 X98.463 Y114.8 E121.06611
G1 X87.518 Y114.8 E121.43014
G1 X86.016 Y114.562 E121.48072
G1 X84.678 Y113.88 E121.53067
G1 X83.62 Y112.822 E121.58043
G1 X82.938 Y111.484 E121.63038
G1 X82.703 Y110 E121.68036
G1 X82.938 Y108.516 E121.73033
G1 X83.62 Y107.178 E121.78028
G1 X84.678 Y106.12 E121.83005
G1 X86.016 Y105.438 E121.88
G1 X87.518 Y105.2 E121.93057
G1 X98.463 Y105.2 E122.29461
G1 X98.672 Y103.881 E122.33902
G1 X101.484 Y98.362 E122.54504
G1 X105.862 Y93.984 E122.75097
G1 X111.381 Y91.172 E122.95698
G1 X117.5 Y90.203 E123.16304
G1 X123.619 Y91.172 E123.36909
G1 X129.138 Y93.984 E123.57511
G1 X133.516 Y98.362 E123.78104
G1 X136.328 Y103.881 E123.98705
G1 X137.297 Y110 E124.19311
G1 X136.328 Y116.119 E124.39916
G1 X133.516 Y121.638 E124.60518
G1 X129.138 Y126.016 E124.81111
G1 X123.619 Y128.828 E125.01712
G1 X117.5 Y129.797 E125.22318
G0 F9000 X117.5 Y129.357
G0 X117.5 Y128.996
;TYPE:SKIN
G1 F1800 X111.624 Y128.066 E125.42105
G1 X106.332 Y125.37 E125.61859
G1 X102.13 Y121.168 E125.81623
G1 X99.434 Y115.876 E126.01377
G1 X99.138 Y114.01 E126.07661
G1 X87.584 Y114.01 E126.4609
G1 X86.259 Y113.8 E126.50552
G1 X85.148 Y113.234 E126.54699
G1 X84.266 Y112.352 E126.58848
G1 X83.7 Y111.241 E126.62995
G1 X83.504 Y110 E126.67173
G1 X83.7 Y108.759 E126.71352
G1 X84.266 Y107.648 E126.75499
G1 X85.148 Y106.766 E126.79648
G1 X86.259 Y106.2 E126.83795
G1 X87.584 Y105.99 E126.88257
G1 X99.138 Y105.99 E127.26686
G1 X99.434 Y104.124 E127.3297
G1 X102.13 Y98.832 E127.52723
G1 X106.332 Y94.63 E127.72488
G1 X111.624 Y91.934 E127.92242
G1 X117.5 Y91.004 E128.12029
G1 X123.376 Y91.934 E128.31816
G1 X128.668 Y94.63 E128.5157
G1 X132.87 Y98.832 E128.71335
G1 X135.566 Y104.124 E128.91088
G1 X136.496 Y110 E129.10875
G1 X135.566 Y115.876 E129.30662
G1 X132.87 Y121.168 E129.50416
G1 X128.668 Y125.37 E129.70181
G1 X123.376 Y128.066 E129.89935
G1 X117.5 Y128.996 E130.09722
G0 F9000 X117.456 Y129.273
G0 X123.44 Y128.279
G0 X127.987 Y126.031
G0 X127.788 Y125.638
G1 F1800 X133.137 Y120.289 E130.34882
G0 F9000 X133.529 Y120.489
G0 X134.117 Y119.336
G0 X133.725 Y119.136
G1 F1800 X126.635 Y126.226 E130.68231
G0 F9000 X126.834 Y126.618
G0 X125.68 Y127.206
G0 X125.481 Y126.813
G1 F1800 X134.312 Y117.982 E131.09769
G0 F9000 X134.704 Y118.182
G0 X135.292 Y117.029
G0 X134.9 Y116.829
G1 F1800 X124.328 Y127.401 E131.59497
G0 F9000 X124.527 Y127.793
G0 X123.306 Y128.361
G0 X123.238 Y127.925
G1 F1800 X135.424 Y115.739 E132.16816
G0 F9000 X135.531 Y115.067
G1 F1800 X122.567 Y128.031 E132.77794
G0 F9000 X121.894 Y128.138
G1 F1800 X135.637 Y114.395 E133.42437
G0 F9000 X135.743 Y113.723
G1 F1800 X121.222 Y128.244 E134.1074
G0 F9000 X120.551 Y128.35
G1 F1800 X135.849 Y113.052 E134.82697
