;FLAVOR:Marlin
;TIME:2347
;Filament used: 2.6784m
;Layer height: 0.2
;MINX:72.703
;MINY:80.203
;MINZ:0.2
;MAXX:147.297
;MAXY:139.797
;MAXZ:4
;Generated with Cura_SteamEngine 4.12.1
M140 S50
M105
M190 S50
M104 S200
M105
M109 S200
M82 ;absolute extrusion mode
M201 X500.00 Y500.00 Z100.00 E5000.00 ;Setup machine max acceleration
M203 X500.00 Y500.00 Z10.00 E50.00 ;Setup machine max feedrate
M204 P500.00 R1000.00 T500.00 ;Setup Print/Retract/Travel acceleration
M205 X8.00 Y8.00 Z0.40 E5.00 ;Setup Jerk
M220 S100 ;Reset Feedrate
M221 S100 ;Reset Flowrate

G28 ;Home

G92 E0 ;Reset Extruder
G1 Z2.0 F3000 ;Move Z Axis up
G1 X10.1 Y20 Z0.28 F5000.0 ;Move to start position
G1 X10.1 Y200.0 Z0.28 F1500.0 E15 ;Draw the first line
G1 X10.4 Y200.0 Z0.28 F5000.0 ;Move to side a little
G1 X10.4 Y20 Z0.28 F1500.0 E30 ;Draw the second line
G92 E0 ;Reset Extruder
G1 Z2.0 F3000 ;Move Z Axis up

G92 E0
G92 E0
G1 F2700 E-5
;LAYER_COUNT:20
;LAYER:0
M107
;MESH:a1e2s.stl
G0 F6000 X117.5 Y139.392 Z0.2
;TYPE:WALL-INNER
G1 F2700 E0
G1 F1200 X108.415 Y137.954 E0.30593
G1 X100.223 Y133.78 E0.61173
G1 X93.72 Y127.277 E0.91761
G1 X89.546 Y119.085 E1.2234
G1 X88.805 Y114.4 E1.38116
G1 X77.549 Y114.4 E1.75554
G1 X76.141 Y114.177 E1.80295
G1 X74.917 Y113.553 E1.84865
G1 X73.947 Y112.583 E1.89428
G1 X73.323 Y111.359 E1.93997
G1 X73.108 Y110 E1.98573
G1 X73.323 Y108.641 E2.0315
G1 X73.947 Y107.417 E2.07719
G1 X74.917 Y106.447 E2.12282
G1 X76.141 Y105.823 E2.16851
G1 X77.549 Y105.6 E2.21593
G1 X88.805 Y105.6 E2.5903
G1 X89.546 Y100.915 E2.74806
G1 X93.72 Y92.723 E3.05386
G1 X100.223 Y86.22 E3.35974
G1 X108.415 Y82.046 E3.66554
G1 X117.5 Y80.608 E3.97147
G1 X126.585 Y82.046 E4.2774
G1 X134.777 Y86.22 E4.5832
G1 X141.28 Y92.723 E4.88908
G1 X145.454 Y100.915 E5.19487
G1 X146.892 Y110 E5.5008
G1 X145.454 Y119.085 E5.80673
G1 X141.28 Y127.277 E6.11253
G1 X134.777 Y133.78 E6.41841
G1 X126.585 Y137.954 E6.72421
G1 X117.5 Y139.392 E7.03014
G0 F6000 X117.5 Y139.797
;TYPE:WALL-OUTER
G1 F1200 X108.29 Y138.339 E7.34028
G1 X99.984 Y134.107 E7.65033
G1 X93.393 Y127.516 E7.96035
G1 X89.161 Y119.21 E8.2704
G1 X88.463 Y114.8 E8.4189
G1 X77.518 Y114.8 E8.78293
G1 X76.016 Y114.562 E8.83351
G1 X74.678 Y113.88 E8.88346
G1 X73.62 Y112.822 E8.93323
G1 X72.938 Y111.484 E8.98318
G1 X72.703 Y110 E9.03315
G1 X72.938 Y108.516 E9.08313
G1 X73.62 Y107.178 E9.13307
G1 X74.678 Y106.12 E9.18284
G1 X76.016 Y105.438 E9.23279
G1 X77.518 Y105.2 E9.28337
G1 X88.463 Y105.2 E9.6474
G1 X89.161 Y100.79 E9.7959
G1 X93.393 Y92.484 E10.10596
G1 X99.984 Y85.893 E10.41598
G1 X108.29 Y81.661 E10.72603
G1 X117.5 Y80.203 E11.03617
G1 X126.71 Y81.661 E11.34631
G1 X135.016 Y85.893 E11.65636
G1 X141.607 Y92.484 E11.96638
G1 X145.839 Y100.79 E12.27643
G1 X147.297 Y110 E12.58657
G1 X145.839 Y119.21 E12.89671
G1 X141.607 Y127.516 E13.20676
G1 X135.016 Y134.107 E13.51678
G1 X126.71 Y138.339 E13.82683
G1 X117.5 Y139.797 E14.13697
G0 F6000 X117.5 Y139.357
G0 X117.5 Y138.996
;TYPE:SKIN
G1 F1200 X108.533 Y137.577 E14.43893
G1 X100.454 Y133.461 E14.7405
G1 X94.039 Y127.046 E15.04224
G1 X89.923 Y118.967 E15.34381
G1 X89.138 Y114.01 E15.51074
G1 X77.584 Y114.01 E15.89503
G1 X76.259 Y113.8 E15.93964
G1 X75.148 Y113.234 E15.98112
G1 X74.266 Y112.352 E16.0226
G1 X73.7 Y111.241 E16.06407
G1 X73.504 Y110 E16.10586
G1 X73.7 Y108.759 E16.14765
G1 X74.266 Y107.648 E16.18912
G1 X75.148 Y106.766 E16.23061
G1 X76.259 Y106.2 E16.27208
G1 X77.584 Y105.99 E16.3167
G1 X89.138 Y105.99 E16.70098
G1 X89.923 Y101.033 E16.86791
G1 X94.039 Y92.954 E17.16948
G1 X100.454 Y86.539 E17.47122
G1 X108.533 Y82.423 E17.77279
G1 X117.5 Y81.004 E18.07475
G1 X126.467 Y82.423 E18.3767
G1 X134.546 Y86.539 E18.67828
G1 X140.961 Y92.954 E18.98002
G1 X145.077 Y101.033 E19.28159
G1 X146.496 Y110 E19.58355
G1 X145.077 Y118.967 E19.8855
G1 X140.961 Y127.046 E20.18707
G1 X134.546 Y133.461 E20.48881
G1 X126.467 Y137.577 E20.79039
G1 X117.5 Y138.996 E21.09234
G1 F2700 E16.09234
G0 F6000 X117.456 Y139.273
G0 X108.469 Y137.79
G0 X100.324 Y133.64
G0 X93.86 Y127.176
G0 X89.392 Y119.137
G0 X88.659 Y114.57
G0 X79.07 Y114.489
G0 X76.11 Y114.037
G1 F2700 E21.09234
G0 F6000 X76.31 Y113.645
G1 F1200 X73.853 Y111.188 E21.20791
G0 F6000 X73.747 Y110.517
G1 F1200 X76.982 Y113.751 E21.36005
G0 F6000 X77.645 Y113.849
G1 F1200 X73.684 Y109.887 E21.54639
G0 F6000 X73.76 Y109.398
G1 F1200 X78.21 Y113.849 E21.75573
G0 F6000 X78.776 Y113.849
G1 F1200 X73.837 Y108.91 E21.98804
G0 F6000 X74.003 Y108.51
G1 F1200 X79.342 Y113.849 E22.23917
G0 F6000 X79.908 Y113.849
G1 F1200 X74.194 Y108.135 E22.50794
G0 F6000 X74.386 Y107.761
G1 F1200 X80.473 Y113.849 E22.79428
G0 F6000 X81.039 Y113.849
G1 F1200 X74.664 Y107.473 E23.09416
G0 F6000 X74.946 Y107.191
G1 F1200 X81.605 Y113.849 E23.40736
G0 F6000 X82.17 Y113.849
G1 F1200 X75.229 Y106.908 E23.73384
G0 F6000 X75.601 Y106.713
G1 F1200 X82.736 Y113.849 E24.06947
G0 F6000 X83.302 Y113.849
G1 F1200 X75.975 Y106.522 E24.41411
G0 F6000 X76.363 Y106.344
G1 F1200 X83.867 Y113.849 E24.7671
G0 F6000 X84.433 Y113.849
G1 F1200 X76.851 Y106.267 E25.12373
G0 F6000 X77.34 Y106.19
G1 F1200 X84.999 Y113.849 E25.48399
G0 F6000 X85.564 Y113.849
G1 F1200 X77.865 Y106.149 E25.84615
G0 F6000 X78.43 Y106.149
G1 F1200 X86.13 Y113.849 E26.20834
G0 F6000 X86.696 Y113.849
G1 F1200 X78.996 Y106.149 E26.57052
G0 F6000 X79.562 Y106.149
G1 F1200 X87.261 Y113.849 E26.93268
G0 F6000 X87.827 Y113.849
G1 F1200 X80.127 Y106.149 E27.29487
G0 F6000 X80.693 Y106.149
G1 F1200 X88.393 Y113.849 E27.65705
G0 F6000 X88.958 Y113.849
G1 F1200 X81.259 Y106.149 E28.01921
G0 F6000 X81.824 Y106.149
G1 F1200 X113.945 Y138.269 E29.53006
G0 F6000 X113.273 Y138.163
G1 F1200 X89.333 Y114.223 E30.65613
G0 F6000 X89.439 Y114.895
G1 F1200 X112.601 Y138.057 E31.74559
G0 F6000 X111.93 Y137.951
G1 F1200 X89.545 Y115.567 E32.79849
G0 F6000 X89.652 Y116.239
G1 F1200 X111.258 Y137.845 E33.81477
G0 F6000 X110.586 Y137.739
G1 F1200 X89.758 Y116.911 E34.79446
G0 F6000 X89.865 Y117.584
G1 F1200 X109.914 Y137.633 E35.7375
G0 F6000 X109.242 Y137.526
G1 F1200 X89.971 Y118.255 E36.64395
G0 F6000 X90.085 Y118.935
G1 F1200 X108.563 Y137.413 E37.5131
G0 F6000 X108.363 Y137.804
G0 X107.21 Y137.216
G0 X107.41 Y136.825
G1 F1200 X90.673 Y120.088 E38.30036
G0 F6000 X90.282 Y120.286
G0 X90.869 Y121.439
G0 X91.26 Y121.241
G1 F1200 X106.256 Y136.238 E39.00575
G0 F6000 X106.057 Y136.629
G0 X104.903 Y136.041
G0 X105.103 Y135.65
G1 F1200 X91.848 Y122.395 E39.62922
G0 F6000 X91.457 Y122.593
G0 X92.044 Y123.746
G0 X92.435 Y123.548
G1 F1200 X103.949 Y135.062 E40.1708
G0 F6000 X103.749 Y135.453
G0 X102.596 Y134.866
G0 X102.796 Y134.474
G1 F1200 X93.023 Y124.701 E40.6305
G0 F6000 X92.632 Y124.899
G0 X93.22 Y126.053
G0 X93.611 Y125.855
G1 F1200 X101.643 Y133.887 E41.0083
G0 F6000 X101.443 Y134.278
G0 X108.469 Y137.79
G0 X114.548 Y138.813
G0 X114.617 Y138.375
G1 F1200 X82.39 Y106.149 E42.52413
G0 F6000 X82.956 Y106.149
G1 F1200 X115.289 Y138.482 E44.04498
G0 F6000 X115.961 Y138.588
G1 F1200 X83.522 Y106.149 E45.57081
G0 F6000 X84.087 Y106.149
G1 F1200 X116.633 Y138.694 E47.10165
G0 F6000 X117.304 Y138.8
G1 F1200 X84.653 Y106.149 E48.63745
G0 F6000 X85.219 Y106.149
G1 F1200 X117.846 Y138.776 E50.17213
G0 F6000 X118.335 Y138.699
G1 F1200 X85.784 Y106.149 E51.7032
G0 F6000 X86.35 Y106.149
G1 F1200 X118.823 Y138.622 E53.23063
G0 F6000 X119.312 Y138.545
G1 F1200 X86.916 Y106.149 E54.75444
G0 F6000 X87.481 Y106.149
G1 F1200 X119.8 Y138.467 E56.2746
G0 F6000 X120.288 Y138.39
G1 F1200 X88.047 Y106.149 E57.79112
G0 F6000 X88.613 Y106.149
G1 F1200 X120.777 Y138.313 E59.30402
G0 F6000 X121.265 Y138.236
G1 F1200 X89.178 Y106.149 E60.81329
G0 F6000 X89.337 Y105.742
G1 F1200 X121.754 Y138.159 E62.33809
G0 F6000 X122.243 Y138.082
G1 F1200 X89.415 Y105.254 E63.88222
G0 F6000 X89.492 Y104.765
G1 F1200 X122.731 Y138.004 E65.44568
G0 F6000 X123.219 Y137.927
G1 F1200 X89.569 Y104.277 E67.02847
G0 F6000 X89.646 Y103.789
G1 F1200 X123.708 Y137.85 E68.63062
G0 F6000 X124.196 Y137.773
G1 F1200 X89.724 Y103.301 E70.25207
G0 F6000 X89.801 Y102.812
G1 F1200 X124.685 Y137.696 E71.89291
G0 F6000 X125.174 Y137.619
G1 F1200 X89.879 Y102.324 E73.55308
G0 F6000 X89.956 Y101.836
G1 F1200 X125.662 Y137.541 E75.23256
G0 F6000 X126.15 Y137.464
G1 F1200 X90.034 Y101.348 E76.93134
G0 F6000 X90.163 Y100.911
G1 F1200 X126.587 Y137.335 E78.64462
G0 F6000 X126.962 Y137.144
G1 F1200 X90.354 Y100.536 E80.36654
G0 F6000 X90.545 Y100.161
G1 F1200 X127.337 Y136.953 E82.09713
G0 F6000 X127.711 Y136.762
G1 F1200 X90.735 Y99.786 E83.83636
G0 F6000 X90.926 Y99.412
G1 F1200 X128.086 Y136.572 E85.58426
G0 F6000 X128.461 Y136.381
G1 F1200 X91.117 Y99.037 E87.3408
G0 F6000 X91.308 Y98.662
G1 F1200 X128.836 Y136.19 E89.10601
G0 F6000 X129.211 Y135.999
G1 F1200 X91.499 Y98.287 E90.87986
G0 F6000 X91.69 Y97.913
G1 F1200 X129.585 Y135.808 E92.66233
G0 F6000 X129.96 Y135.617
G1 F1200 X91.881 Y97.538 E94.45345
G0 F6000 X92.072 Y97.163
G1 F1200 X130.335 Y135.426 E96.25322
G0 F6000 X130.71 Y135.235
G1 F1200 X92.263 Y96.788 E98.06165
G0 F6000 X92.454 Y96.414
G1 F1200 X131.084 Y135.044 E99.87869
G0 F6000 X131.459 Y134.853
G1 F1200 X92.645 Y96.039 E101.70438
G0 F6000 X92.836 Y95.664
G1 F1200 X131.834 Y134.662 E103.53873
G0 F6000 X132.209 Y134.471
G1 F1200 X93.026 Y95.289 E105.38175
G0 F6000 X93.217 Y94.914
G1 F1200 X132.583 Y134.28 E107.23341
G0 F6000 X132.958 Y134.09
G1 F1200 X93.408 Y94.54 E109.09372
G0 F6000 X93.599 Y94.165
G1 F1200 X133.333 Y133.899 E110.96268
G0 F6000 X133.708 Y133.708
G1 F1200 X93.79 Y93.79 E112.8403
G0 F6000 X93.981 Y93.415
G1 F1200 X134.083 Y133.517 E114.72658
G0 F6000 X134.456 Y133.324
G1 F1200 X94.174 Y93.043 E116.6213
G0 F6000 X94.457 Y92.76
G1 F1200 X134.739 Y133.042 E118.51604
G0 F6000 X135.022 Y132.759
G1 F1200 X94.74 Y92.477 E120.41078
G0 F6000 X95.023 Y92.194
G1 F1200 X135.304 Y132.476 E122.3055
G0 F6000 X135.587 Y132.193
G1 F1200 X95.305 Y91.911 E124.20024
G0 F6000 X95.588 Y91.629
G1 F1200 X135.87 Y131.91 E126.09496
G0 F6000 X136.153 Y131.627
G1 F1200 X95.871 Y91.346 E127.98968
G0 F6000 X96.154 Y91.063
G1 F1200 X136.436 Y131.345 E129.88442
G0 F6000 X136.719 Y131.062
G1 F1200 X96.437 Y90.78 E131.77916
G0 F6000 X96.72 Y90.497
G1 F1200 X137.001 Y130.779 E133.67388
G0 F6000 X137.284 Y130.496
G1 F1200 X97.003 Y90.214 E135.5686
G0 F6000 X97.285 Y89.931
G1 F1200 X137.567 Y130.213 E137.46334
G0 F6000 X137.85 Y129.93
G1 F1200 X97.568 Y89.649 E139.35806
G0 F6000 X97.851 Y89.366
G1 F1200 X138.133 Y129.648 E141.2528
G0 F6000 X138.416 Y129.365
G1 F1200 X98.134 Y89.083 E143.14754
G0 F6000 X98.417 Y88.8
G1 F1200 X138.698 Y129.082 E145.04226
G0 F6000 X138.981 Y128.799
G1 F1200 X98.7 Y88.517 E146.93698
G0 F6000 X98.982 Y88.234
G1 F1200 X139.264 Y128.516 E148.83172
G0 F6000 X139.547 Y128.233
G1 F1200 X99.265 Y87.952 E150.72644
G0 F6000 X99.548 Y87.669
G1 F1200 X139.83 Y127.95 E152.62115
G0 F6000 X140.113 Y127.668
G1 F1200 X99.831 Y87.386 E154.5159
G0 F6000 X100.114 Y87.103
G1 F1200 X140.396 Y127.385 E156.41064
G0 F6000 X140.678 Y127.102
G1 F1200 X100.397 Y86.82 E158.30536
G0 F6000 X100.723 Y86.58
G1 F1200 X140.919 Y126.777 E160.19608
G0 F6000 X141.11 Y126.402
G1 F1200 X101.097 Y86.39 E162.07814
G0 F6000 X101.472 Y86.199
G1 F1200 X141.301 Y126.027 E163.95155
G0 F6000 X141.492 Y125.652
G1 F1200 X101.847 Y86.008 E165.81631
G0 F6000 X102.222 Y85.817
G1 F1200 X141.682 Y125.278 E167.67241
G0 F6000 X141.873 Y124.903
G1 F1200 X102.596 Y85.626 E169.51988
G0 F6000 X102.971 Y85.435
G1 F1200 X142.064 Y124.528 E171.35869
G0 F6000 X142.255 Y124.153
G1 F1200 X103.346 Y85.244 E173.18885
G0 F6000 X103.721 Y85.053
G1 F1200 X142.446 Y123.779 E175.01038
G0 F6000 X142.637 Y123.404
G1 F1200 X104.096 Y84.862 E176.82326
G0 F6000 X104.47 Y84.671
G1 F1200 X142.828 Y123.029 E178.6275
G0 F6000 X143.019 Y122.654
G1 F1200 X104.845 Y84.48 E180.42309
G0 F6000 X105.22 Y84.289
G1 F1200 X143.21 Y122.279 E182.21002
G0 F6000 X143.401 Y121.905
G1 F1200 X105.595 Y84.099 E183.9883
G0 F6000 X105.969 Y83.908
G1 F1200 X143.592 Y121.53 E185.75795
G0 F6000 X143.783 Y121.155
G1 F1200 X106.344 Y83.717 E187.51894
G0 F6000 X106.719 Y83.526
G1 F1200 X143.974 Y120.78 E189.27128
G0 F6000 X144.164 Y120.406
G1 F1200 X107.094 Y83.335 E191.01496
G0 F6000 X107.468 Y83.144
G1 F1200 X144.355 Y120.031 E192.75001
G0 F6000 X144.546 Y119.656
G1 F1200 X107.843 Y82.953 E194.47641
G0 F6000 X108.218 Y82.762
G1 F1200 X144.737 Y119.281 E196.19415
G0 F6000 X144.925 Y118.903
G1 F1200 X108.596 Y82.575 E197.90293
G0 F6000 X109.085 Y82.498
G1 F1200 X145.002 Y118.414 E199.59233
G0 F6000 X145.079 Y117.926
G1 F1200 X109.573 Y82.42 E201.26242
G0 F6000 X110.061 Y82.343
G1 F1200 X145.157 Y117.438 E202.91321
G0 F6000 X145.234 Y116.949
G1 F1200 X110.55 Y82.266 E204.54461
G0 F6000 X111.039 Y82.189
G1 F1200 X145.311 Y116.461 E206.15666
G0 F6000 X145.388 Y115.972
G1 F1200 X111.527 Y82.111 E207.74938
G0 F6000 X112.015 Y82.034
G1 F1200 X145.465 Y115.483 E209.32274
G0 F6000 X145.543 Y114.996
G1 F1200 X112.504 Y81.957 E210.8768
G0 F6000 X112.992 Y81.88
G1 F1200 X145.62 Y114.507 E212.41149
G0 F6000 X145.697 Y114.018
G1 F1200 X113.48 Y81.802 E213.92686
G0 F6000 X113.969 Y81.725
G1 F1200 X145.774 Y113.53 E215.42287
G0 F6000 X145.851 Y113.041
G1 F1200 X114.457 Y81.648 E216.89952
G0 F6000 X114.946 Y81.571
G1 F1200 X145.929 Y112.553 E218.35685
G0 F6000 X146.006 Y112.065
G1 F1200 X115.434 Y81.493 E219.79486
G0 F6000 X115.923 Y81.416
G1 F1200 X146.083 Y111.576 E221.21349
G0 F6000 X146.16 Y111.087
G1 F1200 X116.411 Y81.339 E222.61277
G0 F6000 X116.9 Y81.262
G1 F1200 X146.237 Y110.599 E223.99269
G0 F6000 X146.315 Y110.111
G1 F1200 X117.388 Y81.184 E225.35333
G0 F6000 X118.018 Y81.249
G1 F1200 X146.25 Y109.48 E226.68125
G0 F6000 X146.144 Y108.808
G1 F1200 X118.69 Y81.355 E227.97258
G0 F6000 X119.362 Y81.461
G1 F1200 X146.038 Y108.137 E229.22734
G0 F6000 X145.931 Y107.465
G1 F1200 X120.034 Y81.568 E230.44546
G0 F6000 X120.706 Y81.674
G1 F1200 X145.825 Y106.793 E231.62698
G0 F6000 X145.719 Y106.121
G1 F1200 X121.378 Y81.78 E232.7719
G0 F6000 X122.05 Y81.886
G1 F1200 X145.613 Y105.449 E233.88023
G0 F6000 X145.507 Y104.777
G1 F1200 X122.722 Y81.993 E234.95195
G0 F6000 X123.394 Y82.099
G1 F1200 X145.4 Y104.105 E235.98704
G0 F6000 X145.294 Y103.433
G1 F1200 X124.066 Y82.205 E236.98554
G0 F6000 X124.738 Y82.312
G1 F1200 X145.188 Y102.761 E237.94742
G0 F6000 X145.082 Y102.089
G1 F1200 X125.41 Y82.418 E238.87271
G0 F6000 X126.082 Y82.524
G1 F1200 X144.975 Y101.418 E239.7614
G0 F6000 X144.628 Y100.505
G1 F1200 X126.994 Y82.871 E240.59085
G0 F6000 X127.194 Y82.48
G0 X128.348 Y83.068
G0 X128.148 Y83.459
G1 F1200 X144.041 Y99.352 E241.33841
G0 F6000 X144.433 Y99.153
G0 X143.845 Y97.999
G0 X143.453 Y98.198
G1 F1200 X129.301 Y84.046 E242.00408
G0 F6000 X129.5 Y83.655
G0 X130.654 Y84.243
G0 X130.454 Y84.634
G1 F1200 X142.865 Y97.044 E242.58783
G0 F6000 X143.257 Y96.845
G0 X142.67 Y95.692
G0 X142.277 Y95.891
G1 F1200 X131.608 Y85.221 E243.08969
G0 F6000 X131.807 Y84.831
G0 X132.961 Y85.418
G0 X132.761 Y85.809
G1 F1200 X141.69 Y94.738 E243.50968
G0 F6000 X142.082 Y94.539
G0 X141.494 Y93.385
G0 X141.102 Y93.584
G1 F1200 X133.914 Y86.397 E243.84776
G0 F6000 X134.073 Y86.085
G1 F2700 E238.84776
;MESH:NONMESH
G0 F300 X134.073 Y86.085 Z0.4
G0 F6000 X134.114 Y86.006
G0 X134.676 Y86.36
G0 X141.14 Y92.824
G0 X145.29 Y100.969
G0 X146.72 Y110
G0 X145.29 Y119.031
G0 X141.14 Y127.176
G0 X134.676 Y133.64
G0 X126.531 Y137.79
G0 X117.5 Y139.392
;TIME_ELAPSED:387.280832
;LAYER:1
M106 S85
;TYPE:WALL-INNER
;MESH:a1e2s.stl
G1 F2700 E243.84776
G1 F1800 X108.415 Y137.954 E244.15369
G1 X100.223 Y133.78 E244.45949
G1 X93.72 Y127.277 E244.76537
G1 X89.546 Y119.085 E245.07116
G1 X88.805 Y114.4 E245.22892
G1 X77.549 Y114.4 E245.6033
G1 X76.141 Y114.177 E245.65071
G1 X74.917 Y113.553 E245.69641
G1 X73.947 Y112.583 E245.74204
G1 X73.323 Y111.359 E245.78773
G1 X73.108 Y110 E245.83349
G1 X73.323 Y108.641 E245.87926
G1 X73.947 Y107.417 E245.92495
G1 X74.917 Y106.447 E245.97058
G1 X76.141 Y105.823 E246.01627
G1 X77.549 Y105.6 E246.06369
G1 X88.805 Y105.6 E246.43806
G1 X89.546 Y100.915 E246.59582
G1 X93.72 Y92.723 E246.90162
G1 X100.223 Y86.22 E247.2075
G1 X108.415 Y82.046 E247.5133
