;FLAVOR:Marlin
;TIME:3971
;Filament used: 4.58836m
;Layer height: 0.2
;MINX:62.703
;MINY:70.203
;MINZ:0.2
;MAXX:157.297
;MAXY:149.797
;MAXZ:4
;Generated with Cura_SteamEngine 4.12.1
M140 S50
M105
M190 S50
M104 S200
M105
M109 S200
M82 ;absolute extrusion mode
M201 X500.00 Y500.00 Z100.00 E5000.00 ;Setup machine max acceleration
M203 X500.00 Y500.00 Z10.00 E50.00 ;Setup machine max feedrate
M204 P500.00 R1000.00 T500.00 ;Setup Print/Retract/Travel acceleration
M205 X8.00 Y8.00 Z0.40 E5.00 ;Setup Jerk
M220 S100 ;Reset Feedrate
M221 S100 ;Reset Flowrate

G28 ;Home

G92 E0 ;Reset Extruder
G1 Z2.0 F3000 ;Move Z Axis up
G1 X10.1 Y20 Z0.28 F5000.0 ;Move to start position
G1 X10.1 Y200.0 Z0.28 F1500.0 E15 ;Draw the first line
G1 X10.4 Y200.0 Z0.28 F5000.0 ;Move to side a little
G1 X10.4 Y20 Z0.28 F1500.0 E30 ;Draw the second line
G92 E0 ;Reset Extruder
G1 Z2.0 F3000 ;Move Z Axis up

G92 E0
G92 E0
G1 F2700 E-5
;LAYER_COUNT:20
;LAYER:0
M107
;MESH:a1e3s.stl
G0 F6000 X117.5 Y149.392 Z0.2
;TYPE:WALL-INNER
G1 F2700 E0
G1 F1200 X105.325 Y147.464 E0.40999
G1 X94.346 Y141.87 E0.81982
G1 X85.63 Y133.154 E1.22979
G1 X80.036 Y122.175 E1.63962
G1 X78.805 Y114.4 E1.90144
G1 X67.549 Y114.4 E2.27582
G1 X66.141 Y114.177 E2.32323
G1 X64.917 Y113.553 E2.36893
G1 X63.947 Y112.583 E2.41455
G1 X63.323 Y111.359 E2.46025
G1 X63.108 Y110 E2.50601
G1 X63.323 Y108.641 E2.55177
G1 X63.947 Y107.417 E2.59747
G1 X64.917 Y106.447 E2.6431
G1 X66.141 Y105.823 E2.68879
G1 X67.549 Y105.6 E2.73621
G1 X78.805 Y105.6 E3.11058
G1 X80.036 Y97.825 E3.3724
G1 X85.63 Y86.846 E3.78223
G1 X94.346 Y78.13 E4.19221
G1 X105.325 Y72.536 E4.60204
G1 X117.5 Y70.608 E5.01202
G1 X129.675 Y72.536 E5.42201
G1 X140.654 Y78.13 E5.83184
G1 X149.37 Y86.846 E6.24182
G1 X154.964 Y97.825 E6.65165
G1 X156.892 Y110 E7.06164
G1 X154.964 Y122.175 E7.47162
G1 X149.37 Y133.154 E7.88145
G1 X140.654 Y141.87 E8.29143
G1 X129.675 Y147.464 E8.70126
G1 X117.5 Y149.392 E9.11125
G0 F6000 X117.5 Y149.797
;TYPE:WALL-OUTER
G1 F1200 X105.2 Y147.849 E9.52545
G1 X94.107 Y142.197 E9.93953
G1 X85.303 Y133.393 E10.35364
G1 X79.651 Y122.3 E10.76773
G1 X78.463 Y114.8 E11.02029
G1 X67.518 Y114.8 E11.38432
G1 X66.016 Y114.562 E11.4349
G1 X64.678 Y113.88 E11.48485
G1 X63.62 Y112.822 E11.53462
G1 X62.938 Y111.484 E11.58457
G1 X62.703 Y110 E11.63454
G1 X62.938 Y108.516 E11.68451
G1 X63.62 Y107.178 E11.73446
G1 X64.678 Y106.12 E11.78423
G1 X66.016 Y105.438 E11.83418
G1 X67.518 Y105.2 E11.88476
G1 X78.463 Y105.2 E12.24879
G1 X79.651 Y97.7 E12.50135
G1 X85.303 Y86.607 E12.91544
G1 X94.107 Y77.803 E13.32955
G1 X105.2 Y72.151 E13.74363
G1 X117.5 Y70.203 E14.15783
G1 X129.8 Y72.151 E14.57203
G1 X140.893 Y77.803 E14.98612
G1 X149.697 Y86.607 E15.40023
G1 X155.349 Y97.7 E15.81431
G1 X157.297 Y110 E16.22851
G1 X155.349 Y122.3 E16.64271
G1 X149.697 Y133.393 E17.0568
G1 X140.893 Y142.197 E17.47091
G1 X129.8 Y147.849 E17.88499
G1 X117.5 Y149.797 E18.29919
G0 F6000 X117.5 Y149.357
G0 X117.5 Y148.996
;TYPE:SKIN
G1 F1200 X105.443 Y147.087 E18.70521
G1 X94.577 Y141.551 E19.11081
G1 X85.949 Y132.923 E19.51665
G1 X80.413 Y122.057 E19.92225
G1 X79.138 Y114.01 E20.19324
G1 X67.584 Y114.01 E20.57752
G1 X66.259 Y113.8 E20.62214
G1 X65.148 Y113.234 E20.66361
G1 X64.266 Y112.352 E20.7051
G1 X63.7 Y111.241 E20.74657
G1 X63.504 Y110 E20.78836
G1 X63.7 Y108.759 E20.83015
G1 X64.266 Y107.648 E20.87162
G1 X65.148 Y106.766 E20.9131
G1 X66.259 Y106.2 E20.95457
G1 X67.584 Y105.99 E20.99919
G1 X79.138 Y105.99 E21.38348
G1 X80.413 Y97.943 E21.65447
G1 X85.949 Y87.077 E22.06007
G1 X94.577 Y78.449 E22.46591
G1 X105.443 Y72.913 E22.87151
G1 X117.5 Y71.004 E23.27753
G1 X129.557 Y72.913 E23.68354
G1 X140.423 Y78.449 E24.08914
G1 X149.051 Y87.077 E24.49498
G1 X154.587 Y97.943 E24.90059
G1 X156.496 Y110 E25.3066
G1 X154.587 Y122.057 E25.71261
G1 X149.051 Y132.923 E26.11822
G1 X140.423 Y141.551 E26.52405
G1 X129.557 Y147.087 E26.92966
G1 X117.5 Y148.996 E27.33567
G1 F2700 E22.33567
G0 F6000 X117.456 Y149.273
G0 X105.379 Y147.3
G0 X94.447 Y141.73
G0 X85.77 Y133.053
G0 X79.882 Y122.227
G0 X78.659 Y114.57
G0 X67.801 Y114.446
G0 X65.739 Y113.848
G1 F2700 E27.33567
G0 F6000 X65.939 Y113.457
G1 F1200 X64.04 Y111.558 E27.42499
G0 F6000 X63.781 Y110.733
G1 F1200 X66.765 Y113.716 E27.56533
G0 F6000 X67.436 Y113.822
G1 F1200 X63.677 Y110.063 E27.74214
G0 F6000 X63.735 Y109.556
G1 F1200 X68.028 Y113.849 E27.94407
G0 F6000 X68.594 Y113.849
G1 F1200 X63.812 Y109.067 E28.169
G0 F6000 X63.942 Y108.631
G1 F1200 X69.159 Y113.849 E28.41442
G0 F6000 X69.725 Y113.849
G1 F1200 X64.133 Y108.256 E28.67747
G0 F6000 X64.324 Y107.882
G1 F1200 X70.291 Y113.849 E28.95814
G0 F6000 X70.857 Y113.849
G1 F1200 X64.572 Y107.565 E29.25374
G0 F6000 X64.855 Y107.282
G1 F1200 X71.422 Y113.849 E29.56263
G0 F6000 X71.988 Y113.849
G1 F1200 X65.138 Y106.999 E29.88484
G0 F6000 X65.48 Y106.775
G1 F1200 X72.554 Y113.849 E30.21758
G0 F6000 X73.119 Y113.849
G1 F1200 X65.854 Y106.584 E30.5593
G0 F6000 X66.229 Y106.393
G1 F1200 X73.685 Y113.849 E30.91001
G0 F6000 X74.251 Y113.849
G1 F1200 X66.694 Y106.292 E31.26547
G0 F6000 X67.182 Y106.215
G1 F1200 X74.816 Y113.849 E31.62455
G0 F6000 X75.382 Y113.849
G1 F1200 X67.682 Y106.149 E31.98673
G0 F6000 X68.248 Y106.149
G1 F1200 X75.948 Y113.849 E32.34891
G0 F6000 X76.513 Y113.849
G1 F1200 X68.814 Y106.149 E32.71108
G0 F6000 X69.379 Y106.149
G1 F1200 X77.079 Y113.849 E33.07326
G0 F6000 X77.645 Y113.849
G1 F1200 X69.945 Y106.149 E33.43544
G0 F6000 X70.511 Y106.149
G1 F1200 X78.21 Y113.849 E33.79761
G0 F6000 X78.776 Y113.849
G1 F1200 X71.076 Y106.149 E34.15979
G0 F6000 X71.642 Y106.149
G1 F1200 X113.728 Y148.235 E36.13939
G0 F6000 X114.399 Y148.341
G1 F1200 X72.208 Y106.149 E38.12394
G0 F6000 X72.774 Y106.149
G1 F1200 X115.071 Y148.447 E40.11349
G0 F6000 X115.744 Y148.553
G1 F1200 X73.339 Y106.149 E42.10807
G0 F6000 X73.905 Y106.149
G1 F1200 X116.415 Y148.66 E44.10763
G0 F6000 X117.087 Y148.766
G1 F1200 X74.471 Y106.149 E46.11218
G0 F6000 X75.036 Y106.149
G1 F1200 X117.688 Y148.801 E48.1184
G0 F6000 X118.177 Y148.724
G1 F1200 X75.602 Y106.149 E50.121
G0 F6000 X76.168 Y106.149
G1 F1200 X118.665 Y148.647 E52.11995
G0 F6000 X119.153 Y148.569
G1 F1200 X76.733 Y106.149 E54.11526
G0 F6000 X77.299 Y106.149
G1 F1200 X119.642 Y148.492 E56.10694
G0 F6000 X120.131 Y148.415
G1 F1200 X77.865 Y106.149 E58.095
G0 F6000 X78.43 Y106.149
G1 F1200 X120.619 Y148.338 E60.07945
G0 F6000 X121.107 Y148.26
G1 F1200 X78.996 Y106.149 E62.06022
G0 F6000 X79.312 Y105.899
G1 F1200 X121.596 Y148.183 E64.04913
G0 F6000 X122.084 Y148.106
G1 F1200 X79.39 Y105.411 E66.05735
G0 F6000 X79.467 Y104.923
G1 F1200 X122.573 Y148.029 E68.08492
G0 F6000 X123.062 Y147.952
G1 F1200 X79.545 Y104.435 E70.13183
G0 F6000 X79.622 Y103.946
G1 F1200 X123.549 Y147.874 E72.19804
G0 F6000 X124.038 Y147.797
G1 F1200 X79.7 Y103.458 E74.28359
G0 F6000 X79.777 Y102.97
G1 F1200 X124.527 Y147.72 E76.38849
G0 F6000 X125.015 Y147.643
G1 F1200 X79.854 Y102.482 E78.51273
G0 F6000 X79.932 Y101.993
G1 F1200 X125.503 Y147.565 E80.65627
G0 F6000 X125.992 Y147.488
G1 F1200 X80.009 Y101.505 E82.81917
G0 F6000 X80.086 Y101.017
G1 F1200 X126.48 Y147.411 E85.0014
G0 F6000 X126.969 Y147.334
G1 F1200 X80.163 Y100.528 E87.20301
G0 F6000 X80.241 Y100.04
G1 F1200 X127.457 Y147.256 E89.42391
G0 F6000 X127.946 Y147.179
G1 F1200 X80.318 Y99.552 E91.66416
G0 F6000 X80.396 Y99.064
G1 F1200 X128.434 Y147.102 E93.92372
G0 F6000 X128.923 Y147.025
G1 F1200 X80.473 Y98.575 E96.20266
G0 F6000 X80.551 Y98.087
G1 F1200 X129.411 Y146.947 E98.50088
G0 F6000 X129.808 Y146.779
G1 F1200 X80.719 Y97.69 E100.80988
G0 F6000 X80.91 Y97.315
G1 F1200 X130.183 Y146.588 E103.12753
G0 F6000 X130.558 Y146.397
G1 F1200 X81.101 Y96.94 E105.45384
G0 F6000 X81.292 Y96.566
G1 F1200 X130.932 Y146.206 E107.78875
G0 F6000 X131.307 Y146.015
G1 F1200 X81.483 Y96.191 E110.13232
G0 F6000 X81.674 Y95.816
G1 F1200 X131.682 Y145.824 E112.48454
G0 F6000 X132.057 Y145.633
G1 F1200 X81.865 Y95.441 E114.84542
G0 F6000 X82.056 Y95.066
G1 F1200 X132.431 Y145.442 E117.21493
G0 F6000 X132.806 Y145.251
G1 F1200 X82.247 Y94.692 E119.59307
G0 F6000 X82.438 Y94.317
G1 F1200 X133.181 Y145.06 E121.97986
G0 F6000 X133.556 Y144.869
G1 F1200 X82.628 Y93.942 E124.37534
G0 F6000 X82.819 Y93.567
G1 F1200 X133.93 Y144.678 E126.77944
G0 F6000 X134.305 Y144.488
G1 F1200 X83.01 Y93.193 E129.1922
G0 F6000 X83.201 Y92.818
G1 F1200 X134.68 Y144.297 E131.61361
G0 F6000 X135.055 Y144.106
G1 F1200 X83.392 Y92.443 E134.04368
G0 F6000 X83.583 Y92.068
G1 F1200 X135.43 Y143.915 E136.48241
G0 F6000 X135.804 Y143.724
G1 F1200 X83.774 Y91.694 E138.92974
G0 F6000 X83.965 Y91.319
G1 F1200 X136.179 Y143.533 E141.38573
G0 F6000 X136.554 Y143.342
G1 F1200 X84.156 Y90.944 E143.85037
G0 F6000 X84.347 Y90.569
G1 F1200 X136.929 Y143.151 E146.32366
G0 F6000 X137.303 Y142.96
G1 F1200 X84.538 Y90.195 E148.80557
G0 F6000 X84.729 Y89.82
G1 F1200 X137.677 Y142.769 E151.2961
G0 F6000 X138.052 Y142.578
G1 F1200 X84.919 Y89.445 E153.79532
G0 F6000 X85.11 Y89.07
G1 F1200 X138.427 Y142.387 E156.30318
G0 F6000 X138.802 Y142.196
G1 F1200 X85.301 Y88.695 E158.81971
G0 F6000 X85.492 Y88.321
G1 F1200 X139.176 Y142.005 E161.34484
G0 F6000 X139.551 Y141.814
G1 F1200 X85.683 Y87.946 E163.87862
G0 F6000 X85.874 Y87.571
G1 F1200 X139.926 Y141.623 E166.42106
G0 F6000 X140.301 Y141.432
G1 F1200 X86.065 Y87.196 E168.97216
G0 F6000 X86.341 Y86.907
G1 F1200 X140.591 Y141.156 E171.52389
G0 F6000 X140.874 Y140.874
G1 F1200 X86.624 Y86.624 E174.07564
G0 F6000 X86.907 Y86.341
G1 F1200 X141.156 Y140.591 E176.62737
G0 F6000 X141.439 Y140.308
G1 F1200 X87.19 Y86.059 E179.17908
G0 F6000 X87.473 Y85.776
G1 F1200 X141.722 Y140.025 E181.73079
G0 F6000 X142.005 Y139.742
G1 F1200 X87.756 Y85.493 E184.28249
G0 F6000 X88.039 Y85.21
G1 F1200 X142.288 Y139.459 E186.8342
G0 F6000 X142.571 Y139.176
G1 F1200 X88.321 Y84.927 E189.38593
G0 F6000 X88.604 Y84.644
G1 F1200 X142.853 Y138.894 E191.93766
G0 F6000 X143.136 Y138.611
G1 F1200 X88.887 Y84.362 E194.48937
G0 F6000 X89.17 Y84.079
G1 F1200 X143.419 Y138.328 E197.04107
G0 F6000 X143.702 Y138.045
G1 F1200 X89.453 Y83.796 E199.59278
G0 F6000 X89.736 Y83.513
G1 F1200 X143.985 Y137.762 E202.14449
G0 F6000 X144.268 Y137.479
G1 F1200 X90.018 Y83.23 E204.69622
G0 F6000 X90.301 Y82.947
G1 F1200 X144.551 Y137.197 E207.24797
G0 F6000 X144.833 Y136.914
G1 F1200 X90.584 Y82.665 E209.79968
G0 F6000 X90.867 Y82.382
G1 F1200 X145.116 Y136.631 E212.35138
G0 F6000 X145.399 Y136.348
G1 F1200 X91.15 Y82.099 E214.90309
G0 F6000 X91.433 Y81.816
G1 F1200 X145.682 Y136.065 E217.4548
G0 F6000 X145.965 Y135.782
G1 F1200 X91.715 Y81.533 E220.00653
G0 F6000 X91.998 Y81.25
G1 F1200 X146.248 Y135.5 E222.55828
G0 F6000 X146.53 Y135.217
G1 F1200 X92.281 Y80.967 E225.11001
G0 F6000 X92.564 Y80.685
G1 F1200 X146.813 Y134.934 E227.66172
G0 F6000 X147.096 Y134.651
G1 F1200 X92.847 Y80.402 E230.21342
G0 F6000 X93.13 Y80.119
G1 F1200 X147.379 Y134.368 E232.76513
G0 F6000 X147.662 Y134.085
G1 F1200 X93.413 Y79.836 E235.31684
G0 F6000 X93.695 Y79.553
G1 F1200 X147.945 Y133.802 E237.86857
G0 F6000 X148.227 Y133.52
G1 F1200 X93.978 Y79.27 E240.4203
G0 F6000 X94.261 Y78.988
G1 F1200 X148.51 Y133.237 E242.972
G0 F6000 X148.793 Y132.954
G1 F1200 X94.544 Y78.705 E245.52371
G0 F6000 X94.878 Y78.474
G1 F1200 X149.025 Y132.62 E248.0706
G0 F6000 X149.216 Y132.245
G1 F1200 X95.253 Y78.283 E250.60883
G0 F6000 X95.628 Y78.092
G1 F1200 X149.407 Y131.871 E253.13843
G0 F6000 X149.599 Y131.497
G1 F1200 X96.003 Y77.901 E255.65942
G0 F6000 X96.377 Y77.71
G1 F1200 X149.789 Y131.122 E258.17175
G0 F6000 X149.98 Y130.747
G1 F1200 X96.752 Y77.519 E260.67544
G0 F6000 X97.127 Y77.328
G1 F1200 X150.171 Y130.372 E263.17046
G0 F6000 X150.362 Y129.998
G1 F1200 X97.502 Y77.137 E265.65686
G0 F6000 X97.877 Y76.946
G1 F1200 X150.553 Y129.623 E268.1346
G0 F6000 X150.744 Y129.248
G1 F1200 X98.251 Y76.755 E270.60371
G0 F6000 X98.625 Y76.564
G1 F1200 X150.935 Y128.873 E273.06419
G0 F6000 X151.126 Y128.498
G1 F1200 X99 Y76.373 E275.51601
G0 F6000 X99.375 Y76.182
G1 F1200 X151.317 Y128.124 E277.9592
G0 F6000 X151.508 Y127.749
G1 F1200 X99.75 Y75.991 E280.39374
G0 F6000 X100.124 Y75.8
G1 F1200 X151.699 Y127.374 E282.81965
G0 F6000 X151.89 Y126.999
G1 F1200 X100.499 Y75.609 E285.2369
G0 F6000 X100.874 Y75.418
G1 F1200 X152.08 Y126.625 E287.6455
G0 F6000 X152.271 Y126.25
G1 F1200 X101.249 Y75.227 E290.04544
G0 F6000 X101.623 Y75.036
G1 F1200 X152.462 Y125.875 E292.43675
G0 F6000 X152.653 Y125.5
G1 F1200 X101.998 Y74.845 E294.8194
G0 F6000 X102.373 Y74.654
G1 F1200 X152.844 Y125.126 E297.19343
G0 F6000 X153.035 Y124.751
G1 F1200 X102.748 Y74.464 E299.55878
G0 F6000 X103.123 Y74.273
G1 F1200 X153.226 Y124.376 E301.91547
G0 F6000 X153.418 Y124.002
G1 F1200 X103.497 Y74.082 E304.26357
G0 F6000 X103.872 Y73.891
G1 F1200 X153.609 Y123.627 E306.60303
G0 F6000 X153.799 Y123.252
G1 F1200 X104.247 Y73.7 E308.9338
G0 F6000 X104.622 Y73.509
G1 F1200 X153.99 Y122.878 E311.25594
G0 F6000 X154.181 Y122.503
G1 F1200 X104.996 Y73.318 E313.56946
G0 F6000 X105.371 Y73.127
G1 F1200 X154.372 Y122.128 E315.87431
G0 F6000 X154.485 Y121.676
G1 F1200 X105.824 Y73.014 E318.1632
G0 F6000 X106.312 Y72.937
G1 F1200 X154.562 Y121.187 E320.43273
G0 F6000 X154.64 Y120.699
G1 F1200 X106.8 Y72.859 E322.68298
G0 F6000 X107.289 Y72.782
G1 F1200 X154.717 Y120.21 E324.91385
G0 F6000 X154.794 Y119.722
G1 F1200 X107.777 Y72.705 E327.12538
G0 F6000 X108.265 Y72.627
G1 F1200 X154.871 Y119.233 E329.31759
G0 F6000 X154.949 Y118.745
G1 F1200 X108.754 Y72.55 E331.49046
G0 F6000 X109.243 Y72.473
G1 F1200 X155.026 Y118.257 E333.64397
G0 F6000 X155.103 Y117.768
G1 F1200 X109.731 Y72.396 E335.77813
G0 F6000 X110.219 Y72.318
G1 F1200 X155.18 Y117.28 E337.89298
G0 F6000 X155.258 Y116.791
G1 F1200 X110.708 Y72.241 E339.98848
G0 F6000 X111.196 Y72.164
G1 F1200 X155.335 Y116.303 E342.06464
G0 F6000 X155.412 Y115.814
G1 F1200 X111.685 Y72.087 E344.12143
G0 F6000 X112.173 Y72.009
G1 F1200 X155.489 Y115.326 E346.1589
G0 F6000 X155.567 Y114.837
G1 F1200 X112.661 Y71.932 E348.17704
G0 F6000 X113.15 Y71.855
G1 F1200 X155.644 Y114.349 E350.17583
G0 F6000 X155.721 Y113.861
G1 F1200 X113.638 Y71.777 E352.15531
G0 F6000 X114.127 Y71.7
G1 F1200 X155.798 Y113.372 E354.11541
G0 F6000 X155.876 Y112.883
G1 F1200 X114.615 Y71.623 E356.05618
G0 F6000 X115.104 Y71.546
G1 F1200 X155.953 Y112.396 E357.97761
G0 F6000 X156.03 Y111.907
G1 F1200 X115.592 Y71.468 E359.87972
G0 F6000 X116.08 Y71.391
G1 F1200 X156.107 Y111.418 E361.76246
G0 F6000 X156.185 Y110.93
G1 F1200 X116.569 Y71.314 E363.62588
G0 F6000 X117.057 Y71.236
G1 F1200 X156.262 Y110.442 E365.46999
G0 F6000 X156.322 Y109.936
G1 F1200 X117.563 Y71.177 E367.29309
G0 F6000 X118.235 Y71.283
G1 F1200 X156.216 Y109.264 E369.0796
G0 F6000 X156.109 Y108.591
G1 F1200 X118.907 Y71.39 E370.82944
G0 F6000 X119.579 Y71.496
G1 F1200 X156.003 Y107.92 E372.54272
G0 F6000 X155.897 Y107.248
G1 F1200 X120.251 Y71.602 E374.2194
G0 F6000 X120.923 Y71.709
G1 F1200 X155.79 Y106.575 E375.85941
G0 F6000 X155.684 Y105.904
G1 F1200 X121.595 Y71.815 E377.46285
G0 F6000 X122.267 Y71.921
G1 F1200 X155.578 Y105.232 E379.0297
G0 F6000 X155.471 Y104.559
G1 F1200 X122.939 Y72.028 E380.55988
G0 F6000 X123.611 Y72.134
G1 F1200 X155.365 Y103.888 E382.05349
G0 F6000 X155.259 Y103.216
G1 F1200 X124.283 Y72.24 E383.51051
G0 F6000 X124.955 Y72.346
G1 F1200 X155.152 Y102.543 E384.93088
G0 F6000 X155.046 Y101.872
G1 F1200 X125.627 Y72.452 E386.31468
G0 F6000 X126.299 Y72.559
G1 F1200 X154.939 Y101.199 E387.66182
G0 F6000 X154.833 Y100.527
G1 F1200 X126.971 Y72.665 E388.97237
G0 F6000 X127.643 Y72.771
G1 F1200 X154.727 Y99.856 E390.24634
G0 F6000 X154.62 Y99.183
G1 F1200 X128.315 Y72.878 E391.48364
G0 F6000 X128.987 Y72.984
G1 F1200 X154.514 Y98.511 E392.68436
G0 F6000 X154.3 Y97.732
G1 F1200 X129.767 Y73.198 E393.83834
G0 F6000 X129.966 Y72.808
G0 X131.119 Y73.396
G0 X130.92 Y73.786
G1 F1200 X153.712 Y96.578 E394.9104
G0 F6000 X154.104 Y96.379
G0 X153.517 Y95.227
G0 X153.125 Y95.425
G1 F1200 X132.074 Y74.374 E395.90058
G0 F6000 X132.273 Y73.984
G0 X133.427 Y74.572
G0 X133.228 Y74.962
G1 F1200 X152.537 Y94.272 E396.80884
