;FLAVOR:Marlin
;TIME:1023
;Filament used: 1.09166m
;Layer height: 0.2
;MINX:90.631
;MINY:90.203
;MINZ:0.2
;MAXX:129.401
;MAXY:129.797
;MAXZ:4
;Generated with Cura_SteamEngine 4.12.1
M140 S50
M105
M190 S50
M104 S200
M105
M109 S200
M82 ;absolute extrusion mode
M201 X500.00 Y500.00 Z100.00 E5000.00 ;Setup machine max acceleration
M203 X500.00 Y500.00 Z10.00 E50.00 ;Setup machine max feedrate
M204 P500.00 R1000.00 T500.00 ;Setup Print/Retract/Travel acceleration
M205 X8.00 Y8.00 Z0.40 E5.00 ;Setup Jerk
M220 S100 ;Reset Feedrate
M221 S100 ;Reset Flowrate

G28 ;Home

G92 E0 ;Reset Extruder
G1 Z2.0 F3000 ;Move Z Axis up
G1 X10.1 Y20 Z0.28 F5000.0 ;Move to start position
G1 X10.1 Y200.0 Z0.28 F1500.0 E15 ;Draw the first line
G1 X10.4 Y200.0 Z0.28 F5000.0 ;Move to side a little
G1 X10.4 Y20 Z0.28 F1500.0 E30 ;Draw the second line
G92 E0 ;Reset Extruder
G1 Z2.0 F3000 ;Move Z Axis up

G92 E0
G92 E0
G1 F2700 E-5
;LAYER_COUNT:20
;LAYER:0
M107
;MESH:a1h1s.stl
G0 F6000 X109.604 Y129.392 Z0.2
;TYPE:WALL-INNER
G1 F2700 E0
G1 F1200 X103.61 Y128.443 E0.20184
G1 X98.205 Y125.689 E0.40361
G1 X93.915 Y121.399 E0.60539
G1 X91.161 Y115.994 E0.80716
G1 X91.099 Y115.602 E0.82036
G1 X94.652 Y115.602 E0.93853
G1 X96.339 Y115.336 E0.99533
G1 X97.902 Y114.539 E1.05369
G1 X99.143 Y113.297 E1.11208
G1 X99.94 Y111.734 E1.17044
G1 X100.213 Y110 E1.22882
G1 X99.94 Y108.266 E1.2872
G1 X99.143 Y106.703 E1.34556
G1 X97.902 Y105.461 E1.40395
G1 X96.339 Y104.664 E1.46231
G1 X94.652 Y104.397 E1.51912
G1 X91.099 Y104.397 E1.63729
G1 X91.161 Y104.006 E1.65046
G1 X93.915 Y98.601 E1.85222
G1 X98.205 Y94.311 E2.05401
G1 X103.61 Y91.557 E2.25577
G1 X109.604 Y90.608 E2.45761
G1 X115.598 Y91.557 E2.65946
G1 X121.003 Y94.311 E2.86122
G1 X125.293 Y98.601 E3.06301
G1 X128.047 Y104.006 E3.26477
G1 X128.996 Y110 E3.46662
G1 X128.047 Y115.994 E3.66846
G1 X125.293 Y121.399 E3.87022
G1 X121.003 Y125.689 E4.07201
G1 X115.598 Y128.443 E4.27377
G1 X109.604 Y129.392 E4.47562
G0 F6000 X109.604 Y129.797
;TYPE:WALL-OUTER
G1 F1200 X103.485 Y128.828 E4.68167
G1 X97.966 Y126.016 E4.88769
G1 X93.588 Y121.638 E5.09362
G1 X90.776 Y116.119 E5.29963
G1 X90.631 Y115.202 E5.33051
G1 X94.621 Y115.202 E5.46322
G1 X96.214 Y114.951 E5.51686
G1 X97.664 Y114.211 E5.571
G1 X98.815 Y113.059 E5.62516
G1 X99.555 Y111.609 E5.67931
G1 X99.808 Y110 E5.73348
G1 X99.555 Y108.391 E5.78765
G1 X98.815 Y106.941 E5.8418
G1 X97.664 Y105.789 E5.89596
G1 X96.214 Y105.049 E5.95011
G1 X94.621 Y104.797 E6.00375
G1 X90.631 Y104.797 E6.13646
G1 X90.776 Y103.881 E6.1673
G1 X93.588 Y98.362 E6.37332
G1 X97.966 Y93.984 E6.57925
G1 X103.485 Y91.172 E6.78526
G1 X109.604 Y90.203 E6.99132
G1 X115.723 Y91.172 E7.19737
G1 X121.242 Y93.984 E7.40339
G1 X125.62 Y98.362 E7.60932
G1 X128.432 Y103.881 E7.81533
G1 X129.401 Y110 E8.02139
G1 X128.432 Y116.119 E8.22744
G1 X125.62 Y121.638 E8.43346
G1 X121.242 Y126.016 E8.63939
G1 X115.723 Y128.828 E8.8454
G1 X109.604 Y129.797 E9.05146
G0 F6000 X109.604 Y129.357
G0 X109.604 Y128.996
;TYPE:SKIN
G1 F1200 X103.728 Y128.066 E9.24933
G1 X98.436 Y125.37 E9.44686
G1 X94.234 Y121.168 E9.64451
G1 X91.597 Y115.992 E9.83772
G1 X94.683 Y115.992 E9.94036
G1 X96.461 Y115.712 E10.00023
G1 X98.134 Y114.859 E10.06269
G1 X99.463 Y113.529 E10.12522
G1 X100.316 Y111.856 E10.18768
G1 X100.607 Y110 E10.25017
G1 X100.316 Y108.144 E10.31265
G1 X99.463 Y106.471 E10.37511
G1 X98.134 Y105.141 E10.43765
G1 X96.461 Y104.288 E10.50011
G1 X94.683 Y104.007 E10.55998
G1 X91.597 Y104.007 E10.66262
G1 X94.234 Y98.832 E10.8558
G1 X98.436 Y94.63 E11.05345
G1 X103.728 Y91.934 E11.25098
G1 X109.604 Y91.004 E11.44885
G1 X115.48 Y91.934 E11.64672
G1 X120.772 Y94.63 E11.84426
G1 X124.974 Y98.832 E12.04191
G1 X127.67 Y104.124 E12.23945
G1 X128.6 Y110 E12.43731
G1 X127.67 Y115.876 E12.63518
G1 X124.974 Y121.168 E12.83272
G1 X120.772 Y125.37 E13.03037
G1 X115.48 Y128.066 E13.22791
G1 X109.604 Y128.996 E13.42578
G0 F6000 X109.56 Y129.273
G0 X103.664 Y128.279
G0 X98.577 Y125.755
G0 X98.777 Y125.364
G1 F1200 X94.238 Y120.825 E13.63928
G0 F6000 X93.847 Y121.023
G0 X93.259 Y119.87
G0 X93.651 Y119.672
G1 F1200 X99.93 Y125.951 E13.93462
G0 F6000 X99.73 Y126.342
G0 X100.883 Y126.93
G0 X101.083 Y126.539
G1 F1200 X93.064 Y118.52 E14.31181
G0 F6000 X92.672 Y118.718
G0 X92.084 Y117.564
G0 X92.476 Y117.366
G1 F1200 X102.236 Y127.126 E14.77089
G0 F6000 X102.036 Y127.517
G0 X103.189 Y128.105
G0 X103.389 Y127.714
G1 F1200 X91.889 Y116.214 E15.31182
G0 F6000 X92.392 Y116.151
G1 F1200 X104.222 Y127.981 E15.86826
G0 F6000 X104.894 Y128.087
G1 F1200 X92.958 Y116.151 E16.4297
G0 F6000 X93.524 Y116.151
G1 F1200 X105.566 Y128.193 E16.99612
G0 F6000 X106.238 Y128.3
G1 F1200 X94.089 Y116.151 E17.56757
G0 F6000 X94.655 Y116.151
G1 F1200 X106.91 Y128.406 E18.14401
G0 F6000 X107.582 Y128.512
G1 F1200 X95.148 Y116.079 E18.72884
G0 F6000 X95.638 Y116.002
G1 F1200 X108.253 Y128.618 E19.32223
G0 F6000 X108.925 Y128.724
G1 F1200 X96.126 Y115.925 E19.92426
G0 F6000 X96.591 Y115.824
G1 F1200 X109.597 Y128.83 E20.53602
G0 F6000 X110.087 Y128.754
G1 F1200 X96.966 Y115.633 E21.15319
G0 F6000 X97.341 Y115.442
G1 F1200 X110.575 Y128.677 E21.7757
G0 F6000 X111.064 Y128.6
G1 F1200 X97.715 Y115.252 E22.40358
G0 F6000 X98.089 Y115.06
G1 F1200 X111.553 Y128.523 E23.03686
G0 F6000 X112.041 Y128.446
G1 F1200 X98.406 Y114.811 E23.67821
G0 F6000 X98.689 Y114.528
G1 F1200 X112.53 Y128.369 E24.32924
G0 F6000 X113.018 Y128.292
G1 F1200 X98.972 Y114.245 E24.98995
G0 F6000 X99.255 Y113.962
G1 F1200 X113.506 Y128.214 E25.6603
G0 F6000 X113.995 Y128.137
G1 F1200 X99.538 Y113.68 E26.34031
G0 F6000 X99.746 Y113.323
G1 F1200 X114.484 Y128.06 E27.03352
G0 F6000 X114.972 Y127.983
G1 F1200 X99.937 Y112.948 E27.74072
G0 F6000 X100.128 Y112.573
G1 F1200 X115.454 Y127.899 E28.4616
G0 F6000 X115.829 Y127.708
G1 F1200 X100.319 Y112.198 E29.19115
G0 F6000 X100.486 Y111.799
G1 F1200 X116.203 Y127.517 E29.93045
G0 F6000 X116.578 Y127.326
G1 F1200 X100.562 Y111.31 E30.68379
G0 F6000 X100.638 Y110.821
G1 F1200 X116.953 Y127.135 E31.45118
G0 F6000 X117.328 Y126.944
G1 F1200 X100.715 Y110.331 E32.2326
G0 F6000 X100.733 Y109.784
G1 F1200 X117.702 Y126.753 E33.03077
G0 F6000 X118.077 Y126.562
G1 F1200 X100.629 Y109.115 E33.85145
G0 F6000 X100.525 Y108.444
G1 F1200 X118.452 Y126.372 E34.6947
G0 F6000 X118.827 Y126.181
G1 F1200 X100.19 Y107.544 E35.57133
G0 F6000 X99.797 Y107.743
G0 X99.235 Y106.636
G0 X99.601 Y106.389
G1 F1200 X119.201 Y125.99 E36.49328
G0 F6000 X119.576 Y125.799
G1 F1200 X93.803 Y100.025 E37.70558
G0 F6000 X93.994 Y99.651
G1 F1200 X119.951 Y125.608 E38.92652
G0 F6000 X120.326 Y125.417
G1 F1200 X94.185 Y99.276 E40.15611
G0 F6000 X94.382 Y98.907
G1 F1200 X120.695 Y125.22 E41.3938
G0 F6000 X120.978 Y124.937
G1 F1200 X94.665 Y98.625 E42.63146
G0 F6000 X94.948 Y98.342
G1 F1200 X121.261 Y124.655 E43.86914
G0 F6000 X121.543 Y124.372
G1 F1200 X95.231 Y98.059 E45.1068
G0 F6000 X95.513 Y97.776
G1 F1200 X121.826 Y124.089 E46.34448
G0 F6000 X122.109 Y123.806
G1 F1200 X95.796 Y97.493 E47.58216
G0 F6000 X96.079 Y97.21
G1 F1200 X122.392 Y123.523 E48.81985
G0 F6000 X122.675 Y123.24
G1 F1200 X96.362 Y96.928 E50.05751
G0 F6000 X96.645 Y96.645
G1 F1200 X122.958 Y122.958 E51.29519
G0 F6000 X123.24 Y122.675
G1 F1200 X96.928 Y96.362 E52.53285
G0 F6000 X97.21 Y96.079
G1 F1200 X123.523 Y122.392 E53.77053
G0 F6000 X123.806 Y122.109
G1 F1200 X97.493 Y95.796 E55.00821
G0 F6000 X97.776 Y95.513
G1 F1200 X124.089 Y121.826 E56.2459
G0 F6000 X124.372 Y121.543
G1 F1200 X98.059 Y95.231 E57.48356
G0 F6000 X98.342 Y94.948
G1 F1200 X124.655 Y121.261 E58.72124
G0 F6000 X124.907 Y120.947
G1 F1200 X98.656 Y94.696 E59.95601
G0 F6000 X99.031 Y94.505
G1 F1200 X125.098 Y120.573 E61.18214
G0 F6000 X125.289 Y120.198
G1 F1200 X99.405 Y94.314 E62.39965
G0 F6000 X99.78 Y94.123
G1 F1200 X125.48 Y119.823 E63.60849
G0 F6000 X125.671 Y119.448
G1 F1200 X100.155 Y93.932 E64.80869
G0 F6000 X100.53 Y93.741
G1 F1200 X125.862 Y119.073 E66.00023
G0 F6000 X126.053 Y118.699
G1 F1200 X100.904 Y93.55 E67.18316
G0 F6000 X101.279 Y93.36
G1 F1200 X126.244 Y118.324 E68.35741
G0 F6000 X126.434 Y117.949
G1 F1200 X101.654 Y93.169 E69.52299
G0 F6000 X102.029 Y92.978
G1 F1200 X126.625 Y117.574 E70.67991
G0 F6000 X126.816 Y117.2
G1 F1200 X102.403 Y92.787 E71.82822
G0 F6000 X102.778 Y92.596
G1 F1200 X127.007 Y116.825 E72.96788
G0 F6000 X127.198 Y116.45
G1 F1200 X103.153 Y92.405 E74.09888
G0 F6000 X103.528 Y92.214
G1 F1200 X127.389 Y116.075 E75.22123
G0 F6000 X127.542 Y115.662
G1 F1200 X103.941 Y92.061 E76.33135
G0 F6000 X104.429 Y91.984
G1 F1200 X127.619 Y115.174 E77.42214
G0 F6000 X127.696 Y114.685
G1 F1200 X104.918 Y91.907 E78.49354
G0 F6000 X105.406 Y91.83
G1 F1200 X127.773 Y114.197 E79.54562
G0 F6000 X127.85 Y113.708
G1 F1200 X105.895 Y91.753 E80.57832
G0 F6000 X106.384 Y91.676
G1 F1200 X127.927 Y113.219 E81.59163
G0 F6000 X128.004 Y112.731
G1 F1200 X106.872 Y91.599 E82.58562
G0 F6000 X107.36 Y91.521
G1 F1200 X128.082 Y112.243 E83.56032
G0 F6000 X128.159 Y111.754
G1 F1200 X107.849 Y91.444 E84.51564
G0 F6000 X108.337 Y91.367
G1 F1200 X128.236 Y111.266 E85.45162
G0 F6000 X128.313 Y110.777
G1 F1200 X108.826 Y91.29 E86.36823
G0 F6000 X109.315 Y91.213
G1 F1200 X128.39 Y110.288 E87.26546
G0 F6000 X128.392 Y109.725
G1 F1200 X109.878 Y91.211 E88.1363
G0 F6000 X110.55 Y91.317
G1 F1200 X128.286 Y109.053 E88.97055
G0 F6000 X128.18 Y108.381
G1 F1200 X111.222 Y91.423 E89.7682
G0 F6000 X111.893 Y91.529
G1 F1200 X128.074 Y107.71 E90.52931
G0 F6000 X127.968 Y107.038
G1 F1200 X112.565 Y91.635 E91.25382
G0 F6000 X113.237 Y91.741
G1 F1200 X127.862 Y106.366 E91.94173
G0 F6000 X127.755 Y105.694
G1 F1200 X113.909 Y91.848 E92.59301
G0 F6000 X114.581 Y91.954
G1 F1200 X127.649 Y105.022 E93.20768
G0 F6000 X127.543 Y104.35
G1 F1200 X115.253 Y92.06 E93.78577
G0 F6000 X115.322 Y91.626
G0 X116.477 Y92.129
G0 X116.278 Y92.519
G1 F1200 X127.084 Y103.325 E94.29405
G0 F6000 X127.476 Y103.127
G0 X126.888 Y101.973
G0 X126.496 Y102.171
G1 F1200 X117.432 Y93.107 E94.72039
G0 F6000 X117.631 Y92.717
G0 X118.784 Y93.304
G0 X118.585 Y93.695
G1 F1200 X125.908 Y101.018 E95.06484
G0 F6000 X126.3 Y100.819
G0 X125.713 Y99.667
G0 X125.321 Y99.866
G1 F1200 X119.737 Y94.282 E95.3275
G1 F2700 E90.3275
G0 F6000 X119.937 Y93.891
G0 X115.544 Y91.721
G0 X109.604 Y90.78
G0 X103.664 Y91.721
G0 X98.306 Y94.451
G0 X94.055 Y98.702
G0 X91.325 Y104.06
G0 X95.428 Y104.445
G0 X97.969 Y105.369
G1 F2700 E95.3275
G0 F6000 X98.212 Y105.001
G1 F1200 X93.612 Y100.4 E95.54389
G0 F6000 X93.421 Y100.775
G1 F1200 X97.057 Y104.411 E95.71492
G0 F6000 X96.157 Y104.076
G1 F1200 X93.23 Y101.15 E95.85257
G0 F6000 X93.039 Y101.524
G1 F1200 X95.485 Y103.97 E95.96762
G0 F6000 X94.813 Y103.864
G1 F1200 X92.848 Y101.899 E96.06005
G0 F6000 X92.657 Y102.274
G1 F1200 X94.229 Y103.845 E96.13397
G0 F6000 X93.663 Y103.845
G1 F1200 X92.466 Y102.649 E96.19025
G0 F6000 X92.276 Y103.024
G1 F1200 X93.097 Y103.845 E96.22887
G0 F6000 X92.531 Y103.845
G1 F1200 X92.085 Y103.398 E96.24987
G0 F6000 X91.894 Y103.773
G1 F1200 X91.966 Y103.845 E96.25326
G0 F6000 X91.966 Y104.197
G1 F2700 E91.25326
;MESH:NONMESH
G0 F300 X91.966 Y104.197 Z0.4
G0 F6000 X91.966 Y104.287
G0 X94.64 Y104.558
G0 X96.289 Y104.818
G0 X97.806 Y105.593
G0 X99.011 Y106.799
G0 X99.786 Y108.316
G0 X100.05 Y110
G0 X99.786 Y111.684
G0 X98.744 Y113.936
G0 X96.393 Y115.5
G0 X91.314 Y115.787
G0 X94.055 Y121.298
G0 X98.306 Y125.549
G0 X103.664 Y128.279
G0 X109.604 Y129.392
;TIME_ELAPSED:160.517038
;LAYER:1
M106 S85
;TYPE:WALL-INNER
;MESH:a1h1s.stl
G1 F2700 E96.25326
G1 F1800 X103.61 Y128.443 E96.4551
G1 X98.205 Y125.689 E96.65686
G1 X93.915 Y121.399 E96.85865
G1 X91.161 Y115.994 E97.06041
G1 X91.099 Y115.602 E97.07361
G1 X94.652 Y115.602 E97.19179
G1 X96.339 Y115.336 E97.24859
G1 X97.902 Y114.539 E97.30694
G1 X99.143 Y113.297 E97.36534
G1 X99.94 Y111.734 E97.42369
G1 X100.213 Y110 E97.48208
G1 X99.94 Y108.266 E97.54046
G1 X99.143 Y106.703 E97.59881
G1 X97.902 Y105.461 E97.65721
G1 X96.339 Y104.664 E97.71556
G1 X94.652 Y104.397 E97.77237
G1 X91.099 Y104.397 E97.89055
G1 X91.161 Y104.006 E97.90371
G1 X93.915 Y98.601 E98.10548
G1 X98.205 Y94.311 E98.30726
G1 X103.61 Y91.557 E98.50903
G1 X109.604 Y90.608 E98.71087
G1 X115.598 Y91.557 E98.91271
G1 X121.003 Y94.311 E99.11448
G1 X125.293 Y98.601 E99.31627
G1 X128.047 Y104.006 E99.51803
G1 X128.996 Y110 E99.71987
G1 X128.047 Y115.994 E99.92172
G1 X125.293 Y121.399 E100.12348
G1 X121.003 Y125.689 E100.32527
G1 X115.598 Y128.443 E100.52703
G1 X109.604 Y129.392 E100.72887
G0 F9000 X109.604 Y129.797
;TYPE:WALL-OUTER
G1 F1800 X103.485 Y128.828 E100.93493
G1 X97.966 Y126.016 E101.14094
G1 X93.588 Y121.638 E101.34687
G1 X90.776 Y116.119 E101.55289
G1 X90.631 Y115.202 E101.58377
G1 X94.621 Y115.202 E101.71647
G1 X96.214 Y114.951 E101.77011
G1 X97.664 Y114.211 E101.82426
G1 X98.815 Y113.059 E101.87842
G1 X99.555 Y111.609 E101.93256
G1 X99.808 Y110 E101.98674
G1 X99.555 Y108.391 E102.04091
G1 X98.815 Y106.941 E102.09505
G1 X97.664 Y105.789 E102.14922
G1 X96.214 Y105.049 E102.20336
G1 X94.621 Y104.797 E102.257
G1 X90.631 Y104.797 E102.38971
G1 X90.776 Y103.881 E102.42056
G1 X93.588 Y98.362 E102.62657
G1 X97.966 Y93.984 E102.8325
G1 X103.485 Y91.172 E103.03852
G1 X109.604 Y90.203 E103.24457
G1 X115.723 Y91.172 E103.45063
G1 X121.242 Y93.984 E103.65664
G1 X125.62 Y98.362 E103.86257
G1 X128.432 Y103.881 E104.06859
G1 X129.401 Y110 E104.27464
G1 X128.432 Y116.119 E104.4807
G1 X125.62 Y121.638 E104.68671
G1 X121.242 Y126.016 E104.89264
G1 X115.723 Y128.828 E105.09866
G1 X109.604 Y129.797 E105.30471
G0 F9000 X109.604 Y129.357
G0 X109.604 Y128.996
;TYPE:SKIN
G1 F1800 X103.728 Y128.066 E105.50258
G1 X98.436 Y125.37 E105.70012
G1 X94.234 Y121.168 E105.89777
G1 X91.597 Y115.992 E106.09098
G1 X94.683 Y115.992 E106.19362
G1 X96.461 Y115.712 E106.25348
G1 X98.134 Y114.859 E106.31594
G1 X99.463 Y113.529 E106.37848
G1 X100.316 Y111.856 E106.44094
G1 X100.607 Y110 E106.50342
G1 X100.316 Y108.144 E106.56591
G1 X99.463 Y106.471 E106.62837
G1 X98.134 Y105.141 E106.6909
G1 X96.461 Y104.288 E106.75336
G1 X94.683 Y104.007 E106.81323
G1 X91.597 Y104.007 E106.91587
G1 X94.234 Y98.832 E107.10905
G1 X98.436 Y94.63 E107.3067
G1 X103.728 Y91.934 E107.50424
G1 X109.604 Y91.004 E107.70211
G1 X115.48 Y91.934 E107.89998
G1 X120.772 Y94.63 E108.09751
G1 X124.974 Y98.832 E108.29516
G1 X127.67 Y104.124 E108.4927
G1 X128.6 Y110 E108.69057
G1 X127.67 Y115.876 E108.88844
G1 X124.974 Y121.168 E109.08598
G1 X120.772 Y125.37 E109.28363
G1 X115.48 Y128.066 E109.48116
G1 X109.604 Y128.996 E109.67903
G0 F9000 X109.56 Y129.273
G0 X115.544 Y128.279
G0 X120.902 Y125.549
G0 X125.153 Y121.298
G0 X125.658 Y120.44
G0 X125.266 Y120.24
G1 F1800 X119.843 Y125.663 E109.93411
G0 F9000 X120.042 Y126.056
G0 X118.889 Y126.643
G0 X118.69 Y126.251
G1 F1800 X125.854 Y119.087 E110.27109
G0 F9000 X126.246 Y119.287
G0 X126.833 Y118.133
G0 X126.442 Y117.933
G1 F1800 X117.536 Y126.839 E110.69
G0 F9000 X117.735 Y127.231
G0 X116.581 Y127.819
G0 X116.383 Y127.427
G1 F1800 X127.03 Y116.78 E111.1908
G0 F9000 X127.421 Y116.98
G0 X127.969 Y115.779
G0 X127.533 Y115.71
G1 F1800 X115.314 Y127.93 E111.76557
G0 F9000 X114.642 Y128.036
G1 F1800 X127.639 Y115.039 E112.37691
G0 F9000 X127.745 Y114.367
G1 F1800 X113.97 Y128.142 E113.02484
G0 F9000 X113.299 Y128.248
G1 F1800 X127.851 Y113.695 E113.70935
G0 F9000 X127.958 Y113.023
G1 F1800 X112.627 Y128.354 E114.43047
G0 F9000 X111.955 Y128.46
G1 F1800 X128.064 Y112.352 E115.18816
G0 F9000 X128.17 Y111.68
G1 F1800 X111.283 Y128.566 E115.98245
G0 F9000 X110.612 Y128.672
G1 F1800 X128.276 Y111.008 E116.81331
G0 F9000 X128.382 Y110.336
G1 F1800 X109.94 Y128.778 E117.68077
G0 F9000 X109.359 Y128.793
G1 F1800 X128.397 Y109.756 E118.57623
G0 F9000 X128.32 Y109.267
G1 F1800 X108.871 Y128.716 E119.49106
G0 F9000 X108.382 Y128.639
G1 F1800 X128.243 Y108.779 E120.42523
G0 F9000 X128.165 Y108.29
G1 F1800 X107.893 Y128.562 E121.37876
G0 F9000 X107.405 Y128.484
G1 F1800 X128.088 Y107.802 E122.35161
G0 F9000 X128.011 Y107.314
G1 F1800 X106.917 Y128.407 E123.34378
G0 F9000 X106.428 Y128.33
G1 F1800 X127.934 Y106.825 E124.35533
G0 F9000 X127.856 Y106.336
G1 F1800 X105.94 Y128.253 E125.38622
