;FLAVOR:Marlin
;TIME:2170
;Filament used: 2.46996m
;Layer height: 0.2
;MINX:80.631
;MINY:80.203
;MINZ:0.2
;MAXX:139.401
;MAXY:139.797
;MAXZ:4
;Generated with Cura_SteamEngine 4.12.1
M140 S50
M105
M190 S50
M104 S200
M105
M109 S200
M82 ;absolute extrusion mode
M201 X500.00 Y500.00 Z100.00 E5000.00 ;Setup machine max acceleration
M203 X500.00 Y500.00 Z10.00 E50.00 ;Setup machine max feedrate
M204 P500.00 R1000.00 T500.00 ;Setup Print/Retract/Travel acceleration
M205 X8.00 Y8.00 Z0.40 E5.00 ;Setup Jerk
M220 S100 ;Reset Feedrate
M221 S100 ;Reset Flowrate

G28 ;Home

G92 E0 ;Reset Extruder
G1 Z2.0 F3000 ;Move Z Axis up
G1 X10.1 Y20 Z0.28 F5000.0 ;Move to start position
G1 X10.1 Y200.0 Z0.28 F1500.0 E15 ;Draw the first line
G1 X10.4 Y200.0 Z0.28 F5000.0 ;Move to side a little
G1 X10.4 Y20 Z0.28 F1500.0 E30 ;Draw the second line
G92 E0 ;Reset Extruder
G1 Z2.0 F3000 ;Move Z Axis up

G92 E0
G92 E0
G1 F2700 E-5
;LAYER_COUNT:20
;LAYER:0
M107
;MESH:a1h2s.stl
G0 F6000 X109.604 Y139.392 Z0.2
;TYPE:WALL-INNER
G1 F2700 E0
G1 F1200 X100.519 Y137.954 E0.30593
G1 X92.327 Y133.78 E0.61173
G1 X85.824 Y127.277 E0.91761
G1 X81.65 Y119.085 E1.2234
G1 X81.099 Y115.602 E1.34069
G1 X84.652 Y115.602 E1.45886
G1 X86.339 Y115.336 E1.51567
G1 X87.902 Y114.539 E1.57402
G1 X89.143 Y113.297 E1.63242
G1 X89.94 Y111.734 E1.69077
G1 X90.213 Y110 E1.74915
G1 X89.94 Y108.266 E1.80754
G1 X89.143 Y106.703 E1.86589
G1 X87.902 Y105.461 E1.92429
G1 X86.339 Y104.664 E1.98264
G1 X84.652 Y104.397 E2.03945
G1 X81.099 Y104.397 E2.15762
G1 X81.65 Y100.915 E2.27488
G1 X85.824 Y92.723 E2.58067
G1 X92.327 Y86.22 E2.88655
G1 X100.519 Y82.046 E3.19235
G1 X109.604 Y80.608 E3.49828
G1 X118.689 Y82.046 E3.80421
G1 X126.881 Y86.22 E4.11001
G1 X133.384 Y92.723 E4.41589
G1 X137.558 Y100.915 E4.72168
G1 X138.996 Y110 E5.02761
G1 X137.558 Y119.085 E5.33354
G1 X133.384 Y127.277 E5.63934
G1 X126.881 Y133.78 E5.94522
G1 X118.689 Y137.954 E6.25102
G1 X109.604 Y139.392 E6.55695
G0 F6000 X109.604 Y139.797
;TYPE:WALL-OUTER
G1 F1200 X100.394 Y138.339 E6.86709
G1 X92.088 Y134.107 E7.17714
G1 X85.497 Y127.516 E7.48716
G1 X81.265 Y119.21 E7.79721
G1 X80.631 Y115.202 E7.93217
G1 X84.621 Y115.202 E8.06488
G1 X86.214 Y114.951 E8.11852
G1 X87.664 Y114.211 E8.17266
G1 X88.815 Y113.059 E8.22683
G1 X89.555 Y111.609 E8.28097
G1 X89.808 Y110 E8.33515
G1 X89.555 Y108.391 E8.38932
G1 X88.815 Y106.941 E8.44346
G1 X87.664 Y105.789 E8.49763
G1 X86.214 Y105.049 E8.55177
G1 X84.621 Y104.797 E8.60541
G1 X80.631 Y104.797 E8.73812
G1 X81.265 Y100.79 E8.87305
G1 X85.497 Y92.484 E9.1831
G1 X92.088 Y85.893 E9.49312
G1 X100.394 Y81.661 E9.80317
G1 X109.604 Y80.203 E10.11331
G1 X118.814 Y81.661 E10.42345
G1 X127.12 Y85.893 E10.73351
G1 X133.711 Y92.484 E11.04353
G1 X137.943 Y100.79 E11.35358
G1 X139.401 Y110 E11.66372
G1 X137.943 Y119.21 E11.97386
G1 X133.711 Y127.516 E12.28391
G1 X127.12 Y134.107 E12.59393
G1 X118.814 Y138.339 E12.90398
G1 X109.604 Y139.797 E13.21412
G0 F6000 X109.604 Y139.357
G0 X109.604 Y138.996
;TYPE:SKIN
G1 F1200 X100.637 Y137.577 E13.51607
G1 X92.558 Y133.461 E13.81765
G1 X86.143 Y127.046 E14.11939
G1 X82.027 Y118.967 E14.42096
G1 X81.557 Y115.992 E14.52114
G1 X84.683 Y115.992 E14.62511
G1 X86.461 Y115.712 E14.68497
G1 X88.134 Y114.859 E14.74743
G1 X89.463 Y113.529 E14.80997
G1 X90.316 Y111.856 E14.87243
G1 X90.607 Y110 E14.93491
G1 X90.316 Y108.144 E14.9974
G1 X89.463 Y106.471 E15.05986
G1 X88.134 Y105.141 E15.12239
G1 X86.461 Y104.288 E15.18485
G1 X84.683 Y104.007 E15.24472
G1 X81.557 Y104.007 E15.34869
G1 X82.027 Y101.033 E15.44884
G1 X86.143 Y92.954 E15.75041
G1 X92.558 Y86.539 E16.05215
G1 X100.637 Y82.423 E16.35372
G1 X109.604 Y81.004 E16.65568
G1 X118.571 Y82.423 E16.95763
G1 X126.65 Y86.539 E17.2592
G1 X133.065 Y92.954 E17.56095
G1 X137.181 Y101.033 E17.86252
G1 X138.6 Y110 E18.16447
G1 X137.181 Y118.967 E18.46643
G1 X133.065 Y127.046 E18.768
G1 X126.65 Y133.461 E19.06974
G1 X118.571 Y137.577 E19.37131
G1 X109.604 Y138.996 E19.67327
G0 F6000 X109.56 Y139.273
G0 X100.573 Y137.79
G0 X93.498 Y134.253
G0 X93.698 Y133.862
G1 F1200 X85.74 Y125.903 E20.04761
G0 F6000 X85.348 Y126.102
G0 X84.761 Y124.948
G0 X85.152 Y124.75
G1 F1200 X94.852 Y134.449 E20.50385
G0 F6000 X94.652 Y134.841
G0 X95.805 Y135.428
G0 X96.005 Y135.037
G1 F1200 X84.565 Y123.597 E21.04195
G0 F6000 X84.173 Y123.795
G0 X83.586 Y122.642
G0 X83.977 Y122.444
G1 F1200 X97.158 Y135.625 E21.66194
G0 F6000 X96.958 Y136.016
G0 X98.111 Y136.603
G0 X98.311 Y136.212
G1 F1200 X83.389 Y121.29 E22.36383
G0 F6000 X82.998 Y121.488
G0 X82.41 Y120.335
G0 X82.802 Y120.137
G1 F1200 X99.465 Y136.8 E23.1476
G0 F6000 X99.265 Y137.191
G0 X100.418 Y137.779
G0 X100.618 Y137.388
G1 F1200 X82.214 Y118.984 E24.01327
G0 F6000 X82.08 Y118.284
G1 F1200 X101.317 Y137.521 E24.91812
G0 F6000 X101.989 Y137.627
G1 F1200 X81.974 Y117.612 E25.85957
G0 F6000 X81.868 Y116.94
G1 F1200 X102.662 Y137.734 E26.83765
G0 F6000 X103.333 Y137.84
G1 F1200 X81.762 Y116.268 E27.85231
G0 F6000 X82.21 Y116.151
G1 F1200 X104.005 Y137.946 E28.87748
G0 F6000 X104.677 Y138.053
G1 F1200 X82.776 Y116.151 E29.90766
G0 F6000 X83.341 Y116.151
G1 F1200 X105.349 Y138.159 E30.94285
G0 F6000 X106.021 Y138.265
G1 F1200 X83.907 Y116.151 E31.98302
G0 F6000 X84.473 Y116.151
G1 F1200 X106.693 Y138.372 E33.02821
G0 F6000 X107.365 Y138.478
G1 F1200 X84.991 Y116.104 E34.08061
G0 F6000 X85.48 Y116.027
G1 F1200 X108.037 Y138.584 E35.14162
G0 F6000 X108.709 Y138.691
G1 F1200 X85.969 Y115.95 E36.21127
G0 F6000 X86.457 Y115.873
G1 F1200 X109.381 Y138.797 E37.28954
G0 F6000 X109.93 Y138.78
G1 F1200 X86.845 Y115.695 E38.37539
G0 F6000 X87.22 Y115.504
G1 F1200 X110.418 Y138.703 E39.46657
G0 F6000 X110.907 Y138.626
G1 F1200 X87.594 Y115.313 E40.56315
G0 F6000 X87.969 Y115.122
G1 F1200 X111.396 Y138.549 E41.66508
G0 F6000 X111.884 Y138.472
G1 F1200 X88.315 Y114.902 E42.77372
G0 F6000 X88.598 Y114.619
G1 F1200 X112.372 Y138.394 E43.892
G0 F6000 X112.861 Y138.317
G1 F1200 X88.881 Y114.337 E45.01994
G0 F6000 X89.164 Y114.054
G1 F1200 X113.349 Y138.24 E46.15755
G0 F6000 X113.838 Y138.163
G1 F1200 X89.446 Y113.771 E47.30488
G0 F6000 X89.685 Y113.443
G1 F1200 X114.327 Y138.085 E48.46396
G0 F6000 X114.815 Y138.008
G1 F1200 X89.876 Y113.069 E49.63702
G0 F6000 X90.067 Y112.694
G1 F1200 X115.303 Y137.931 E50.82407
G0 F6000 X115.792 Y137.854
G1 F1200 X90.257 Y112.319 E52.02515
G0 F6000 X90.448 Y111.944
G1 F1200 X116.28 Y137.776 E53.24021
G0 F6000 X116.769 Y137.699
G1 F1200 X90.537 Y111.468 E54.47406
G0 F6000 X90.614 Y110.978
G1 F1200 X117.257 Y137.622 E55.72729
G0 F6000 X117.746 Y137.544
G1 F1200 X90.69 Y110.489 E56.9999
G0 F6000 X90.767 Y110
G1 F1200 X118.234 Y137.467 E58.29186
G0 F6000 X118.676 Y137.344
G1 F1200 X90.662 Y109.33 E59.60955
G0 F6000 X90.557 Y108.659
G1 F1200 X119.051 Y137.153 E60.94982
G0 F6000 X119.426 Y136.962
G1 F1200 X90.378 Y107.914 E62.31615
G0 F6000 X89.985 Y108.113
G0 X89.398 Y106.96
G0 X89.791 Y106.761
G1 F1200 X119.8 Y136.771 E63.72771
G0 F6000 X120.175 Y136.58
G1 F1200 X83.022 Y99.426 E65.47529
G0 F6000 X83.213 Y99.052
G1 F1200 X120.55 Y136.389 E67.23151
G0 F6000 X120.925 Y136.198
G1 F1200 X83.403 Y98.677 E68.99641
G0 F6000 X83.595 Y98.303
G1 F1200 X121.299 Y136.007 E70.76989
G0 F6000 X121.673 Y135.816
G1 F1200 X83.786 Y97.928 E72.552
G0 F6000 X83.977 Y97.553
G1 F1200 X122.048 Y135.625 E74.34277
G0 F6000 X122.423 Y135.434
G1 F1200 X84.168 Y97.179 E76.14217
G0 F6000 X84.359 Y96.804
G1 F1200 X122.798 Y135.243 E77.95022
G0 F6000 X123.173 Y135.052
G1 F1200 X84.55 Y96.429 E79.76693
G0 F6000 X84.741 Y96.054
G1 F1200 X123.547 Y134.861 E81.59226
G0 F6000 X123.922 Y134.67
G1 F1200 X84.932 Y95.68 E83.42623
G0 F6000 X85.122 Y95.305
G1 F1200 X124.297 Y134.479 E85.26888
G0 F6000 X124.672 Y134.288
G1 F1200 X85.313 Y94.93 E87.12019
G0 F6000 X85.504 Y94.555
G1 F1200 X125.046 Y134.097 E88.98012
G0 F6000 X125.421 Y133.906
G1 F1200 X85.695 Y94.18 E90.84871
G0 F6000 X85.886 Y93.806
G1 F1200 X125.796 Y133.716 E92.72595
G0 F6000 X126.171 Y133.525
G1 F1200 X86.077 Y93.431 E94.61185
G0 F6000 X86.268 Y93.056
G1 F1200 X126.545 Y133.334 E96.50638
G0 F6000 X126.831 Y133.054
G1 F1200 X86.549 Y92.771 E98.40115
G0 F6000 X86.832 Y92.488
G1 F1200 X127.114 Y132.771 E100.29591
G0 F6000 X127.397 Y132.488
G1 F1200 X87.114 Y92.206 E102.19068
G0 F6000 X87.397 Y91.923
G1 F1200 X127.68 Y132.205 E104.08544
G0 F6000 X127.962 Y131.922
G1 F1200 X87.68 Y91.64 E105.98019
G0 F6000 X87.963 Y91.357
G1 F1200 X128.245 Y131.639 E107.87493
G0 F6000 X128.528 Y131.357
G1 F1200 X88.246 Y91.074 E109.76969
G0 F6000 X88.529 Y90.791
G1 F1200 X128.811 Y131.074 E111.66446
G0 F6000 X129.094 Y130.791
G1 F1200 X88.811 Y90.508 E113.55925
G0 F6000 X89.094 Y90.226
G1 F1200 X129.377 Y130.508 E115.45401
G0 F6000 X129.66 Y130.225
G1 F1200 X89.377 Y89.943 E117.34878
G0 F6000 X89.66 Y89.66
G1 F1200 X129.942 Y129.942 E119.24352
G0 F6000 X130.225 Y129.66
G1 F1200 X89.943 Y89.377 E121.13828
G0 F6000 X90.226 Y89.094
G1 F1200 X130.508 Y129.377 E123.03305
G0 F6000 X130.791 Y129.094
G1 F1200 X90.508 Y88.811 E124.92784
G0 F6000 X90.791 Y88.529
G1 F1200 X131.074 Y128.811 E126.8226
G0 F6000 X131.357 Y128.528
G1 F1200 X91.074 Y88.246 E128.71737
G0 F6000 X91.357 Y87.963
G1 F1200 X131.639 Y128.245 E130.61211
G0 F6000 X131.922 Y127.962
G1 F1200 X91.64 Y87.68 E132.50685
G0 F6000 X91.923 Y87.397
G1 F1200 X132.205 Y127.68 E134.40162
G0 F6000 X132.488 Y127.397
G1 F1200 X92.206 Y87.114 E136.29638
G0 F6000 X92.488 Y86.832
G1 F1200 X132.771 Y127.114 E138.19115
G0 F6000 X133.015 Y126.792
G1 F1200 X92.811 Y86.588 E140.08222
G0 F6000 X93.186 Y86.397
G1 F1200 X133.206 Y126.417 E141.96464
G0 F6000 X133.397 Y126.043
G1 F1200 X93.56 Y86.206 E143.83845
G0 F6000 X93.935 Y86.016
G1 F1200 X133.588 Y125.668 E145.70358
G0 F6000 X133.778 Y125.293
G1 F1200 X94.31 Y85.825 E147.56004
G0 F6000 X94.685 Y85.634
G1 F1200 X133.969 Y124.918 E149.40783
G0 F6000 X134.16 Y124.544
G1 F1200 X95.059 Y85.443 E151.24703
G0 F6000 X95.434 Y85.252
G1 F1200 X134.351 Y124.169 E153.07756
G0 F6000 X134.542 Y123.794
G1 F1200 X95.809 Y85.061 E154.89944
G0 F6000 X96.184 Y84.87
G1 F1200 X134.733 Y123.419 E156.71267
G0 F6000 X134.924 Y123.045
G1 F1200 X96.558 Y84.679 E158.51729
G0 F6000 X96.933 Y84.488
G1 F1200 X135.115 Y122.67 E160.31325
G0 F6000 X135.306 Y122.295
G1 F1200 X97.308 Y84.297 E162.10056
G0 F6000 X97.683 Y84.106
G1 F1200 X135.497 Y121.92 E163.87922
G0 F6000 X135.688 Y121.546
G1 F1200 X98.057 Y83.915 E165.64926
G0 F6000 X98.432 Y83.724
G1 F1200 X135.879 Y121.171 E167.41066
G0 F6000 X136.07 Y120.797
G1 F1200 X98.806 Y83.533 E169.16344
G0 F6000 X99.181 Y83.342
G1 F1200 X136.261 Y120.422 E170.90757
G0 F6000 X136.452 Y120.047
G1 F1200 X99.556 Y83.151 E172.64305
G0 F6000 X99.931 Y82.96
G1 F1200 X136.643 Y119.672 E174.36986
G0 F6000 X136.834 Y119.298
G1 F1200 X100.305 Y82.769 E176.08808
G0 F6000 X100.68 Y82.578
G1 F1200 X137.025 Y118.923 E177.79763
G0 F6000 X137.103 Y118.436
G1 F1200 X101.167 Y82.5 E179.48795
G0 F6000 X101.656 Y82.423
G1 F1200 X137.18 Y117.947 E181.15889
G0 F6000 X137.257 Y117.458
G1 F1200 X102.145 Y82.346 E182.81045
G0 F6000 X102.633 Y82.269
G1 F1200 X137.334 Y116.97 E184.44268
G0 F6000 X137.412 Y116.481
G1 F1200 X103.122 Y82.191 E186.05558
G0 F6000 X103.61 Y82.114
G1 F1200 X137.489 Y115.993 E187.64914
G0 F6000 X137.566 Y115.505
G1 F1200 X104.098 Y82.037 E189.22338
G0 F6000 X104.587 Y81.96
G1 F1200 X137.643 Y115.016 E190.77823
G0 F6000 X137.721 Y114.527
G1 F1200 X105.076 Y81.882 E192.31375
G0 F6000 X105.564 Y81.805
G1 F1200 X137.798 Y114.039 E193.82994
G0 F6000 X137.875 Y113.55
G1 F1200 X106.053 Y81.728 E195.32675
G0 F6000 X106.541 Y81.651
G1 F1200 X137.952 Y113.062 E196.80422
G0 F6000 X138.029 Y112.573
G1 F1200 X107.03 Y81.574 E198.26232
G0 F6000 X107.518 Y81.496
G1 F1200 X138.107 Y112.085 E199.70114
G0 F6000 X138.184 Y111.597
G1 F1200 X108.007 Y81.419 E201.12059
G0 F6000 X108.495 Y81.342
G1 F1200 X138.261 Y111.108 E202.52069
G0 F6000 X138.338 Y110.619
G1 F1200 X108.984 Y81.265 E203.90142
G0 F6000 X109.472 Y81.188
G1 F1200 X138.415 Y110.131 E205.26281
G0 F6000 X138.358 Y109.508
G1 F1200 X110.095 Y81.245 E206.59221
G0 F6000 X110.767 Y81.351
G1 F1200 X138.252 Y108.836 E207.88502
G0 F6000 X138.146 Y108.164
G1 F1200 X111.439 Y81.457 E209.14124
G0 F6000 X112.111 Y81.564
G1 F1200 X138.039 Y107.492 E210.36081
G0 F6000 X137.933 Y106.821
G1 F1200 X112.782 Y81.67 E211.54384
G0 F6000 X113.455 Y81.776
G1 F1200 X137.827 Y106.148 E212.69022
G0 F6000 X137.721 Y105.476
G1 F1200 X114.127 Y81.882 E213.80001
G0 F6000 X114.798 Y81.989
G1 F1200 X137.615 Y104.805 E214.87323
G0 F6000 X137.508 Y104.133
G1 F1200 X115.47 Y82.095 E215.90983
G0 F6000 X116.142 Y82.201
G1 F1200 X137.402 Y103.461 E216.90983
G0 F6000 X137.296 Y102.789
G1 F1200 X116.814 Y82.307 E217.87324
G0 F6000 X117.486 Y82.414
G1 F1200 X137.19 Y102.117 E218.80004
G0 F6000 X137.083 Y101.445
G1 F1200 X118.158 Y82.52 E219.69021
G0 F6000 X119.05 Y82.846
G1 F1200 X136.757 Y100.553 E220.52309
G0 F6000 X137.149 Y100.354
G0 X136.561 Y99.201
G0 X136.169 Y99.4
G1 F1200 X120.203 Y83.434 E221.27408
G0 F6000 X120.403 Y83.043
G0 X121.556 Y83.631
G0 X121.357 Y84.021
G1 F1200 X135.582 Y98.246 E221.94318
G0 F6000 X135.974 Y98.048
G0 X135.386 Y96.894
G0 X134.994 Y97.093
G1 F1200 X122.51 Y84.609 E222.53039
G0 F6000 X122.709 Y84.218
G0 X123.863 Y84.806
G0 X123.663 Y85.197
G1 F1200 X134.406 Y95.94 E223.03571
G0 F6000 X134.799 Y95.741
G0 X134.211 Y94.587
G0 X133.819 Y94.786
G1 F1200 X124.817 Y85.784 E223.45914
G0 F6000 X125.016 Y85.394
G0 X126.17 Y85.981
G0 X125.97 Y86.372
G1 F1200 X133.231 Y93.633 E223.80067
G1 F2700 E218.80067
G0 F6000 X133.623 Y93.434
G0 X133.244 Y92.824
G0 X126.78 Y86.36
G0 X118.635 Y82.21
G0 X109.604 Y80.78
G0 X100.573 Y82.21
G0 X92.428 Y86.36
G0 X85.964 Y92.824
G0 X81.814 Y100.969
G0 X81.314 Y104.212
G0 X85.427 Y104.445
G0 X87.639 Y105.203
G1 F2700 E223.80067
G0 F6000 X87.84 Y104.81
G1 F1200 X82.831 Y99.801 E224.03628
G0 F6000 X82.64 Y100.176
G1 F1200 X86.685 Y104.221 E224.22655
G0 F6000 X85.941 Y104.042
G1 F1200 X82.449 Y100.551 E224.39078
G0 F6000 X82.258 Y100.926
G1 F1200 X85.268 Y103.936 E224.53236
G0 F6000 X84.612 Y103.845
G1 F1200 X82.134 Y101.367 E224.64891
G0 F6000 X82.057 Y101.856
G1 F1200 X84.046 Y103.845 E224.74247
G0 F6000 X83.481 Y103.845
G1 F1200 X81.981 Y102.345 E224.81303
G0 F6000 X81.904 Y102.834
G1 F1200 X82.915 Y103.845 E224.86058
G0 F6000 X82.349 Y103.845
G1 F1200 X81.827 Y103.323 E224.88513
G0 F6000 X81.48 Y103.268
G1 F2700 E219.88513
;MESH:NONMESH
G0 F300 X81.48 Y103.268 Z0.4
G0 F6000 X81.392 Y103.254
G0 X81.314 Y104.212
G0 X84.64 Y104.558
G0 X86.289 Y104.818
G0 X87.806 Y105.593
G0 X89.011 Y106.799
G0 X89.786 Y108.316
G0 X90.05 Y110
G0 X89.786 Y111.684
G0 X89.283 Y113.399
G0 X86.393 Y115.5
G0 X81.314 Y115.787
G0 X81.814 Y119.031
G0 X85.964 Y127.176
G0 X92.428 Y133.64
G0 X100.573 Y137.79
G0 X109.604 Y139.392
;TIME_ELAPSED:358.496587
;LAYER:1
M106 S85
;TYPE:WALL-INNER
;MESH:a1h2s.stl
G1 F2700 E224.88513
G1 F1800 X100.519 Y137.954 E225.19106
G1 X92.327 Y133.78 E225.49686
G1 X85.824 Y127.277 E225.80274
G1 X81.65 Y119.085 E226.10854
G1 X81.099 Y115.602 E226.22582
G1 X84.652 Y115.602 E226.344
G1 X86.339 Y115.336 E226.4008
G1 X87.902 Y114.539 E226.45915
G1 X89.143 Y113.297 E226.51755
G1 X89.94 Y111.734 E226.5759
G1 X90.213 Y110 E226.63429
G1 X89.94 Y108.266 E226.69267
G1 X89.143 Y106.703 E226.75102
G1 X87.902 Y105.461 E226.80942
G1 X86.339 Y104.664 E226.86778
G1 X84.652 Y104.397 E226.92458
G1 X81.099 Y104.397 E227.04276
G1 X81.65 Y100.915 E227.16001
G1 X85.824 Y92.723 E227.46581
G1 X92.327 Y86.22 E227.77169
G1 X100.519 Y82.046 E228.07748
G1 X109.604 Y80.608 E228.38341
G1 X118.689 Y82.046 E228.68934
G1 X126.881 Y86.22 E228.99514
G1 X133.384 Y92.723 E229.30102
G1 X137.558 Y100.915 E229.60682
G1 X138.996 Y110 E229.91275
G1 X137.558 Y119.085 E230.21868
G1 X133.384 Y127.277 E230.52447
G1 X126.881 Y133.78 E230.83036
G1 X118.689 Y137.954 E231.13615
G1 X109.604 Y139.392 E231.44208
G0 F9000 X109.604 Y139.797
;TYPE:WALL-OUTER
G1 F1800 X100.394 Y138.339 E231.75222
G1 X92.088 Y134.107 E232.06227
G1 X85.497 Y127.516 E232.37229
G1 X81.265 Y119.21 E232.68234
G1 X80.631 Y115.202 E232.81731
G1 X84.621 Y115.202 E232.95002
