;FLAVOR:Marlin
;TIME:2153
;Filament used: 2.43428m
;Layer height: 0.2
;MINX:80.631
;MINY:80.203
;MINZ:0.2
;MAXX:139.401
;MAXY:139.797
;MAXZ:4
;Generated with Cura_SteamEngine 4.12.1
M140 S50
M105
M190 S50
M104 S200
M105
M109 S200
M82 ;absolute extrusion mode
M201 X500.00 Y500.00 Z100.00 E5000.00 ;Setup machine max acceleration
M203 X500.00 Y500.00 Z10.00 E50.00 ;Setup machine max feedrate
M204 P500.00 R1000.00 T500.00 ;Setup Print/Retract/Travel acceleration
M205 X8.00 Y8.00 Z0.40 E5.00 ;Setup Jerk
M220 S100 ;Reset Feedrate
M221 S100 ;Reset Flowrate

G28 ;Home

G92 E0 ;Reset Extruder
G1 Z2.0 F3000 ;Move Z Axis up
G1 X10.1 Y20 Z0.28 F5000.0 ;Move to start position
G1 X10.1 Y200.0 Z0.28 F1500.0 E15 ;Draw the first line
G1 X10.4 Y200.0 Z0.28 F5000.0 ;Move to side a little
G1 X10.4 Y20 Z0.28 F1500.0 E30 ;Draw the second line
G92 E0 ;Reset Extruder
G1 Z2.0 F3000 ;Move Z Axis up

G92 E0
G92 E0
G1 F2700 E-5
;LAYER_COUNT:20
;LAYER:0
M107
;MESH:a1h2s.stl
G0 F6000 X109.604 Y139.392 Z0.2
;TYPE:WALL-INNER
G1 F2700 E0
G1 F1200 X100.519 Y137.954 E0.30593
G1 X92.327 Y133.78 E0.61173
G1 X85.824 Y127.277 E0.91761
G1 X81.65 Y119.085 E1.2234
G1 X81.099 Y115.602 E1.34069
G1 X89.652 Y115.602 E1.62516
G1 X91.339 Y115.336 E1.68197
G1 X92.902 Y114.539 E1.74032
G1 X94.143 Y113.297 E1.79872
G1 X94.94 Y111.734 E1.85707
G1 X95.213 Y110 E1.91545
G1 X94.94 Y108.266 E1.97384
G1 X94.143 Y106.703 E2.03219
G1 X92.902 Y105.461 E2.09059
G1 X91.339 Y104.664 E2.14894
G1 X89.652 Y104.397 E2.20575
G1 X81.099 Y104.397 E2.49022
G1 X81.65 Y100.915 E2.60748
G1 X85.824 Y92.723 E2.91327
G1 X92.327 Y86.22 E3.21916
G1 X100.519 Y82.046 E3.52495
G1 X109.604 Y80.608 E3.83088
G1 X118.689 Y82.046 E4.13681
G1 X126.881 Y86.22 E4.44261
G1 X133.384 Y92.723 E4.74849
G1 X137.558 Y100.915 E5.05429
G1 X138.996 Y110 E5.36022
G1 X137.558 Y119.085 E5.66615
G1 X133.384 Y127.277 E5.97194
G1 X126.881 Y133.78 E6.27782
G1 X118.689 Y137.954 E6.58362
G1 X109.604 Y139.392 E6.88955
G0 F6000 X109.604 Y139.797
;TYPE:WALL-OUTER
G1 F1200 X100.394 Y138.339 E7.19969
G1 X92.088 Y134.107 E7.50974
G1 X85.497 Y127.516 E7.81976
G1 X81.265 Y119.21 E8.12981
G1 X80.631 Y115.202 E8.26478
G1 X89.621 Y115.202 E8.56378
G1 X91.214 Y114.951 E8.61742
G1 X92.664 Y114.211 E8.67157
G1 X93.815 Y113.059 E8.72573
G1 X94.555 Y111.609 E8.77987
G1 X94.808 Y110 E8.83405
G1 X94.555 Y108.391 E8.88822
G1 X93.815 Y106.941 E8.94236
G1 X92.664 Y105.789 E8.99653
G1 X91.214 Y105.049 E9.05067
G1 X89.621 Y104.797 E9.10431
G1 X80.631 Y104.797 E9.40332
G1 X81.265 Y100.79 E9.53825
G1 X85.497 Y92.484 E9.84831
G1 X92.088 Y85.893 E10.15833
G1 X100.394 Y81.661 E10.46838
G1 X109.604 Y80.203 E10.77852
G1 X118.814 Y81.661 E11.08866
G1 X127.12 Y85.893 E11.39871
G1 X133.711 Y92.484 E11.70873
G1 X137.943 Y100.79 E12.01878
G1 X139.401 Y110 E12.32892
G1 X137.943 Y119.21 E12.63906
G1 X133.711 Y127.516 E12.94911
G1 X127.12 Y134.107 E13.25913
G1 X118.814 Y138.339 E13.56918
G1 X109.604 Y139.797 E13.87932
G0 F6000 X109.604 Y139.357
G0 X109.604 Y138.996
;TYPE:SKIN
G1 F1200 X100.637 Y137.577 E14.18128
G1 X92.558 Y133.461 E14.48285
G1 X86.143 Y127.046 E14.78459
G1 X82.027 Y118.967 E15.08616
G1 X81.557 Y115.992 E15.18634
G1 X89.683 Y115.992 E15.45661
G1 X91.461 Y115.712 E15.51648
G1 X93.134 Y114.859 E15.57894
G1 X94.463 Y113.529 E15.64147
G1 X95.316 Y111.856 E15.70393
G1 X95.607 Y110 E15.76642
G1 X95.316 Y108.144 E15.8289
G1 X94.463 Y106.471 E15.89136
G1 X93.134 Y105.141 E15.9539
G1 X91.461 Y104.288 E16.01635
G1 X89.683 Y104.007 E16.07623
G1 X81.557 Y104.007 E16.3465
G1 X82.027 Y101.033 E16.44664
G1 X86.143 Y92.954 E16.74821
G1 X92.558 Y86.539 E17.04995
G1 X100.637 Y82.423 E17.35153
G1 X109.604 Y81.004 E17.65348
G1 X118.571 Y82.423 E17.95544
G1 X126.65 Y86.539 E18.25701
G1 X133.065 Y92.954 E18.55875
G1 X137.181 Y101.033 E18.86032
G1 X138.6 Y110 E19.16228
G1 X137.181 Y118.967 E19.46423
G1 X133.065 Y127.046 E19.7658
G1 X126.65 Y133.461 E20.06754
G1 X118.571 Y137.577 E20.36912
G1 X109.604 Y138.996 E20.67107
G0 F6000 X109.56 Y139.273
G0 X100.573 Y137.79
G0 X93.498 Y134.253
G0 X93.698 Y133.862
G1 F1200 X85.74 Y125.903 E21.04541
G0 F6000 X85.348 Y126.102
G0 X84.761 Y124.948
G0 X85.152 Y124.75
G1 F1200 X94.852 Y134.449 E21.50165
G0 F6000 X94.652 Y134.841
G0 X95.805 Y135.428
G0 X96.005 Y135.037
G1 F1200 X84.565 Y123.597 E22.03975
G0 F6000 X84.173 Y123.795
G0 X83.586 Y122.642
G0 X83.977 Y122.444
G1 F1200 X97.158 Y135.625 E22.65975
G0 F6000 X96.958 Y136.016
G0 X98.111 Y136.603
G0 X98.311 Y136.212
G1 F1200 X83.389 Y121.29 E23.36163
G0 F6000 X82.998 Y121.488
G0 X82.41 Y120.335
G0 X82.802 Y120.137
G1 F1200 X99.465 Y136.8 E24.14541
G0 F6000 X99.265 Y137.191
G0 X100.418 Y137.779
G0 X100.618 Y137.388
G1 F1200 X82.214 Y118.984 E25.01108
G0 F6000 X82.08 Y118.284
G1 F1200 X101.317 Y137.521 E25.91592
G0 F6000 X101.989 Y137.627
G1 F1200 X81.974 Y117.612 E26.85737
G0 F6000 X81.868 Y116.94
G1 F1200 X102.662 Y137.734 E27.83546
G0 F6000 X103.333 Y137.84
G1 F1200 X81.762 Y116.268 E28.85011
G0 F6000 X82.21 Y116.151
G1 F1200 X104.005 Y137.946 E29.87528
G0 F6000 X104.677 Y138.053
G1 F1200 X82.776 Y116.151 E30.90546
G0 F6000 X83.341 Y116.151
G1 F1200 X105.349 Y138.159 E31.94065
G0 F6000 X106.021 Y138.265
G1 F1200 X83.907 Y116.151 E32.98083
G0 F6000 X84.473 Y116.151
G1 F1200 X106.693 Y138.372 E34.02601
G0 F6000 X107.365 Y138.478
G1 F1200 X85.038 Y116.151 E35.0762
G0 F6000 X85.604 Y116.151
G1 F1200 X108.037 Y138.584 E36.13138
G0 F6000 X108.709 Y138.691
G1 F1200 X86.17 Y116.151 E37.19157
G0 F6000 X86.735 Y116.151
G1 F1200 X109.381 Y138.797 E38.25677
G0 F6000 X109.93 Y138.78
G1 F1200 X87.301 Y116.151 E39.32117
G0 F6000 X87.867 Y116.151
G1 F1200 X110.418 Y138.703 E40.38192
G0 F6000 X110.907 Y138.626
G1 F1200 X88.432 Y116.151 E41.43908
G0 F6000 X88.998 Y116.151
G1 F1200 X111.396 Y138.549 E42.49261
G0 F6000 X111.884 Y138.472
G1 F1200 X89.564 Y116.151 E43.5425
G0 F6000 X90.07 Y116.092
G1 F1200 X112.372 Y138.394 E44.59152
G0 F6000 X112.861 Y138.317
G1 F1200 X90.559 Y116.015 E45.64053
G0 F6000 X91.048 Y115.938
G1 F1200 X113.349 Y138.24 E46.68953
G0 F6000 X113.838 Y138.163
G1 F1200 X91.531 Y115.855 E47.7388
G0 F6000 X91.906 Y115.664
G1 F1200 X114.327 Y138.085 E48.79342
G0 F6000 X114.815 Y138.008
G1 F1200 X92.28 Y115.473 E49.8534
G0 F6000 X92.655 Y115.282
G1 F1200 X115.303 Y137.931 E50.91871
G0 F6000 X115.792 Y137.854
G1 F1200 X93.029 Y115.091 E51.98941
G0 F6000 X93.361 Y114.857
G1 F1200 X116.28 Y137.776 E53.06745
G0 F6000 X116.769 Y137.699
G1 F1200 X93.644 Y114.574 E54.15518
G0 F6000 X93.927 Y114.291
G1 F1200 X117.257 Y137.622 E55.25258
G0 F6000 X117.746 Y137.544
G1 F1200 X94.209 Y114.008 E56.35966
G0 F6000 X94.492 Y113.726
G1 F1200 X118.234 Y137.467 E57.47639
G0 F6000 X118.676 Y137.344
G1 F1200 X94.716 Y113.383 E58.60342
G0 F6000 X94.907 Y113.009
G1 F1200 X119.051 Y137.153 E59.73908
G0 F6000 X119.426 Y136.962
G1 F1200 X95.097 Y112.633 E60.88344
G0 F6000 X95.288 Y112.258
G1 F1200 X119.8 Y136.771 E62.03643
G0 F6000 X120.175 Y136.58
G1 F1200 X95.472 Y111.877 E63.19839
G0 F6000 X95.549 Y111.389
G1 F1200 X120.55 Y136.389 E64.37433
G0 F6000 X120.925 Y136.198
G1 F1200 X95.626 Y110.899 E65.56432
G0 F6000 X95.702 Y110.41
G1 F1200 X121.299 Y136.007 E66.76833
G0 F6000 X121.673 Y135.816
G1 F1200 X95.75 Y109.892 E67.98769
G0 F6000 X95.646 Y109.222
G1 F1200 X122.048 Y135.625 E69.22958
G0 F6000 X122.423 Y135.434
G1 F1200 X95.541 Y108.552 E70.49403
G0 F6000 X95.284 Y107.729
G1 F1200 X122.798 Y135.243 E71.7882
G0 F6000 X123.173 Y135.052
G1 F1200 X94.695 Y106.575 E73.1277
G0 F6000 X94.303 Y106.774
G0 X92.825 Y105.298
G0 X93.026 Y104.905
G1 F1200 X84.55 Y96.429 E73.52638
G0 F6000 X84.359 Y96.804
G1 F1200 X91.872 Y104.317 E73.87977
G0 F6000 X91.049 Y104.059
G1 F1200 X84.168 Y97.179 E74.20341
G0 F6000 X83.977 Y97.553
G1 F1200 X90.377 Y103.953 E74.50444
G0 F6000 X89.705 Y103.847
G1 F1200 X83.786 Y97.928 E74.78285
G0 F6000 X83.595 Y98.303
G1 F1200 X89.138 Y103.846 E75.04358
G0 F6000 X88.572 Y103.846
G1 F1200 X83.403 Y98.677 E75.28671
G0 F6000 X83.213 Y99.052
G1 F1200 X88.007 Y103.846 E75.51221
G0 F6000 X87.441 Y103.846
G1 F1200 X83.022 Y99.426 E75.72009
G0 F6000 X82.831 Y99.801
G1 F1200 X86.875 Y103.846 E75.91033
G0 F6000 X86.31 Y103.846
G1 F1200 X82.64 Y100.176 E76.08296
G0 F6000 X82.449 Y100.551
G1 F1200 X85.744 Y103.846 E76.23794
G0 F6000 X85.178 Y103.846
G1 F1200 X82.258 Y100.926 E76.37529
G0 F6000 X82.134 Y101.367
G1 F1200 X84.613 Y103.846 E76.49189
G0 F6000 X84.047 Y103.846
G1 F1200 X82.057 Y101.856 E76.5855
G0 F6000 X81.981 Y102.345
G1 F1200 X83.481 Y103.846 E76.65608
G0 F6000 X82.916 Y103.846
G1 F1200 X81.904 Y102.834 E76.70368
G0 F6000 X81.827 Y103.323
G1 F1200 X82.35 Y103.846 E76.72828
G0 F6000 X82.35 Y104.287
G0 X81.314 Y104.212
G0 X81.814 Y100.969
G0 X84.352 Y95.855
G0 X84.741 Y96.054
G1 F1200 X123.547 Y134.861 E78.55362
G0 F6000 X123.922 Y134.67
G1 F1200 X84.932 Y95.68 E80.38759
G0 F6000 X85.122 Y95.305
G1 F1200 X124.297 Y134.479 E82.23024
G0 F6000 X124.672 Y134.288
G1 F1200 X85.313 Y94.93 E84.08154
G0 F6000 X85.504 Y94.555
G1 F1200 X125.046 Y134.097 E85.94147
G0 F6000 X125.421 Y133.906
G1 F1200 X85.695 Y94.18 E87.81006
G0 F6000 X85.886 Y93.806
G1 F1200 X125.796 Y133.716 E89.68731
G0 F6000 X126.171 Y133.525
G1 F1200 X86.077 Y93.431 E91.57321
G0 F6000 X86.268 Y93.056
G1 F1200 X126.545 Y133.334 E93.46774
G0 F6000 X126.831 Y133.054
G1 F1200 X86.549 Y92.771 E95.3625
G0 F6000 X86.832 Y92.488
G1 F1200 X127.114 Y132.771 E97.25727
G0 F6000 X127.397 Y132.488
G1 F1200 X87.114 Y92.206 E99.15203
G0 F6000 X87.397 Y91.923
G1 F1200 X127.68 Y132.205 E101.0468
G0 F6000 X127.962 Y131.922
G1 F1200 X87.68 Y91.64 E102.94154
G0 F6000 X87.963 Y91.357
G1 F1200 X128.245 Y131.639 E104.83628
G0 F6000 X128.528 Y131.357
G1 F1200 X88.246 Y91.074 E106.73105
G0 F6000 X88.529 Y90.791
G1 F1200 X128.811 Y131.074 E108.62581
G0 F6000 X129.094 Y130.791
G1 F1200 X88.811 Y90.508 E110.5206
G0 F6000 X89.094 Y90.226
G1 F1200 X129.377 Y130.508 E112.41536
G0 F6000 X129.66 Y130.225
G1 F1200 X89.377 Y89.943 E114.31013
G0 F6000 X89.66 Y89.66
G1 F1200 X129.942 Y129.942 E116.20487
G0 F6000 X130.225 Y129.66
G1 F1200 X89.943 Y89.377 E118.09964
G0 F6000 X90.226 Y89.094
G1 F1200 X130.508 Y129.377 E119.9944
G0 F6000 X130.791 Y129.094
G1 F1200 X90.508 Y88.811 E121.88919
G0 F6000 X90.791 Y88.529
G1 F1200 X131.074 Y128.811 E123.78396
G0 F6000 X131.357 Y128.528
G1 F1200 X91.074 Y88.246 E125.67872
G0 F6000 X91.357 Y87.963
G1 F1200 X131.639 Y128.245 E127.57346
G0 F6000 X131.922 Y127.962
G1 F1200 X91.64 Y87.68 E129.46821
G0 F6000 X91.923 Y87.397
G1 F1200 X132.205 Y127.68 E131.36297
G0 F6000 X132.488 Y127.397
G1 F1200 X92.206 Y87.114 E133.25774
G0 F6000 X92.488 Y86.832
G1 F1200 X132.771 Y127.114 E135.1525
G0 F6000 X133.015 Y126.792
G1 F1200 X92.811 Y86.588 E137.04357
G0 F6000 X93.186 Y86.397
G1 F1200 X133.206 Y126.417 E138.92599
G0 F6000 X133.397 Y126.043
G1 F1200 X93.56 Y86.206 E140.7998
G0 F6000 X93.935 Y86.016
G1 F1200 X133.588 Y125.668 E142.66493
G0 F6000 X133.778 Y125.293
G1 F1200 X94.31 Y85.825 E144.52139
G0 F6000 X94.685 Y85.634
G1 F1200 X133.969 Y124.918 E146.36919
G0 F6000 X134.16 Y124.544
G1 F1200 X95.059 Y85.443 E148.20838
G0 F6000 X95.434 Y85.252
G1 F1200 X134.351 Y124.169 E150.03892
G0 F6000 X134.542 Y123.794
G1 F1200 X95.809 Y85.061 E151.8608
G0 F6000 X96.184 Y84.87
G1 F1200 X134.733 Y123.419 E153.67402
G0 F6000 X134.924 Y123.045
G1 F1200 X96.558 Y84.679 E155.47864
G0 F6000 X96.933 Y84.488
G1 F1200 X135.115 Y122.67 E157.27461
G0 F6000 X135.306 Y122.295
G1 F1200 X97.308 Y84.297 E159.06192
G0 F6000 X97.683 Y84.106
G1 F1200 X135.497 Y121.92 E160.84057
G0 F6000 X135.688 Y121.546
G1 F1200 X98.057 Y83.915 E162.61062
G0 F6000 X98.432 Y83.724
G1 F1200 X135.879 Y121.171 E164.37201
G0 F6000 X136.07 Y120.797
G1 F1200 X98.806 Y83.533 E166.12479
G0 F6000 X99.181 Y83.342
G1 F1200 X136.261 Y120.422 E167.86892
G0 F6000 X136.452 Y120.047
G1 F1200 X99.556 Y83.151 E169.6044
G0 F6000 X99.931 Y82.96
G1 F1200 X136.643 Y119.672 E171.33122
G0 F6000 X136.834 Y119.298
G1 F1200 X100.305 Y82.769 E173.04943
G0 F6000 X100.68 Y82.578
G1 F1200 X137.025 Y118.923 E174.75899
G0 F6000 X137.103 Y118.436
G1 F1200 X101.167 Y82.5 E176.44931
G0 F6000 X101.656 Y82.423
G1 F1200 X137.18 Y117.947 E178.12025
G0 F6000 X137.257 Y117.458
G1 F1200 X102.145 Y82.346 E179.77181
G0 F6000 X102.633 Y82.269
G1 F1200 X137.334 Y116.97 E181.40404
G0 F6000 X137.412 Y116.481
G1 F1200 X103.122 Y82.191 E183.01693
G0 F6000 X103.61 Y82.114
G1 F1200 X137.489 Y115.993 E184.6105
G0 F6000 X137.566 Y115.505
G1 F1200 X104.098 Y82.037 E186.18473
G0 F6000 X104.587 Y81.96
G1 F1200 X137.643 Y115.016 E187.73958
G0 F6000 X137.721 Y114.527
G1 F1200 X105.076 Y81.882 E189.2751
G0 F6000 X105.564 Y81.805
G1 F1200 X137.798 Y114.039 E190.79129
G0 F6000 X137.875 Y113.55
G1 F1200 X106.053 Y81.728 E192.2881
G0 F6000 X106.541 Y81.651
G1 F1200 X137.952 Y113.062 E193.76558
G0 F6000 X138.029 Y112.573
G1 F1200 X107.03 Y81.574 E195.22368
G0 F6000 X107.518 Y81.496
G1 F1200 X138.107 Y112.085 E196.66249
G0 F6000 X138.184 Y111.597
G1 F1200 X108.007 Y81.419 E198.08195
G0 F6000 X108.495 Y81.342
G1 F1200 X138.261 Y111.108 E199.48205
G0 F6000 X138.338 Y110.619
G1 F1200 X108.984 Y81.265 E200.86277
G0 F6000 X109.472 Y81.188
G1 F1200 X138.415 Y110.131 E202.22416
G0 F6000 X138.358 Y109.508
G1 F1200 X110.095 Y81.245 E203.55356
G0 F6000 X110.767 Y81.351
G1 F1200 X138.252 Y108.836 E204.84637
G0 F6000 X138.146 Y108.164
G1 F1200 X111.439 Y81.457 E206.10259
G0 F6000 X112.111 Y81.564
G1 F1200 X138.039 Y107.492 E207.32216
G0 F6000 X137.933 Y106.821
G1 F1200 X112.782 Y81.67 E208.50519
G0 F6000 X113.455 Y81.776
G1 F1200 X137.827 Y106.148 E209.65157
G0 F6000 X137.721 Y105.476
G1 F1200 X114.127 Y81.882 E210.76136
G0 F6000 X114.798 Y81.989
G1 F1200 X137.615 Y104.805 E211.83458
G0 F6000 X137.508 Y104.133
G1 F1200 X115.47 Y82.095 E212.87118
G0 F6000 X116.142 Y82.201
G1 F1200 X137.402 Y103.461 E213.87119
G0 F6000 X137.296 Y102.789
G1 F1200 X116.814 Y82.307 E214.8346
G0 F6000 X117.486 Y82.414
G1 F1200 X137.19 Y102.117 E215.76139
G0 F6000 X137.083 Y101.445
G1 F1200 X118.158 Y82.52 E216.65156
G0 F6000 X119.05 Y82.846
G1 F1200 X136.757 Y100.553 E217.48445
G0 F6000 X137.149 Y100.354
G0 X136.561 Y99.201
G0 X136.169 Y99.4
G1 F1200 X120.203 Y83.434 E218.23544
G0 F6000 X120.403 Y83.043
G0 X121.556 Y83.631
G0 X121.357 Y84.021
G1 F1200 X135.582 Y98.246 E218.90454
G0 F6000 X135.974 Y98.048
G0 X135.386 Y96.894
G0 X134.994 Y97.093
G1 F1200 X122.51 Y84.609 E219.49175
G0 F6000 X122.709 Y84.218
G0 X123.863 Y84.806
G0 X123.663 Y85.197
G1 F1200 X134.406 Y95.94 E219.99706
G0 F6000 X134.799 Y95.741
G0 X134.211 Y94.587
G0 X133.819 Y94.786
G1 F1200 X124.817 Y85.784 E220.42049
G0 F6000 X125.016 Y85.394
G0 X126.17 Y85.981
G0 X125.97 Y86.372
G1 F1200 X133.231 Y93.633 E220.76203
G0 F6000 X133.543 Y93.474
G1 F2700 E215.76203
;MESH:NONMESH
G0 F300 X133.543 Y93.474 Z0.4
G0 F6000 X133.623 Y93.434
G0 X137.394 Y100.969
G0 X138.824 Y110
G0 X137.394 Y119.031
G0 X133.244 Y127.176
G0 X126.78 Y133.64
G0 X118.635 Y137.79
G0 X109.604 Y139.392
;TIME_ELAPSED:351.065195
;LAYER:1
M106 S85
;TYPE:WALL-INNER
;MESH:a1h2s.stl
G1 F2700 E220.76203
G1 F1800 X100.519 Y137.954 E221.06796
G1 X92.327 Y133.78 E221.37375
G1 X85.824 Y127.277 E221.67963
G1 X81.65 Y119.085 E221.98543
G1 X81.099 Y115.602 E222.10272
G1 X89.652 Y115.602 E222.38719
G1 X91.339 Y115.336 E222.44399
G1 X92.902 Y114.539 E222.50235
G1 X94.143 Y113.297 E222.56074
G1 X94.94 Y111.734 E222.6191
G1 X95.213 Y110 E222.67748
G1 X94.94 Y108.266 E222.73586
G1 X94.143 Y106.703 E222.79422
G1 X92.902 Y105.461 E222.85261
G1 X91.339 Y104.664 E222.91097
G1 X89.652 Y104.397 E222.96778
G1 X81.099 Y104.397 E223.25225
G1 X81.65 Y100.915 E223.3695
G1 X85.824 Y92.723 E223.6753
G1 X92.327 Y86.22 E223.98118
G1 X100.519 Y82.046 E224.28698
G1 X109.604 Y80.608 E224.59291
G1 X118.689 Y82.046 E224.89884
G1 X126.881 Y86.22 E225.20463
G1 X133.384 Y92.723 E225.51052
G1 X137.558 Y100.915 E225.81631
G1 X138.996 Y110 E226.12224
G1 X137.558 Y119.085 E226.42817
G1 X133.384 Y127.277 E226.73397
G1 X126.881 Y133.78 E227.03985
G1 X118.689 Y137.954 E227.34565
G1 X109.604 Y139.392 E227.65158
G0 F9000 X109.604 Y139.797
;TYPE:WALL-OUTER
