;FLAVOR:Marlin
;TIME:3772
;Filament used: 4.34742m
;Layer height: 0.2
;MINX:70.631
;MINY:70.203
;MINZ:0.2
;MAXX:149.401
;MAXY:149.797
;MAXZ:4
;Generated with Cura_SteamEngine 4.12.1
M140 S50
M105
M190 S50
M104 S200
M105
M109 S200
M82 ;absolute extrusion mode
M201 X500.00 Y500.00 Z100.00 E5000.00 ;Setup machine max acceleration
M203 X500.00 Y500.00 Z10.00 E50.00 ;Setup machine max feedrate
M204 P500.00 R1000.00 T500.00 ;Setup Print/Retract/Travel acceleration
M205 X8.00 Y8.00 Z0.40 E5.00 ;Setup Jerk
M220 S100 ;Reset Feedrate
M221 S100 ;Reset Flowrate

G28 ;Home

G92 E0 ;Reset Extruder
G1 Z2.0 F3000 ;Move Z Axis up
G1 X10.1 Y20 Z0.28 F5000.0 ;Move to start position
G1 X10.1 Y200.0 Z0.28 F1500.0 E15 ;Draw the first line
G1 X10.4 Y200.0 Z0.28 F5000.0 ;Move to side a little
G1 X10.4 Y20 Z0.28 F1500.0 E30 ;Draw the second line
G92 E0 ;Reset Extruder
G1 Z2.0 F3000 ;Move Z Axis up

G92 E0
G92 E0
G1 F2700 E-5
;LAYER_COUNT:20
;LAYER:0
M107
;MESH:a1h3s.stl
G0 F6000 X109.604 Y149.392 Z0.2
;TYPE:WALL-INNER
G1 F2700 E0
G1 F1200 X97.429 Y147.464 E0.40999
G1 X86.45 Y141.87 E0.81982
G1 X77.734 Y133.154 E1.22979
G1 X72.14 Y122.175 E1.63962
G1 X71.099 Y115.602 E1.86097
G1 X79.652 Y115.602 E2.14544
G1 X81.339 Y115.336 E2.20224
G1 X82.902 Y114.539 E2.2606
G1 X84.143 Y113.297 E2.31899
G1 X84.94 Y111.734 E2.37735
G1 X85.213 Y110 E2.43573
G1 X84.94 Y108.266 E2.49412
G1 X84.143 Y106.703 E2.55247
G1 X82.902 Y105.461 E2.61087
G1 X81.339 Y104.664 E2.66922
G1 X79.652 Y104.397 E2.72603
G1 X71.099 Y104.397 E3.0105
G1 X72.14 Y97.825 E3.23181
G1 X77.734 Y86.846 E3.64164
G1 X86.45 Y78.13 E4.05162
G1 X97.429 Y72.536 E4.46145
G1 X109.604 Y70.608 E4.87144
G1 X121.779 Y72.536 E5.28142
G1 X132.758 Y78.13 E5.69126
G1 X141.474 Y86.846 E6.10123
G1 X147.068 Y97.825 E6.51106
G1 X148.996 Y110 E6.92105
G1 X147.068 Y122.175 E7.33104
G1 X141.474 Y133.154 E7.74087
G1 X132.758 Y141.87 E8.15084
G1 X121.779 Y147.464 E8.56067
G1 X109.604 Y149.392 E8.97066
G0 F6000 X109.604 Y149.797
;TYPE:WALL-OUTER
G1 F1200 X97.304 Y147.849 E9.38486
G1 X86.211 Y142.197 E9.79894
G1 X77.407 Y133.393 E10.21306
G1 X71.755 Y122.3 E10.62714
G1 X70.631 Y115.202 E10.86616
G1 X79.621 Y115.202 E11.16517
G1 X81.214 Y114.951 E11.21881
G1 X82.664 Y114.211 E11.27295
G1 X83.815 Y113.059 E11.32712
G1 X84.555 Y111.609 E11.38126
G1 X84.808 Y110 E11.43544
G1 X84.555 Y108.391 E11.48961
G1 X83.815 Y106.941 E11.54375
G1 X82.664 Y105.789 E11.59792
G1 X81.214 Y105.049 E11.65206
G1 X79.621 Y104.797 E11.7057
G1 X70.631 Y104.797 E12.00471
G1 X71.755 Y97.7 E12.2437
G1 X77.407 Y86.607 E12.65779
G1 X86.211 Y77.803 E13.0719
G1 X97.304 Y72.151 E13.48598
G1 X109.604 Y70.203 E13.90018
G1 X121.904 Y72.151 E14.31438
G1 X132.997 Y77.803 E14.72847
G1 X141.801 Y86.607 E15.14258
G1 X147.453 Y97.7 E15.55666
G1 X149.401 Y110 E15.97086
G1 X147.453 Y122.3 E16.38506
G1 X141.801 Y133.393 E16.79915
G1 X132.997 Y142.197 E17.21326
G1 X121.904 Y147.849 E17.62734
G1 X109.604 Y149.797 E18.04154
G0 F6000 X109.604 Y149.357
G0 X109.604 Y148.996
;TYPE:SKIN
G1 F1200 X97.547 Y147.087 E18.44756
G1 X86.681 Y141.551 E18.85316
G1 X78.053 Y132.923 E19.259
G1 X72.517 Y122.057 E19.6646
G1 X71.557 Y115.992 E19.86884
G1 X79.683 Y115.992 E20.13911
G1 X81.461 Y115.712 E20.19897
G1 X83.134 Y114.859 E20.26143
G1 X84.463 Y113.529 E20.32397
G1 X85.316 Y111.856 E20.38643
G1 X85.607 Y110 E20.44891
G1 X85.316 Y108.144 E20.5114
G1 X84.463 Y106.471 E20.57386
G1 X83.134 Y105.141 E20.63639
G1 X81.461 Y104.288 E20.69885
G1 X79.683 Y104.007 E20.75872
G1 X71.557 Y104.007 E21.029
G1 X72.517 Y97.943 E21.2332
G1 X78.053 Y87.077 E21.6388
G1 X86.681 Y78.449 E22.04464
G1 X97.547 Y72.913 E22.45024
G1 X109.604 Y71.004 E22.85626
G1 X121.661 Y72.913 E23.26227
G1 X132.527 Y78.449 E23.66788
G1 X141.155 Y87.077 E24.07371
G1 X146.691 Y97.943 E24.47932
G1 X148.6 Y110 E24.88533
G1 X146.691 Y122.057 E25.29134
G1 X141.155 Y132.923 E25.69695
G1 X132.527 Y141.551 E26.10278
G1 X121.661 Y147.087 E26.50839
G1 X109.604 Y148.996 E26.9144
G0 F6000 X109.56 Y149.273
G0 X97.483 Y147.3
G0 X87.264 Y142.161
G0 X87.464 Y141.769
G1 F1200 X77.832 Y132.138 E27.36744
G0 F6000 X77.44 Y132.336
G0 X76.853 Y131.184
G0 X77.245 Y130.985
G1 F1200 X88.617 Y142.357 E27.90234
G0 F6000 X88.417 Y142.749
G0 X89.571 Y143.337
G0 X89.771 Y142.945
G1 F1200 X76.656 Y129.831 E28.51921
G0 F6000 X76.265 Y130.029
G0 X75.677 Y128.876
G0 X76.069 Y128.677
G1 F1200 X90.924 Y143.533 E29.21797
G0 F6000 X90.724 Y143.924
G0 X91.878 Y144.512
G0 X92.078 Y144.121
G1 F1200 X75.481 Y127.524 E29.99864
G0 F6000 X75.09 Y127.722
G0 X74.502 Y126.569
G0 X74.893 Y126.371
G1 F1200 X93.231 Y144.708 E30.86118
G0 F6000 X93.031 Y145.099
G0 X94.186 Y145.688
G0 X94.385 Y145.297
G1 F1200 X74.305 Y125.217 E31.80568
G0 F6000 X73.914 Y125.415
G0 X73.327 Y124.262
G0 X73.718 Y124.064
G1 F1200 X95.538 Y145.884 E32.83202
G0 F6000 X95.338 Y146.275
G0 X96.492 Y146.862
G0 X96.691 Y146.472
G1 F1200 X73.13 Y122.91 E33.94029
G0 F6000 X72.739 Y123.108
G0 X72.213 Y121.93
G0 X72.647 Y121.862
G1 F1200 X97.74 Y146.955 E35.12058
G0 F6000 X98.413 Y147.061
G1 F1200 X72.541 Y121.19 E36.3375
G0 F6000 X72.435 Y120.518
G1 F1200 X99.084 Y147.168 E37.59101
G0 F6000 X99.756 Y147.274
G1 F1200 X72.328 Y119.846 E38.88114
G0 F6000 X72.222 Y119.174
G1 F1200 X100.428 Y147.38 E40.20786
G0 F6000 X101.1 Y147.486
G1 F1200 X72.116 Y118.502 E41.57118
G0 F6000 X72.01 Y117.83
G1 F1200 X101.772 Y147.592 E42.97109
G0 F6000 X102.444 Y147.699
G1 F1200 X71.904 Y117.159 E44.4076
G0 F6000 X71.798 Y116.487
G1 F1200 X103.116 Y147.805 E45.88071
G0 F6000 X103.788 Y147.911
G1 F1200 X72.028 Y116.151 E47.3746
G0 F6000 X72.593 Y116.151
G1 F1200 X104.46 Y148.018 E48.87352
G0 F6000 X105.132 Y148.124
G1 F1200 X73.159 Y116.151 E50.37744
G0 F6000 X73.725 Y116.151
G1 F1200 X105.805 Y148.231 E51.88638
G0 F6000 X106.476 Y148.337
G1 F1200 X74.29 Y116.151 E53.40031
G0 F6000 X74.856 Y116.151
G1 F1200 X107.148 Y148.443 E54.91923
G0 F6000 X107.821 Y148.55
G1 F1200 X75.422 Y116.151 E56.44318
G0 F6000 X75.987 Y116.151
G1 F1200 X108.492 Y148.656 E57.97211
G0 F6000 X109.164 Y148.762
G1 F1200 X76.553 Y116.151 E59.50604
G0 F6000 X77.119 Y116.151
G1 F1200 X109.773 Y148.805 E61.04198
G0 F6000 X110.261 Y148.727
G1 F1200 X77.684 Y116.151 E62.57428
G0 F6000 X78.25 Y116.151
G1 F1200 X110.749 Y148.65 E64.10293
G0 F6000 X111.238 Y148.573
G1 F1200 X78.816 Y116.151 E65.62796
G0 F6000 X79.381 Y116.151
G1 F1200 X111.726 Y148.495 E67.14935
G0 F6000 X112.215 Y148.418
G1 F1200 X79.913 Y116.117 E68.66871
G0 F6000 X80.402 Y116.04
G1 F1200 X112.703 Y148.341 E70.18805
G0 F6000 X113.191 Y148.264
G1 F1200 X80.89 Y115.963 E71.70739
G0 F6000 X81.379 Y115.886
G1 F1200 X113.68 Y148.186 E73.22671
G0 F6000 X114.168 Y148.109
G1 F1200 X81.785 Y115.726 E74.74991
G0 F6000 X82.16 Y115.535
G1 F1200 X114.656 Y148.032 E76.27844
G0 F6000 X115.145 Y147.955
G1 F1200 X82.534 Y115.343 E77.81239
G0 F6000 X82.908 Y115.153
G1 F1200 X115.633 Y147.877 E79.35165
G0 F6000 X116.121 Y147.8
G1 F1200 X83.269 Y114.947 E80.89693
G0 F6000 X83.552 Y114.665
G1 F1200 X116.61 Y147.723 E82.45187
G0 F6000 X117.099 Y147.646
G1 F1200 X83.835 Y114.382 E84.01651
G0 F6000 X84.118 Y114.099
G1 F1200 X117.587 Y147.568 E85.59079
G0 F6000 X118.075 Y147.491
G1 F1200 X84.4 Y113.816 E87.17476
G0 F6000 X84.654 Y113.504
G1 F1200 X118.564 Y147.414 E88.76978
G0 F6000 X119.052 Y147.337
G1 F1200 X84.845 Y113.129 E90.3788
G0 F6000 X85.035 Y112.754
G1 F1200 X119.54 Y147.259 E92.00181
G0 F6000 X120.029 Y147.182
G1 F1200 X85.226 Y112.379 E93.63883
G0 F6000 X85.417 Y112.005
G1 F1200 X120.517 Y147.105 E95.28983
G0 F6000 X121.005 Y147.027
G1 F1200 X85.525 Y111.546 E96.95872
G0 F6000 X85.601 Y111.057
G1 F1200 X121.494 Y146.95 E98.64702
G0 F6000 X121.896 Y146.786
G1 F1200 X85.678 Y110.568 E100.3506
G0 F6000 X85.755 Y110.079
G1 F1200 X122.271 Y146.595 E102.0682
G0 F6000 X122.646 Y146.405
G1 F1200 X85.68 Y109.438 E103.807
G0 F6000 X85.575 Y108.768
G1 F1200 X123.021 Y146.214 E105.56834
G0 F6000 X123.395 Y146.023
G1 F1200 X85.47 Y108.098 E107.35222
G0 F6000 X85.047 Y108.23
G0 X84.493 Y107.146
G0 X84.886 Y106.947
G1 F1200 X123.77 Y145.832 E109.18122
G0 F6000 X124.145 Y145.641
G1 F1200 X73.961 Y95.457 E111.54173
G0 F6000 X73.77 Y95.832
G1 F1200 X82.653 Y104.715 E111.95955
G0 F6000 X82.452 Y105.108
G0 X81.375 Y104.557
G0 X81.504 Y104.132
G1 F1200 X73.579 Y96.206 E112.33235
G0 F6000 X73.388 Y96.581
G1 F1200 X80.832 Y104.026 E112.68251
G0 F6000 X80.161 Y103.919
G1 F1200 X73.197 Y96.956 E113.01005
G0 F6000 X73.006 Y97.331
G1 F1200 X79.521 Y103.846 E113.3165
G0 F6000 X78.956 Y103.846
G1 F1200 X72.815 Y97.705 E113.60535
G0 F6000 X72.652 Y98.108
G1 F1200 X78.39 Y103.846 E113.87525
G0 F6000 X77.824 Y103.846
G1 F1200 X72.575 Y98.596 E114.12217
G0 F6000 X72.497 Y99.084
G1 F1200 X77.259 Y103.846 E114.34616
G0 F6000 X76.693 Y103.846
G1 F1200 X72.42 Y99.573 E114.54715
G0 F6000 X72.343 Y100.061
G1 F1200 X76.127 Y103.846 E114.72516
G0 F6000 X75.562 Y103.846
G1 F1200 X72.266 Y100.55 E114.8802
G0 F6000 X72.188 Y101.038
G1 F1200 X74.996 Y103.846 E115.01228
G0 F6000 X74.43 Y103.846
G1 F1200 X72.111 Y101.527 E115.12135
G0 F6000 X72.034 Y102.015
G1 F1200 X73.865 Y103.846 E115.20748
G0 F6000 X73.299 Y103.846
G1 F1200 X71.957 Y102.504 E115.2706
G0 F6000 X71.879 Y102.992
G1 F1200 X72.733 Y103.846 E115.31077
G0 F6000 X72.168 Y103.846
G1 F1200 X71.802 Y103.48 E115.32799
G0 F6000 X71.367 Y103.411
G0 X72.304 Y97.879
G0 X73.763 Y94.883
G0 X74.152 Y95.082
G1 F1200 X124.52 Y145.45 E117.69714
G0 F6000 X124.894 Y145.259
G1 F1200 X74.343 Y94.707 E120.07493
G0 F6000 X74.534 Y94.332
G1 F1200 X125.269 Y145.068 E122.46137
G0 F6000 X125.644 Y144.877
G1 F1200 X74.724 Y93.958 E124.85647
G0 F6000 X74.915 Y93.583
G1 F1200 X126.019 Y144.686 E127.26022
G0 F6000 X126.393 Y144.495
G1 F1200 X75.106 Y93.208 E129.67261
G0 F6000 X75.297 Y92.833
G1 F1200 X126.768 Y144.304 E132.09364
G0 F6000 X127.143 Y144.114
G1 F1200 X75.488 Y92.459 E134.52334
G0 F6000 X75.679 Y92.084
G1 F1200 X127.518 Y143.923 E136.96168
G0 F6000 X127.892 Y143.732
G1 F1200 X75.87 Y91.709 E139.40866
G0 F6000 X76.061 Y91.334
G1 F1200 X128.267 Y143.541 E141.8643
G0 F6000 X128.642 Y143.35
G1 F1200 X76.252 Y90.96 E144.32856
G0 F6000 X76.443 Y90.585
G1 F1200 X129.017 Y143.159 E146.80148
G0 F6000 X129.392 Y142.968
G1 F1200 X76.634 Y90.21 E149.28306
G0 F6000 X76.825 Y89.835
G1 F1200 X129.766 Y142.777 E151.77326
G0 F6000 X130.141 Y142.586
G1 F1200 X77.015 Y89.461 E154.27212
G0 F6000 X77.206 Y89.086
G1 F1200 X130.516 Y142.395 E156.77964
G0 F6000 X130.891 Y142.204
G1 F1200 X77.397 Y88.711 E159.29581
G0 F6000 X77.588 Y88.336
G1 F1200 X131.265 Y142.013 E161.82061
G0 F6000 X131.64 Y141.822
G1 F1200 X77.779 Y87.961 E164.35407
G0 F6000 X77.97 Y87.587
G1 F1200 X132.015 Y141.632 E166.89618
G0 F6000 X132.39 Y141.441
G1 F1200 X78.161 Y87.212 E169.44694
G0 F6000 X78.434 Y86.919
G1 F1200 X132.683 Y141.168 E171.99865
G0 F6000 X132.966 Y140.886
G1 F1200 X78.717 Y86.636 E174.55038
G0 F6000 X79 Y86.354
G1 F1200 X133.249 Y140.603 E177.10209
G0 F6000 X133.532 Y140.32
G1 F1200 X79.282 Y86.071 E179.65382
G0 F6000 X79.565 Y85.788
G1 F1200 X133.815 Y140.037 E182.20555
G0 F6000 X134.097 Y139.754
G1 F1200 X79.848 Y85.505 E184.75725
G0 F6000 X80.131 Y85.222
G1 F1200 X134.38 Y139.471 E187.30896
G0 F6000 X134.663 Y139.189
G1 F1200 X80.414 Y84.939 E189.86069
G0 F6000 X80.697 Y84.656
G1 F1200 X134.946 Y138.906 E192.41242
G0 F6000 X135.229 Y138.623
G1 F1200 X80.979 Y84.374 E194.96415
G0 F6000 X81.262 Y84.091
G1 F1200 X135.512 Y138.34 E197.51588
G0 F6000 X135.794 Y138.057
G1 F1200 X81.545 Y83.808 E200.06759
G0 F6000 X81.828 Y83.525
G1 F1200 X136.077 Y137.774 E202.61929
G0 F6000 X136.36 Y137.491
G1 F1200 X82.111 Y83.242 E205.171
G0 F6000 X82.394 Y82.959
G1 F1200 X136.643 Y137.209 E207.72273
G0 F6000 X136.926 Y136.926
G1 F1200 X82.677 Y82.677 E210.27444
G0 F6000 X82.959 Y82.394
G1 F1200 X137.209 Y136.643 E212.82617
G0 F6000 X137.491 Y136.36
G1 F1200 X83.242 Y82.111 E215.37787
G0 F6000 X83.525 Y81.828
G1 F1200 X137.774 Y136.077 E217.92958
G0 F6000 X138.057 Y135.794
G1 F1200 X83.808 Y81.545 E220.48129
G0 F6000 X84.091 Y81.262
G1 F1200 X138.34 Y135.512 E223.03302
G0 F6000 X138.623 Y135.229
G1 F1200 X84.374 Y80.979 E225.58475
G0 F6000 X84.656 Y80.697
G1 F1200 X138.906 Y134.946 E228.13648
G0 F6000 X139.189 Y134.663
G1 F1200 X84.939 Y80.414 E230.68821
G0 F6000 X85.222 Y80.131
G1 F1200 X139.471 Y134.38 E233.23991
G0 F6000 X139.754 Y134.097
G1 F1200 X85.505 Y79.848 E235.79162
G0 F6000 X85.788 Y79.565
G1 F1200 X140.037 Y133.815 E238.34335
G0 F6000 X140.32 Y133.532
G1 F1200 X86.071 Y79.282 E240.89508
G0 F6000 X86.354 Y79
G1 F1200 X140.603 Y133.249 E243.44679
G0 F6000 X140.886 Y132.966
G1 F1200 X86.636 Y78.717 E245.99852
G0 F6000 X86.967 Y78.481
G1 F1200 X141.122 Y132.636 E248.5458
G0 F6000 X141.313 Y132.262
G1 F1200 X87.341 Y78.29 E251.08448
G0 F6000 X87.716 Y78.099
G1 F1200 X141.504 Y131.887 E253.6145
G0 F6000 X141.695 Y131.512
G1 F1200 X88.091 Y77.909 E256.13585
G0 F6000 X88.466 Y77.718
G1 F1200 X141.885 Y131.137 E258.64851
G0 F6000 X142.076 Y130.763
G1 F1200 X88.84 Y77.527 E261.15257
G0 F6000 X89.215 Y77.336
G1 F1200 X142.267 Y130.388 E263.64798
G0 F6000 X142.458 Y130.013
G1 F1200 X89.59 Y77.145 E266.13472
G0 F6000 X89.965 Y76.954
G1 F1200 X142.649 Y129.638 E268.61282
G0 F6000 X142.84 Y129.264
G1 F1200 X90.339 Y76.763 E271.0823
G0 F6000 X90.714 Y76.572
G1 F1200 X143.031 Y128.889 E273.54314
G0 F6000 X143.222 Y128.514
G1 F1200 X91.089 Y76.381 E275.99531
G0 F6000 X91.464 Y76.19
G1 F1200 X143.413 Y128.139 E278.43883
G0 F6000 X143.604 Y127.765
G1 F1200 X91.839 Y75.999 E280.87372
G0 F6000 X92.213 Y75.808
G1 F1200 X143.795 Y127.39 E283.29998
G0 F6000 X143.986 Y127.015
G1 F1200 X92.588 Y75.617 E285.71759
G0 F6000 X92.963 Y75.427
G1 F1200 X144.176 Y126.64 E288.12649
G0 F6000 X144.367 Y126.265
G1 F1200 X93.338 Y75.236 E290.52674
G0 F6000 X93.712 Y75.045
G1 F1200 X144.558 Y125.891 E292.91838
G0 F6000 X144.749 Y125.516
G1 F1200 X94.087 Y74.854 E295.30136
G0 F6000 X94.462 Y74.663
G1 F1200 X144.94 Y125.141 E297.67569
G0 F6000 X145.131 Y124.766
G1 F1200 X94.837 Y74.472 E300.04137
G0 F6000 X95.211 Y74.281
G1 F1200 X145.322 Y124.392 E302.39844
G0 F6000 X145.513 Y124.017
G1 F1200 X95.586 Y74.09 E304.74685
G0 F6000 X95.961 Y73.899
G1 F1200 X145.704 Y123.642 E307.08661
G0 F6000 X145.895 Y123.267
G1 F1200 X96.336 Y73.708 E309.41771
G0 F6000 X96.71 Y73.517
G1 F1200 X146.086 Y122.893 E311.74021
G0 F6000 X146.277 Y122.518
G1 F1200 X97.085 Y73.326 E314.05405
G0 F6000 X97.46 Y73.136
G1 F1200 X146.467 Y122.143 E316.35919
G0 F6000 X146.586 Y121.695
G1 F1200 X97.908 Y73.017 E318.64885
G0 F6000 X98.396 Y72.94
G1 F1200 X146.663 Y121.207 E320.91918
G0 F6000 X146.74 Y120.718
G1 F1200 X98.885 Y72.863 E323.17013
G0 F6000 X99.373 Y72.786
G1 F1200 X146.817 Y120.23 E325.40175
G0 F6000 X146.895 Y119.742
G1 F1200 X99.861 Y72.708 E327.61409
G0 F6000 X100.35 Y72.631
G1 F1200 X146.972 Y119.253 E329.80705
G0 F6000 X147.049 Y118.765
G1 F1200 X100.838 Y72.554 E331.98067
G0 F6000 X101.326 Y72.477
G1 F1200 X147.127 Y118.277 E334.13498
G0 F6000 X147.204 Y117.788
G1 F1200 X101.815 Y72.399 E336.26994
G0 F6000 X102.303 Y72.322
G1 F1200 X147.281 Y117.3 E338.38557
G0 F6000 X147.358 Y116.811
G1 F1200 X102.792 Y72.245 E340.48182
G0 F6000 X103.28 Y72.168
G1 F1200 X147.436 Y116.323 E342.55876
G0 F6000 X147.513 Y115.834
G1 F1200 X103.769 Y72.09 E344.61634
G0 F6000 X104.257 Y72.013
G1 F1200 X147.59 Y115.346 E346.65459
G0 F6000 X147.667 Y114.858
G1 F1200 X104.745 Y71.936 E348.67351
G0 F6000 X105.234 Y71.859
G1 F1200 X147.745 Y114.369 E350.67308
G0 F6000 X147.822 Y113.881
G1 F1200 X105.722 Y71.781 E352.65333
G0 F6000 X106.21 Y71.704
G1 F1200 X147.899 Y113.393 E354.61425
G0 F6000 X147.976 Y112.904
G1 F1200 X106.699 Y71.627 E356.5558
G0 F6000 X107.187 Y71.549
G1 F1200 X148.054 Y112.416 E358.47806
G0 F6000 X148.131 Y111.927
G1 F1200 X107.676 Y71.472 E360.38094
G0 F6000 X108.164 Y71.395
G1 F1200 X148.208 Y111.439 E362.26448
G0 F6000 X148.286 Y110.951
G1 F1200 X108.652 Y71.317 E364.12874
G0 F6000 X109.141 Y71.24
G1 F1200 X148.363 Y110.462 E365.97363
G0 F6000 X148.431 Y109.965
G1 F1200 X109.639 Y71.172 E367.79831
G0 F6000 X110.311 Y71.279
G1 F1200 X148.324 Y109.292 E369.58632
