;FLAVOR:Marlin
;TIME:3782
;Filament used: 4.38427m
;Layer height: 0.2
;MINX:70.626
;MINY:70.203
;MINZ:0.2
;MAXX:149.396
;MAXY:149.797
;MAXZ:4
;Generated with Cura_SteamEngine 4.12.1
M140 S50
M105
M190 S50
M104 S200
M105
M109 S200
M82 ;absolute extrusion mode
M201 X500.00 Y500.00 Z100.00 E5000.00 ;Setup machine max acceleration
M203 X500.00 Y500.00 Z10.00 E50.00 ;Setup machine max feedrate
M204 P500.00 R1000.00 T500.00 ;Setup Print/Retract/Travel acceleration
M205 X8.00 Y8.00 Z0.40 E5.00 ;Setup Jerk
M220 S100 ;Reset Feedrate
M221 S100 ;Reset Flowrate

G28 ;Home

G92 E0 ;Reset Extruder
G1 Z2.0 F3000 ;Move Z Axis up
G1 X10.1 Y20 Z0.28 F5000.0 ;Move to start position
G1 X10.1 Y200.0 Z0.28 F1500.0 E15 ;Draw the first line
G1 X10.4 Y200.0 Z0.28 F5000.0 ;Move to side a little
G1 X10.4 Y20 Z0.28 F1500.0 E30 ;Draw the second line
G92 E0 ;Reset Extruder
G1 Z2.0 F3000 ;Move Z Axis up

G92 E0
G92 E0
G1 F2700 E-5
;LAYER_COUNT:20
;LAYER:0
M107
;MESH:a1h3s.stl
G0 F6000 X109.599 Y149.392 Z0.2
;TYPE:WALL-INNER
G1 F2700 E0
G1 F1200 X97.424 Y147.464 E0.40999
G1 X86.445 Y141.87 E0.81982
G1 X77.729 Y133.154 E1.22979
G1 X72.135 Y122.175 E1.63962
G1 X71.094 Y115.602 E1.86097
G1 X74.647 Y115.602 E1.97914
G1 X76.334 Y115.336 E2.03594
G1 X77.897 Y114.539 E2.0943
G1 X79.138 Y113.297 E2.15269
G1 X79.935 Y111.734 E2.21105
G1 X80.208 Y110 E2.26943
G1 X79.935 Y108.266 E2.32782
G1 X79.138 Y106.703 E2.38617
G1 X77.897 Y105.461 E2.44457
G1 X76.334 Y104.664 E2.50292
G1 X74.647 Y104.397 E2.55973
G1 X71.095 Y104.397 E2.67787
G1 X72.135 Y97.825 E2.89917
G1 X77.729 Y86.846 E3.309
G1 X86.445 Y78.13 E3.71898
G1 X97.424 Y72.536 E4.12881
G1 X109.599 Y70.608 E4.5388
G1 X121.774 Y72.536 E4.94879
G1 X132.753 Y78.13 E5.35862
G1 X141.469 Y86.846 E5.76859
G1 X147.063 Y97.825 E6.17842
G1 X148.991 Y110 E6.58841
G1 X147.063 Y122.175 E6.9984
G1 X141.469 Y133.154 E7.40823
G1 X132.753 Y141.87 E7.8182
G1 X121.774 Y147.464 E8.22803
G1 X109.599 Y149.392 E8.63802
G0 F6000 X109.599 Y149.797
;TYPE:WALL-OUTER
G1 F1200 X97.299 Y147.849 E9.05222
G1 X86.206 Y142.197 E9.4663
G1 X77.402 Y133.393 E9.88042
G1 X71.75 Y122.3 E10.2945
G1 X70.626 Y115.202 E10.53352
G1 X74.616 Y115.202 E10.66623
G1 X76.209 Y114.951 E10.71987
G1 X77.659 Y114.211 E10.77401
G1 X78.81 Y113.059 E10.82818
G1 X79.55 Y111.609 E10.88232
G1 X79.803 Y110 E10.93649
G1 X79.55 Y108.391 E10.99067
G1 X78.81 Y106.941 E11.04481
G1 X77.659 Y105.789 E11.09898
G1 X76.209 Y105.049 E11.15312
G1 X74.616 Y104.797 E11.20676
G1 X70.627 Y104.797 E11.33944
G1 X71.75 Y97.7 E11.57842
G1 X77.402 Y86.607 E11.99251
G1 X86.206 Y77.803 E12.40662
G1 X97.299 Y72.151 E12.8207
G1 X109.599 Y70.203 E13.2349
G1 X121.899 Y72.151 E13.6491
G1 X132.992 Y77.803 E14.06319
G1 X141.796 Y86.607 E14.4773
G1 X147.448 Y97.7 E14.89138
G1 X149.396 Y110 E15.30558
G1 X147.448 Y122.3 E15.71978
G1 X141.796 Y133.393 E16.13387
G1 X132.992 Y142.197 E16.54798
G1 X121.899 Y147.849 E16.96206
G1 X109.599 Y149.797 E17.37626
G0 F6000 X109.599 Y149.357
G0 X109.599 Y148.996
;TYPE:SKIN
G1 F1200 X97.542 Y147.087 E17.78228
G1 X86.676 Y141.551 E18.18788
G1 X78.048 Y132.923 E18.59372
G1 X72.512 Y122.057 E18.99932
G1 X71.552 Y115.992 E19.20356
G1 X74.678 Y115.992 E19.30753
G1 X76.456 Y115.712 E19.36739
G1 X78.129 Y114.859 E19.42985
G1 X79.458 Y113.529 E19.49239
G1 X80.311 Y111.856 E19.55485
G1 X80.602 Y110 E19.61733
G1 X80.311 Y108.144 E19.67982
G1 X79.458 Y106.471 E19.74228
G1 X78.129 Y105.141 E19.80481
G1 X76.456 Y104.288 E19.86727
G1 X74.678 Y104.007 E19.92714
G1 X71.553 Y104.007 E20.03108
G1 X72.512 Y97.943 E20.23528
G1 X78.048 Y87.077 E20.64088
G1 X86.676 Y78.449 E21.04672
G1 X97.542 Y72.913 E21.45232
G1 X109.599 Y71.004 E21.85834
G1 X121.656 Y72.913 E22.26435
G1 X132.522 Y78.449 E22.66996
G1 X141.15 Y87.077 E23.07579
G1 X146.686 Y97.943 E23.4814
G1 X148.595 Y110 E23.88741
G1 X146.686 Y122.057 E24.29342
G1 X141.15 Y132.923 E24.69903
G1 X132.522 Y141.551 E25.10486
G1 X121.656 Y147.087 E25.51047
G1 X109.599 Y148.996 E25.91648
G0 F6000 X109.555 Y149.273
G0 X97.478 Y147.3
G0 X87.269 Y142.166
G0 X87.469 Y141.775
G1 F1200 X77.822 Y132.127 E26.37027
G0 F6000 X77.43 Y132.326
G0 X76.842 Y131.172
G0 X77.234 Y130.974
G1 F1200 X88.623 Y142.363 E26.90598
G0 F6000 X88.423 Y142.754
G0 X89.576 Y143.342
G0 X89.776 Y142.95
G1 F1200 X76.646 Y129.821 E27.52355
G0 F6000 X76.255 Y130.019
G0 X75.667 Y128.866
G0 X76.059 Y128.667
G1 F1200 X90.929 Y143.538 E28.22301
G0 F6000 X90.729 Y143.929
G0 X91.882 Y144.517
G0 X92.082 Y144.126
G1 F1200 X75.471 Y127.514 E29.00436
G0 F6000 X75.08 Y127.712
G0 X74.492 Y126.559
G0 X74.884 Y126.361
G1 F1200 X93.236 Y144.713 E29.86759
G0 F6000 X93.036 Y145.105
G0 X94.189 Y145.692
G0 X94.389 Y145.301
G1 F1200 X74.296 Y125.208 E30.8127
G0 F6000 X73.905 Y125.406
G0 X73.317 Y124.252
G0 X73.708 Y124.054
G1 F1200 X95.542 Y145.888 E31.8397
G0 F6000 X95.342 Y146.279
G0 X96.496 Y146.867
G0 X96.696 Y146.476
G1 F1200 X73.121 Y122.901 E32.9486
G0 F6000 X72.729 Y123.099
G0 X72.207 Y121.925
G0 X72.642 Y121.857
G1 F1200 X97.74 Y146.955 E34.12913
G0 F6000 X98.413 Y147.061
G1 F1200 X72.535 Y121.184 E35.34633
G0 F6000 X72.429 Y120.512
G1 F1200 X99.084 Y147.168 E36.60012
G0 F6000 X99.757 Y147.274
G1 F1200 X72.322 Y119.84 E37.89056
G0 F6000 X72.216 Y119.168
G1 F1200 X100.428 Y147.38 E39.21756
G0 F6000 X101.1 Y147.486
G1 F1200 X72.11 Y118.496 E40.58116
G0 F6000 X72.003 Y117.824
G1 F1200 X101.773 Y147.593 E41.98143
G0 F6000 X102.444 Y147.699
G1 F1200 X71.897 Y117.152 E43.41827
G0 F6000 X71.791 Y116.48
G1 F1200 X103.117 Y147.806 E44.89175
G0 F6000 X103.789 Y147.912
G1 F1200 X72.028 Y116.151 E46.38569
G0 F6000 X72.593 Y116.151
G1 F1200 X104.461 Y148.019 E47.88466
G0 F6000 X105.133 Y148.125
G1 F1200 X73.159 Y116.151 E49.38862
G0 F6000 X73.725 Y116.151
G1 F1200 X105.805 Y148.231 E50.89756
G0 F6000 X106.477 Y148.338
G1 F1200 X74.29 Y116.151 E52.41154
G0 F6000 X74.833 Y116.128
G1 F1200 X107.149 Y148.444 E53.93159
G0 F6000 X107.821 Y148.551
G1 F1200 X75.323 Y116.052 E55.46022
G0 F6000 X75.811 Y115.975
G1 F1200 X108.493 Y148.657 E56.99748
G0 F6000 X109.165 Y148.763
G1 F1200 X76.3 Y115.898 E58.54335
G0 F6000 X76.723 Y115.755
G1 F1200 X109.772 Y148.804 E60.09787
G0 F6000 X110.26 Y148.727
G1 F1200 X77.097 Y115.564 E61.65776
G0 F6000 X77.472 Y115.373
G1 F1200 X110.749 Y148.65 E63.223
G0 F6000 X111.237 Y148.573
G1 F1200 X77.846 Y115.182 E64.79361
G0 F6000 X78.221 Y114.991
G1 F1200 X111.726 Y148.495 E66.36956
G0 F6000 X112.214 Y148.418
G1 F1200 X78.504 Y114.708 E67.95518
G0 F6000 X78.787 Y114.425
G1 F1200 X112.702 Y148.341 E69.55046
G0 F6000 X113.191 Y148.264
G1 F1200 X79.07 Y114.142 E71.15543
G0 F6000 X79.352 Y113.859
G1 F1200 X113.679 Y148.186 E72.77007
G0 F6000 X114.168 Y148.109
G1 F1200 X79.619 Y113.56 E74.39515
G0 F6000 X79.811 Y113.186
G1 F1200 X114.656 Y148.032 E76.03417
G0 F6000 X115.145 Y147.955
G1 F1200 X80.002 Y112.811 E77.68721
G0 F6000 X80.192 Y112.437
G1 F1200 X115.633 Y147.877 E79.35423
G0 F6000 X116.121 Y147.8
G1 F1200 X80.383 Y112.062 E81.03523
G0 F6000 X80.508 Y111.621
G1 F1200 X116.61 Y147.723 E82.73336
G0 F6000 X117.098 Y147.645
G1 F1200 X80.585 Y111.132 E84.45082
G0 F6000 X80.661 Y110.643
G1 F1200 X117.586 Y147.568 E86.18766
G0 F6000 X118.075 Y147.491
G1 F1200 X80.738 Y110.153 E87.9439
G0 F6000 X80.69 Y109.54
G1 F1200 X118.564 Y147.414 E89.72538
G0 F6000 X119.052 Y147.336
G1 F1200 X80.586 Y108.87 E91.5347
G0 F6000 X80.481 Y108.2
G1 F1200 X119.54 Y147.259 E93.37191
G0 F6000 X120.029 Y147.182
G1 F1200 X79.97 Y107.123 E95.25617
G0 F6000 X79.577 Y107.322
G0 X77.271 Y105.018
G0 X77.472 Y104.625
G1 F1200 X72.416 Y99.569 E95.49399
G0 F6000 X72.339 Y100.057
G1 F1200 X76.397 Y104.115 E95.68486
G0 F6000 X75.725 Y104.009
G1 F1200 X72.262 Y100.546 E95.84775
G0 F6000 X72.184 Y101.034
G1 F1200 X75.053 Y103.903 E95.9827
G0 F6000 X74.43 Y103.846
G1 F1200 X72.107 Y101.522 E96.09199
G0 F6000 X72.03 Y102.011
G1 F1200 X73.865 Y103.846 E96.1783
G0 F6000 X73.299 Y103.846
G1 F1200 X71.953 Y102.5 E96.24161
G0 F6000 X71.875 Y102.988
G1 F1200 X72.733 Y103.846 E96.28197
G0 F6000 X72.168 Y103.846
G1 F1200 X71.798 Y103.477 E96.29935
G0 F6000 X71.363 Y103.408
G0 X72.06 Y99.011
G0 X72.493 Y99.08
G1 F1200 X120.517 Y147.104 E98.55825
G0 F6000 X121.005 Y147.027
G1 F1200 X72.57 Y98.591 E100.83651
G0 F6000 X72.647 Y98.103
G1 F1200 X121.494 Y146.95 E103.13412
G0 F6000 X121.895 Y146.785
G1 F1200 X72.812 Y97.702 E105.44284
G0 F6000 X73.003 Y97.327
G1 F1200 X122.27 Y146.594 E107.76021
G0 F6000 X122.644 Y146.403
G1 F1200 X73.194 Y96.952 E110.08621
G0 F6000 X73.384 Y96.578
G1 F1200 X123.019 Y146.212 E112.42086
G0 F6000 X123.394 Y146.021
G1 F1200 X73.575 Y96.203 E114.76417
G0 F6000 X73.766 Y95.828
G1 F1200 X123.769 Y145.83 E117.11614
G0 F6000 X124.143 Y145.639
G1 F1200 X73.957 Y95.453 E119.47673
G0 F6000 X74.148 Y95.078
G1 F1200 X124.518 Y145.449 E121.84601
G0 F6000 X124.893 Y145.258
G1 F1200 X74.339 Y94.704 E124.22391
G0 F6000 X74.53 Y94.329
G1 F1200 X125.268 Y145.067 E126.61047
G0 F6000 X125.642 Y144.876
G1 F1200 X74.721 Y93.954 E129.00566
G0 F6000 X74.912 Y93.579
G1 F1200 X126.017 Y144.685 E131.40951
G0 F6000 X126.392 Y144.494
G1 F1200 X75.103 Y93.205 E133.82198
G0 F6000 X75.294 Y92.83
G1 F1200 X126.767 Y144.303 E136.24312
G0 F6000 X127.142 Y144.112
G1 F1200 X75.485 Y92.455 E138.6729
G0 F6000 X75.676 Y92.081
G1 F1200 X127.516 Y143.92 E141.11128
G0 F6000 X127.89 Y143.73
G1 F1200 X75.867 Y91.706 E143.5583
G0 F6000 X76.058 Y91.332
G1 F1200 X128.265 Y143.539 E146.01396
G0 F6000 X128.64 Y143.348
G1 F1200 X76.249 Y90.957 E148.47827
G0 F6000 X76.44 Y90.582
G1 F1200 X129.015 Y143.157 E150.95124
G0 F6000 X129.389 Y142.966
G1 F1200 X76.631 Y90.207 E153.43284
G0 F6000 X76.822 Y89.832
G1 F1200 X129.764 Y142.775 E155.92309
G0 F6000 X130.139 Y142.584
G1 F1200 X77.013 Y89.458 E158.42197
G0 F6000 X77.204 Y89.083
G1 F1200 X130.514 Y142.393 E160.92951
G0 F6000 X130.889 Y142.202
G1 F1200 X77.394 Y88.708 E163.44573
G0 F6000 X77.585 Y88.333
G1 F1200 X131.263 Y142.011 E165.97058
G0 F6000 X131.638 Y141.82
G1 F1200 X77.776 Y87.959 E168.50406
G0 F6000 X77.967 Y87.584
G1 F1200 X132.013 Y141.629 E171.04619
G0 F6000 X132.388 Y141.439
G1 F1200 X78.158 Y87.209 E173.597
G0 F6000 X78.432 Y86.917
G1 F1200 X132.68 Y141.166 E176.14869
G0 F6000 X132.963 Y140.883
G1 F1200 X78.715 Y86.634 E178.70037
G0 F6000 X78.997 Y86.351
G1 F1200 X133.246 Y140.6 E181.25208
G0 F6000 X133.529 Y140.317
G1 F1200 X79.28 Y86.069 E183.80376
G0 F6000 X79.563 Y85.786
G1 F1200 X133.812 Y140.034 E186.35544
G0 F6000 X134.095 Y139.751
G1 F1200 X79.846 Y85.503 E188.90713
G0 F6000 X80.129 Y85.22
G1 F1200 X134.377 Y139.469 E191.45881
G0 F6000 X134.66 Y139.186
G1 F1200 X80.412 Y84.937 E194.01049
G0 F6000 X80.695 Y84.654
G1 F1200 X134.943 Y138.903 E196.56218
G0 F6000 X135.226 Y138.62
G1 F1200 X80.977 Y84.371 E199.11388
G0 F6000 X81.26 Y84.089
G1 F1200 X135.509 Y138.337 E201.66557
G0 F6000 X135.792 Y138.054
G1 F1200 X81.543 Y83.806 E204.21725
G0 F6000 X81.826 Y83.523
G1 F1200 X136.074 Y137.771 E206.76891
G0 F6000 X136.357 Y137.489
G1 F1200 X82.109 Y83.24 E209.32059
G0 F6000 X82.392 Y82.957
G1 F1200 X136.64 Y137.206 E211.87227
G0 F6000 X136.923 Y136.923
G1 F1200 X82.674 Y82.674 E214.42398
G0 F6000 X82.957 Y82.392
G1 F1200 X137.206 Y136.64 E216.97566
G0 F6000 X137.489 Y136.357
G1 F1200 X83.24 Y82.109 E219.52735
G0 F6000 X83.523 Y81.826
G1 F1200 X137.771 Y136.074 E222.07901
G0 F6000 X138.054 Y135.792
G1 F1200 X83.806 Y81.543 E224.63069
G0 F6000 X84.089 Y81.26
G1 F1200 X138.337 Y135.509 E227.18237
G0 F6000 X138.62 Y135.226
G1 F1200 X84.371 Y80.977 E229.73408
G0 F6000 X84.654 Y80.695
G1 F1200 X138.903 Y134.943 E232.28576
G0 F6000 X139.186 Y134.66
G1 F1200 X84.937 Y80.412 E234.83745
G0 F6000 X85.22 Y80.129
G1 F1200 X139.469 Y134.377 E237.38913
G0 F6000 X139.751 Y134.095
G1 F1200 X85.503 Y79.846 E239.94081
G0 F6000 X85.786 Y79.563
G1 F1200 X140.034 Y133.812 E242.4925
G0 F6000 X140.317 Y133.529
G1 F1200 X86.069 Y79.28 E245.04418
G0 F6000 X86.351 Y78.997
G1 F1200 X140.6 Y133.246 E247.59589
G0 F6000 X140.883 Y132.963
G1 F1200 X86.634 Y78.715 E250.14757
G0 F6000 X86.965 Y78.48
G1 F1200 X141.118 Y132.633 E252.69476
G0 F6000 X141.309 Y132.258
G1 F1200 X87.34 Y78.289 E255.2333
G0 F6000 X87.715 Y78.098
G1 F1200 X141.5 Y131.883 E257.76318
G0 F6000 X141.691 Y131.509
G1 F1200 X88.089 Y77.907 E260.28445
G0 F6000 X88.464 Y77.716
G1 F1200 X141.882 Y131.134 E262.79707
G0 F6000 X142.073 Y130.759
G1 F1200 X88.839 Y77.525 E265.30103
G0 F6000 X89.214 Y77.334
G1 F1200 X142.264 Y130.384 E267.79634
G0 F6000 X142.455 Y130.01
G1 F1200 X89.589 Y77.143 E270.28302
G0 F6000 X89.963 Y76.953
G1 F1200 X142.646 Y129.635 E272.76104
G0 F6000 X142.836 Y129.26
G1 F1200 X90.338 Y76.762 E275.23039
G0 F6000 X90.713 Y76.571
G1 F1200 X143.027 Y128.885 E277.69108
G0 F6000 X143.218 Y128.511
G1 F1200 X91.088 Y76.38 E280.14314
G0 F6000 X91.462 Y76.189
G1 F1200 X143.409 Y128.136 E282.58657
G0 F6000 X143.6 Y127.761
G1 F1200 X91.837 Y75.998 E285.02134
G0 F6000 X92.212 Y75.807
G1 F1200 X143.791 Y127.386 E287.44746
G0 F6000 X143.982 Y127.011
G1 F1200 X92.587 Y75.616 E289.86492
G0 F6000 X92.961 Y75.425
G1 F1200 X144.173 Y126.637 E292.27378
G0 F6000 X144.364 Y126.262
G1 F1200 X93.336 Y75.234 E294.67398
G0 F6000 X93.711 Y75.043
G1 F1200 X144.555 Y125.887 E297.06552
G0 F6000 X144.746 Y125.513
G1 F1200 X94.085 Y74.852 E299.44846
G0 F6000 X94.46 Y74.661
G1 F1200 X144.937 Y125.138 E301.82274
G0 F6000 X145.128 Y124.764
G1 F1200 X94.835 Y74.47 E304.1884
G0 F6000 X95.209 Y74.279
G1 F1200 X145.319 Y124.389 E306.54542
G0 F6000 X145.51 Y124.014
G1 F1200 X95.584 Y74.088 E308.89378
G0 F6000 X95.959 Y73.897
G1 F1200 X145.701 Y123.639 E311.23349
G0 F6000 X145.892 Y123.264
G1 F1200 X96.334 Y73.706 E313.56455
G0 F6000 X96.708 Y73.515
G1 F1200 X146.083 Y122.89 E315.887
G0 F6000 X146.274 Y122.515
G1 F1200 X97.083 Y73.324 E318.20079
G0 F6000 X97.458 Y73.133
G1 F1200 X146.465 Y122.14 E320.50593
G0 F6000 X146.582 Y121.692
G1 F1200 X97.906 Y73.016 E322.7955
G0 F6000 X98.395 Y72.939
G1 F1200 X146.659 Y121.203 E325.06569
G0 F6000 X146.736 Y120.715
G1 F1200 X98.883 Y72.862 E327.31655
G0 F6000 X99.372 Y72.785
G1 F1200 X146.813 Y120.226 E329.54803
G0 F6000 X146.891 Y119.738
G1 F1200 X99.86 Y72.707 E331.76022
G0 F6000 X100.349 Y72.63
G1 F1200 X146.968 Y119.25 E333.95306
G0 F6000 X147.045 Y118.761
G1 F1200 X100.837 Y72.553 E336.12654
G0 F6000 X101.325 Y72.475
G1 F1200 X147.123 Y118.273 E338.28074
G0 F6000 X147.2 Y117.784
G1 F1200 X101.814 Y72.398 E340.41556
G0 F6000 X102.302 Y72.321
G1 F1200 X147.277 Y117.296 E342.53105
G0 F6000 X147.354 Y116.807
G1 F1200 X102.791 Y72.244 E344.62715
G0 F6000 X103.279 Y72.166
G1 F1200 X147.432 Y116.319 E346.70398
G0 F6000 X147.509 Y115.831
G1 F1200 X103.767 Y72.089 E348.76146
G0 F6000 X104.256 Y72.012
G1 F1200 X147.586 Y115.342 E350.79958
G0 F6000 X147.663 Y114.853
G1 F1200 X104.745 Y71.935 E352.81831
G0 F6000 X105.233 Y71.857
G1 F1200 X147.741 Y114.366 E354.81778
G0 F6000 X147.818 Y113.877
G1 F1200 X105.721 Y71.78 E356.79789
G0 F6000 X106.21 Y71.703
G1 F1200 X147.895 Y113.388 E358.75862
G0 F6000 X147.973 Y112.9
G1 F1200 X106.698 Y71.625 E360.70007
G0 F6000 X107.186 Y71.548
G1 F1200 X148.05 Y112.412 E362.62219
G0 F6000 X148.127 Y111.923
G1 F1200 X107.675 Y71.471 E364.52493
G0 F6000 X108.164 Y71.394
G1 F1200 X148.204 Y111.435 E366.40831
G0 F6000 X148.282 Y110.947
G1 F1200 X108.651 Y71.316 E368.27243
G0 F6000 X109.14 Y71.239
G1 F1200 X148.359 Y110.458 E370.11717
G0 F6000 X148.425 Y109.958
G1 F1200 X109.64 Y71.173 E371.9415
G0 F6000 X110.312 Y71.279
G1 F1200 X148.319 Y109.286 E373.72923
G0 F6000 X148.212 Y108.614
G1 F1200 X110.984 Y71.386 E375.48032
G0 F6000 X111.656 Y71.492
G1 F1200 X148.106 Y107.942 E377.19482
G0 F6000 X147.999 Y107.27
G1 F1200 X112.328 Y71.599 E378.87268
G0 F6000 X113 Y71.705
G1 F1200 X147.893 Y106.598 E380.51394
G0 F6000 X147.787 Y105.926
G1 F1200 X113.672 Y71.811 E382.1186
G0 F6000 X114.344 Y71.918
G1 F1200 X147.68 Y105.254 E383.68662
G0 F6000 X147.574 Y104.582
G1 F1200 X115.016 Y72.024 E385.21805
G0 F6000 X115.689 Y72.131
G1 F1200 X147.467 Y103.91 E386.71282
G0 F6000 X147.361 Y103.238
G1 F1200 X116.36 Y72.237 E388.17101
G0 F6000 X117.033 Y72.344
G1 F1200 X147.254 Y102.565 E389.59251
