;FLAVOR:Marlin
;TIME:1372
;Filament used: 1.44216m
;Layer height: 0.2
;MINX:74.953
;MINY:90.203
;MINZ:0.2
;MAXX:145.047
;MAXY:129.797
;MAXZ:4
;Generated with Cura_SteamEngine 4.12.1
M140 S50
M105
M190 S50
M104 S200
M105
M109 S200
M82 ;absolute extrusion mode
M201 X500.00 Y500.00 Z100.00 E5000.00 ;Setup machine max acceleration
M203 X500.00 Y500.00 Z10.00 E50.00 ;Setup machine max feedrate
M204 P500.00 R1000.00 T500.00 ;Setup Print/Retract/Travel acceleration
M205 X8.00 Y8.00 Z0.40 E5.00 ;Setup Jerk
M220 S100 ;Reset Feedrate
M221 S100 ;Reset Flowrate

G28 ;Home

G92 E0 ;Reset Extruder
G1 Z2.0 F3000 ;Move Z Axis up
G1 X10.1 Y20 Z0.28 F5000.0 ;Move to start position
G1 X10.1 Y200.0 Z0.28 F1500.0 E15 ;Draw the first line
G1 X10.4 Y200.0 Z0.28 F5000.0 ;Move to side a little
G1 X10.4 Y20 Z0.28 F1500.0 E30 ;Draw the second line
G92 E0 ;Reset Extruder
G1 Z2.0 F3000 ;Move Z Axis up

G92 E0
G92 E0
G1 F2700 E-5
;LAYER_COUNT:20
;LAYER:0
M107
;MESH:a2e1s.stl
G0 F6000 X109.75 Y129.392 Z0.2
;TYPE:WALL-INNER
G1 F2700 E0
G1 F1200 X103.756 Y128.443 E0.20184
G1 X98.351 Y125.689 E0.40361
G1 X94.061 Y121.399 E0.60539
G1 X91.307 Y115.994 E0.80716
G1 X91.055 Y114.4 E0.86083
G1 X79.799 Y114.4 E1.23521
G1 X78.391 Y114.177 E1.28262
G1 X77.167 Y113.553 E1.32832
G1 X76.197 Y112.583 E1.37394
G1 X75.573 Y111.359 E1.41964
G1 X75.358 Y110 E1.4654
G1 X75.573 Y108.641 E1.51116
G1 X76.197 Y107.417 E1.55686
G1 X77.167 Y106.447 E1.60249
G1 X78.391 Y105.823 E1.64818
G1 X79.799 Y105.6 E1.6956
G1 X91.055 Y105.6 E2.06997
G1 X91.307 Y104.006 E2.12365
G1 X94.061 Y98.601 E2.32541
G1 X98.351 Y94.311 E2.5272
G1 X103.756 Y91.557 E2.72896
G1 X109.75 Y90.608 E2.9308
G1 X115.744 Y91.557 E3.13265
G1 X121.149 Y94.311 E3.33441
G1 X125.439 Y98.601 E3.5362
G1 X128.193 Y104.006 E3.73796
G1 X128.445 Y105.6 E3.79163
G1 X140.201 Y105.6 E4.18264
G1 X141.609 Y105.823 E4.23006
G1 X142.833 Y106.447 E4.27575
G1 X143.803 Y107.417 E4.32138
G1 X144.427 Y108.641 E4.36707
G1 X144.642 Y110 E4.41283
G1 X144.427 Y111.359 E4.4586
G1 X143.803 Y112.583 E4.50429
G1 X142.833 Y113.553 E4.54992
G1 X141.609 Y114.177 E4.59561
G1 X140.201 Y114.4 E4.64303
G1 X128.445 Y114.4 E5.03403
G1 X128.193 Y115.994 E5.08771
G1 X125.439 Y121.399 E5.28947
G1 X121.149 Y125.689 E5.49126
G1 X115.744 Y128.443 E5.69302
G1 X109.75 Y129.392 E5.89487
G0 F6000 X109.75 Y129.797
;TYPE:WALL-OUTER
G1 F1200 X103.631 Y128.828 E6.10092
G1 X98.112 Y126.016 E6.30694
G1 X93.734 Y121.638 E6.51286
G1 X90.922 Y116.119 E6.71888
G1 X90.713 Y114.8 E6.7633
G1 X79.768 Y114.8 E7.12733
G1 X78.266 Y114.562 E7.17791
G1 X76.928 Y113.88 E7.22786
G1 X75.87 Y112.822 E7.27763
G1 X75.188 Y111.484 E7.32758
G1 X74.953 Y110 E7.37755
G1 X75.188 Y108.516 E7.42752
G1 X75.87 Y107.178 E7.47747
G1 X76.928 Y106.12 E7.52724
G1 X78.266 Y105.438 E7.57719
G1 X79.768 Y105.2 E7.62777
G1 X90.713 Y105.2 E7.9918
G1 X90.922 Y103.881 E8.03622
G1 X93.734 Y98.362 E8.24223
G1 X98.112 Y93.984 E8.44816
G1 X103.631 Y91.172 E8.65418
G1 X109.75 Y90.203 E8.86023
G1 X115.869 Y91.172 E9.06629
G1 X121.388 Y93.984 E9.2723
G1 X125.766 Y98.362 E9.47823
G1 X128.578 Y103.881 E9.68425
G1 X128.787 Y105.2 E9.72866
G1 X140.232 Y105.2 E10.10932
G1 X141.734 Y105.438 E10.1599
G1 X143.072 Y106.12 E10.20985
G1 X144.13 Y107.178 E10.25962
G1 X144.812 Y108.516 E10.30957
G1 X145.047 Y110 E10.35954
G1 X144.812 Y111.484 E10.40952
G1 X144.13 Y112.822 E10.45946
G1 X143.072 Y113.88 E10.50923
G1 X141.734 Y114.562 E10.55918
G1 X140.232 Y114.8 E10.60976
G1 X128.787 Y114.8 E10.99042
G1 X128.578 Y116.119 E11.03484
G1 X125.766 Y121.638 E11.24086
G1 X121.388 Y126.016 E11.44678
G1 X115.869 Y128.828 E11.6528
G1 X109.75 Y129.797 E11.85885
G0 F6000 X109.75 Y129.357
G0 X109.75 Y128.996
;TYPE:SKIN
G1 F1200 X103.874 Y128.066 E12.05672
G1 X98.582 Y125.37 E12.25426
G1 X94.38 Y121.168 E12.45191
G1 X91.684 Y115.876 E12.64945
G1 X91.388 Y114.01 E12.71229
G1 X79.834 Y114.01 E13.09657
G1 X78.509 Y113.8 E13.14119
G1 X77.398 Y113.234 E13.18267
G1 X76.516 Y112.352 E13.22415
G1 X75.95 Y111.241 E13.26562
G1 X75.754 Y110 E13.30741
G1 X75.95 Y108.759 E13.3492
G1 X76.516 Y107.648 E13.39067
G1 X77.398 Y106.766 E13.43216
G1 X78.509 Y106.2 E13.47363
G1 X79.834 Y105.99 E13.51825
G1 X91.388 Y105.99 E13.90253
G1 X91.684 Y104.124 E13.96537
G1 X94.38 Y98.832 E14.16291
G1 X98.582 Y94.63 E14.36056
G1 X103.874 Y91.934 E14.5581
G1 X109.75 Y91.004 E14.75597
G1 X115.626 Y91.934 E14.95384
G1 X120.918 Y94.63 E15.15137
G1 X125.12 Y98.832 E15.34902
G1 X127.816 Y104.124 E15.54656
G1 X128.112 Y105.99 E15.6094
G1 X140.166 Y105.99 E16.01032
G1 X141.491 Y106.2 E16.05494
G1 X142.602 Y106.766 E16.09641
G1 X143.484 Y107.648 E16.13789
G1 X144.05 Y108.759 E16.17936
G1 X144.246 Y110 E16.22115
G1 X144.05 Y111.241 E16.26294
G1 X143.484 Y112.352 E16.30441
G1 X142.602 Y113.234 E16.3459
G1 X141.491 Y113.8 E16.38737
G1 X140.166 Y114.01 E16.43199
G1 X128.112 Y114.01 E16.83291
G1 X127.816 Y115.876 E16.89574
G1 X125.12 Y121.168 E17.09328
G1 X120.918 Y125.37 E17.29093
G1 X115.626 Y128.066 E17.48847
G1 X109.75 Y128.996 E17.68634
G1 F2700 E12.68634
G0 F6000 X109.706 Y129.273
G0 X103.81 Y128.279
G0 X98.452 Y125.549
G0 X93.93 Y121.497
G0 X90.909 Y114.57
G0 X81.608 Y114.538
G0 X78.506 Y114.083
G1 F2700 E17.68634
G0 F6000 X78.575 Y113.648
G1 F1200 X76.1 Y111.172 E17.80278
G0 F6000 X75.995 Y110.502
G1 F1200 X79.246 Y113.753 E17.9557
G0 F6000 X79.908 Y113.849
G1 F1200 X75.936 Y109.877 E18.14253
G0 F6000 X76.012 Y109.388
G1 F1200 X80.473 Y113.849 E18.35236
G0 F6000 X81.039 Y113.849
G1 F1200 X76.088 Y108.898 E18.58524
G0 F6000 X76.257 Y108.502
G1 F1200 X81.605 Y113.849 E18.83677
G0 F6000 X82.17 Y113.849
G1 F1200 X76.449 Y108.127 E19.10589
G0 F6000 X76.64 Y107.753
G1 F1200 X82.736 Y113.849 E19.39263
G0 F6000 X83.302 Y113.849
G1 F1200 X76.92 Y107.467 E19.69282
G0 F6000 X77.203 Y107.184
G1 F1200 X83.867 Y113.849 E20.00629
G0 F6000 X84.433 Y113.849
G1 F1200 X77.486 Y106.901 E20.33308
G0 F6000 X77.859 Y106.709
G1 F1200 X84.999 Y113.849 E20.66893
G0 F6000 X85.564 Y113.849
G1 F1200 X78.234 Y106.518 E21.01373
G0 F6000 X78.624 Y106.343
G1 F1200 X86.13 Y113.849 E21.36679
G0 F6000 X86.696 Y113.849
G1 F1200 X79.113 Y106.266 E21.72347
G0 F6000 X79.601 Y106.189
G1 F1200 X87.261 Y113.849 E22.08377
G0 F6000 X87.827 Y113.849
G1 F1200 X80.127 Y106.149 E22.44596
G0 F6000 X80.693 Y106.149
G1 F1200 X88.393 Y113.849 E22.80814
G0 F6000 X88.958 Y113.849
G1 F1200 X81.259 Y106.149 E23.1703
G0 F6000 X81.824 Y106.149
G1 F1200 X89.524 Y113.849 E23.53249
G0 F6000 X90.09 Y113.849
G1 F1200 X82.39 Y106.149 E23.89467
G0 F6000 X82.956 Y106.149
G1 F1200 X90.656 Y113.849 E24.25686
G0 F6000 X91.221 Y113.849
G1 F1200 X83.522 Y106.149 E24.61902
G0 F6000 X84.087 Y106.149
G1 F1200 X106.21 Y128.272 E25.65962
G0 F6000 X105.539 Y128.166
G1 F1200 X91.58 Y114.208 E26.31618
G0 F6000 X91.687 Y114.88
G1 F1200 X104.867 Y128.06 E26.93613
G0 F6000 X104.195 Y127.954
G1 F1200 X91.794 Y115.553 E27.51943
G0 F6000 X91.36 Y115.621
G0 X91.794 Y116.708
G0 X92.186 Y116.51
G1 F1200 X103.238 Y127.562 E28.03929
G0 F6000 X103.038 Y127.953
G0 X101.884 Y127.365
G0 X102.084 Y126.974
G1 F1200 X92.773 Y117.663 E28.47725
G0 F6000 X92.382 Y117.861
G0 X92.97 Y119.015
G0 X93.361 Y118.817
G1 F1200 X100.931 Y126.386 E28.83329
G0 F6000 X100.731 Y126.778
G0 X99.577 Y126.19
G0 X99.777 Y125.799
G1 F1200 X93.949 Y119.971 E29.10742
G1 F2700 E24.10742
G0 F6000 X93.558 Y120.169
G0 X91.471 Y115.94
G0 X91.209 Y114.22
G0 X79.81 Y114.229
G0 X78.445 Y114.013
G0 X77.268 Y113.413
G0 X76.337 Y112.482
G0 X75.737 Y111.305
G0 X75.53 Y110
G0 X75.737 Y108.695
G0 X76.337 Y107.518
G0 X77.268 Y106.587
G0 X78.445 Y105.987
G0 X79.673 Y105.793
G0 X91.17 Y105.734
G1 F2700 E29.10742
G0 F6000 X91.441 Y106.149
G1 F1200 X113.527 Y128.235 E30.14628
G0 F6000 X114.015 Y128.157
G1 F1200 X91.589 Y105.731 E31.20113
G0 F6000 X91.667 Y105.243
G1 F1200 X114.503 Y128.08 E32.27529
G0 F6000 X114.992 Y128.003
G1 F1200 X91.744 Y104.755 E33.3688
G0 F6000 X91.822 Y104.267
G1 F1200 X115.481 Y127.926 E34.48165
G0 F6000 X115.878 Y127.757
G1 F1200 X91.991 Y103.87 E35.60522
G0 F6000 X92.181 Y103.495
G1 F1200 X116.253 Y127.567 E36.7375
G0 F6000 X116.628 Y127.376
G1 F1200 X92.372 Y103.12 E37.87842
G0 F6000 X92.563 Y102.746
G1 F1200 X117.002 Y127.185 E39.02796
G0 F6000 X117.376 Y126.993
G1 F1200 X92.754 Y102.371 E40.1861
G0 F6000 X92.945 Y101.996
G1 F1200 X117.751 Y126.802 E41.3529
G0 F6000 X118.126 Y126.611
G1 F1200 X93.136 Y101.621 E42.52835
G0 F6000 X93.327 Y101.247
G1 F1200 X118.501 Y126.42 E43.71244
G0 F6000 X118.875 Y126.229
G1 F1200 X93.518 Y100.872 E44.90515
G0 F6000 X93.709 Y100.497
G1 F1200 X119.25 Y126.038 E46.10652
G0 F6000 X119.625 Y125.848
G1 F1200 X93.9 Y100.122 E47.31657
G0 F6000 X94.091 Y99.748
G1 F1200 X120 Y125.657 E48.53525
G0 F6000 X120.375 Y125.466
G1 F1200 X94.282 Y99.373 E49.76259
G0 F6000 X94.473 Y98.998
G1 F1200 X120.749 Y125.275 E50.99855
G0 F6000 X121.051 Y125.01
G1 F1200 X94.738 Y98.697 E52.23624
G0 F6000 X95.021 Y98.415
G1 F1200 X121.333 Y124.727 E53.47387
G0 F6000 X121.616 Y124.445
G1 F1200 X95.303 Y98.132 E54.71156
G0 F6000 X95.586 Y97.849
G1 F1200 X121.899 Y124.162 E55.94924
G0 F6000 X122.182 Y123.879
G1 F1200 X95.869 Y97.566 E57.18692
G0 F6000 X96.152 Y97.283
G1 F1200 X122.465 Y123.596 E58.4246
G0 F6000 X122.748 Y123.313
G1 F1200 X96.435 Y97 E59.66229
G0 F6000 X96.718 Y96.718
G1 F1200 X123.03 Y123.03 E60.89992
G0 F6000 X123.313 Y122.748
G1 F1200 X97 Y96.435 E62.13761
G0 F6000 X97.283 Y96.152
G1 F1200 X123.596 Y122.465 E63.37529
G0 F6000 X123.879 Y122.182
G1 F1200 X97.566 Y95.869 E64.61297
G0 F6000 X97.849 Y95.586
G1 F1200 X124.162 Y121.899 E65.85065
G0 F6000 X124.445 Y121.616
G1 F1200 X98.132 Y95.303 E67.08834
G0 F6000 X98.415 Y95.021
G1 F1200 X124.727 Y121.333 E68.32597
G0 F6000 X125.003 Y121.043
G1 F1200 X98.705 Y94.745 E69.56295
G0 F6000 X99.08 Y94.555
G1 F1200 X125.194 Y120.669 E70.79127
G0 F6000 X125.385 Y120.294
G1 F1200 X99.455 Y94.364 E72.01094
G0 F6000 X99.83 Y94.173
G1 F1200 X125.576 Y119.919 E73.22195
G0 F6000 X125.767 Y119.544
G1 F1200 X100.204 Y93.982 E74.42433
G0 F6000 X100.579 Y93.791
G1 F1200 X125.958 Y119.17 E75.61808
G0 F6000 X126.149 Y118.795
G1 F1200 X100.954 Y93.6 E76.80318
G0 F6000 X101.329 Y93.409
G1 F1200 X126.34 Y118.42 E77.97962
G0 F6000 X126.531 Y118.045
G1 F1200 X101.703 Y93.218 E79.14743
G0 F6000 X102.078 Y93.027
G1 F1200 X126.722 Y117.671 E80.30661
G0 F6000 X126.913 Y117.296
G1 F1200 X102.453 Y92.836 E81.45713
G0 F6000 X102.828 Y92.645
G1 F1200 X127.104 Y116.922 E82.59902
G0 F6000 X127.295 Y116.547
G1 F1200 X103.202 Y92.454 E83.73229
G0 F6000 X103.577 Y92.263
G1 F1200 X127.486 Y116.172 E84.85689
G0 F6000 X127.668 Y115.788
G1 F1200 X103.961 Y92.082 E85.97197
G0 F6000 X104.45 Y92.005
G1 F1200 X127.745 Y115.3 E87.0677
G0 F6000 X127.822 Y114.812
G1 F1200 X104.938 Y91.928 E88.14409
G0 F6000 X105.427 Y91.851
G1 F1200 X127.9 Y114.323 E89.20113
G0 F6000 X127.991 Y113.849
G1 F1200 X105.915 Y91.773 E90.23952
G0 F6000 X106.404 Y91.696
G1 F1200 X128.557 Y113.849 E91.28152
G0 F6000 X129.123 Y113.849
G1 F1200 X106.892 Y91.619 E92.32718
G0 F6000 X107.381 Y91.542
G1 F1200 X129.689 Y113.849 E93.37646
G0 F6000 X130.254 Y113.849
G1 F1200 X107.869 Y91.464 E94.42938
G0 F6000 X108.357 Y91.387
G1 F1200 X130.82 Y113.849 E95.48594
G0 F6000 X131.386 Y113.849
G1 F1200 X108.846 Y91.31 E96.54613
G0 F6000 X109.334 Y91.232
G1 F1200 X131.951 Y113.849 E97.60997
G0 F6000 X132.517 Y113.849
G1 F1200 X109.85 Y91.182 E98.67615
G0 F6000 X110.522 Y91.288
G1 F1200 X133.083 Y113.849 E99.73735
G0 F6000 X133.648 Y113.849
G1 F1200 X111.194 Y91.395 E100.79352
G0 F6000 X111.866 Y91.501
G1 F1200 X134.214 Y113.849 E101.8447
G0 F6000 X134.78 Y113.849
G1 F1200 X112.538 Y91.607 E102.8909
G0 F6000 X113.21 Y91.714
G1 F1200 X135.345 Y113.849 E103.93206
G0 F6000 X135.911 Y113.849
G1 F1200 X128.211 Y106.15 E104.29422
G0 F6000 X127.931 Y105.869
G1 F1200 X113.882 Y91.82 E104.95504
G0 F6000 X114.554 Y91.927
G1 F1200 X127.824 Y105.196 E105.5792
G0 F6000 X127.717 Y104.524
G1 F1200 X115.226 Y92.033 E106.16674
G0 F6000 X116.128 Y92.369
G1 F1200 X127.381 Y103.622 E106.69605
G0 F6000 X127.773 Y103.423
G0 X127.185 Y102.269
G0 X126.793 Y102.468
G1 F1200 X117.281 Y92.956 E107.14346
G0 F6000 X117.48 Y92.566
G0 X118.633 Y93.153
G0 X118.434 Y93.543
G1 F1200 X126.205 Y101.315 E107.50901
G0 F6000 X126.597 Y101.116
G0 X126.01 Y99.963
G0 X125.618 Y100.162
G1 F1200 X119.587 Y94.131 E107.79269
G0 F6000 X119.786 Y93.74
G0 X120.938 Y94.327
G0 X120.739 Y94.718
G1 F1200 X125.031 Y99.009 E107.99455
G0 F6000 X125.423 Y98.811
G0 X128.029 Y104.06
G0 X128.483 Y105.169
G0 X128.777 Y105.71
G0 X128.777 Y106.15
G1 F1200 X136.477 Y113.849 E108.35671
G0 F6000 X137.042 Y113.849
G1 F1200 X129.343 Y106.15 E108.71885
G0 F6000 X129.908 Y106.15
G1 F1200 X137.608 Y113.849 E109.08101
G0 F6000 X138.174 Y113.849
G1 F1200 X130.474 Y106.15 E109.44317
G0 F6000 X131.04 Y106.15
G1 F1200 X138.74 Y113.849 E109.80533
G0 F6000 X139.305 Y113.849
G1 F1200 X131.606 Y106.15 E110.16747
G0 F6000 X132.171 Y106.15
G1 F1200 X139.871 Y113.849 E110.52963
G0 F6000 X140.397 Y113.81
G1 F1200 X132.737 Y106.15 E110.88993
G0 F6000 X133.303 Y106.15
G1 F1200 X140.886 Y113.733 E111.24661
G0 F6000 X141.374 Y113.656
G1 F1200 X133.868 Y106.15 E111.59967
G0 F6000 X134.434 Y106.15
G1 F1200 X141.765 Y113.48 E111.94447
G0 F6000 X142.139 Y113.289
G1 F1200 X135 Y106.15 E112.28027
G0 F6000 X135.565 Y106.15
G1 F1200 X142.513 Y113.097 E112.60706
G0 F6000 X142.795 Y112.814
G1 F1200 X136.131 Y106.15 E112.92051
G0 F6000 X136.697 Y106.15
G1 F1200 X143.078 Y112.531 E113.22066
G0 F6000 X143.358 Y112.246
G1 F1200 X137.262 Y106.15 E113.50739
G0 F6000 X137.828 Y106.15
G1 F1200 X143.549 Y111.871 E113.77649
G0 F6000 X143.741 Y111.497
G1 F1200 X138.394 Y106.15 E114.028
G0 F6000 X138.959 Y106.15
G1 F1200 X143.91 Y111.1 E114.26085
G0 F6000 X143.986 Y110.611
G1 F1200 X139.525 Y106.15 E114.47069
G0 F6000 X140.091 Y106.15
G1 F1200 X144.063 Y110.121 E114.65749
G0 F6000 X144.003 Y109.496
G1 F1200 X140.752 Y106.245 E114.81041
G0 F6000 X141.423 Y106.35
G1 F1200 X143.899 Y108.826 E114.92687
G1 F2700 E109.92687
G0 F6000 X144.334 Y108.758
G0 X144.47 Y110
G0 X144.263 Y111.305
G0 X143.663 Y112.482
G0 X142.732 Y113.413
G0 X141.555 Y114.013
G0 X140.19 Y114.229
G0 X128.591 Y114.57
G0 X126.15 Y120.397
G0 X121.048 Y125.549
G0 X115.69 Y128.279
G0 X113.106 Y128.749
G1 F2700 E114.92687
G0 F6000 X113.038 Y128.312
G1 F1200 X90.875 Y106.149 E115.96935
G0 F6000 X90.31 Y106.149
G1 F1200 X112.55 Y128.389 E117.01545
G0 F6000 X112.061 Y128.466
G1 F1200 X89.744 Y106.149 E118.06518
G0 F6000 X89.178 Y106.149
G1 F1200 X111.572 Y128.543 E119.11852
G0 F6000 X111.084 Y128.62
G1 F1200 X88.613 Y106.149 E120.17549
G0 F6000 X88.047 Y106.149
G1 F1200 X110.595 Y128.697 E121.23608
G0 F6000 X110.107 Y128.775
G1 F1200 X87.481 Y106.149 E122.30034
G0 F6000 X86.916 Y106.149
G1 F1200 X109.569 Y128.803 E123.36589
G0 F6000 X108.897 Y128.696
G1 F1200 X86.35 Y106.149 E124.42643
G0 F6000 X85.784 Y106.149
G1 F1200 X108.226 Y128.59 E125.48201
G0 F6000 X107.554 Y128.484
G1 F1200 X85.219 Y106.149 E126.53258
G0 F6000 X84.653 Y106.149
G1 F1200 X106.882 Y128.378 E127.57816
G0 F6000 X106.827 Y128.727
;MESH:NONMESH
G0 F300 X106.827 Y128.727 Z0.4
G0 F6000 X106.813 Y128.815
G0 X109.75 Y129.392
;TIME_ELAPSED:211.338379
;LAYER:1
M106 S85
;TYPE:WALL-INNER
;MESH:a2e1s.stl
G1 F1800 X103.756 Y128.443 E127.78001
G1 X98.351 Y125.689 E127.98177
G1 X94.061 Y121.399 E128.18356
G1 X91.307 Y115.994 E128.38532
G1 X91.055 Y114.4 E128.43899
G1 X79.799 Y114.4 E128.81337
G1 X78.391 Y114.177 E128.86078
G1 X77.167 Y113.553 E128.90648
G1 X76.197 Y112.583 E128.95211
G1 X75.573 Y111.359 E128.9978
G1 X75.358 Y110 E129.04356
G1 X75.573 Y108.641 E129.08933
G1 X76.197 Y107.417 E129.13502
G1 X77.167 Y106.447 E129.18065
G1 X78.391 Y105.823 E129.22634
G1 X79.799 Y105.6 E129.27376
G1 X91.055 Y105.6 E129.64813
G1 X91.307 Y104.006 E129.70181
G1 X94.061 Y98.601 E129.90357
G1 X98.351 Y94.311 E130.10536
G1 X103.756 Y91.557 E130.30712
G1 X109.75 Y90.608 E130.50897
G1 X115.744 Y91.557 E130.71081
G1 X121.149 Y94.311 E130.91257
G1 X125.439 Y98.601 E131.11436
G1 X128.193 Y104.006 E131.31612
G1 X128.445 Y105.6 E131.3698
G1 X140.201 Y105.6 E131.7608
G1 X141.609 Y105.823 E131.80822
