;FLAVOR:Marlin
;TIME:2509
;Filament used: 2.82369m
;Layer height: 0.2
;MINX:64.953
;MINY:80.203
;MINZ:0.2
;MAXX:155.047
;MAXY:139.797
;MAXZ:4
;Generated with Cura_SteamEngine 4.12.1
M140 S50
M105
M190 S50
M104 S200
M105
M109 S200
M82 ;absolute extrusion mode
M201 X500.00 Y500.00 Z100.00 E5000.00 ;Setup machine max acceleration
M203 X500.00 Y500.00 Z10.00 E50.00 ;Setup machine max feedrate
M204 P500.00 R1000.00 T500.00 ;Setup Print/Retract/Travel acceleration
M205 X8.00 Y8.00 Z0.40 E5.00 ;Setup Jerk
M220 S100 ;Reset Feedrate
M221 S100 ;Reset Flowrate

G28 ;Home

G92 E0 ;Reset Extruder
G1 Z2.0 F3000 ;Move Z Axis up
G1 X10.1 Y20 Z0.28 F5000.0 ;Move to start position
G1 X10.1 Y200.0 Z0.28 F1500.0 E15 ;Draw the first line
G1 X10.4 Y200.0 Z0.28 F5000.0 ;Move to side a little
G1 X10.4 Y20 Z0.28 F1500.0 E30 ;Draw the second line
G92 E0 ;Reset Extruder
G1 Z2.0 F3000 ;Move Z Axis up

G92 E0
G92 E0
G1 F2700 E-5
;LAYER_COUNT:20
;LAYER:0
M107
;MESH:a2e2s.stl
G0 F6000 X109.75 Y139.392 Z0.2
;TYPE:WALL-INNER
G1 F2700 E0
G1 F1200 X100.665 Y137.954 E0.30593
G1 X92.473 Y133.78 E0.61173
G1 X85.97 Y127.277 E0.91761
G1 X81.796 Y119.085 E1.2234
G1 X81.055 Y114.4 E1.38116
G1 X69.799 Y114.4 E1.75554
G1 X68.391 Y114.177 E1.80295
G1 X67.167 Y113.553 E1.84865
G1 X66.197 Y112.583 E1.89428
G1 X65.573 Y111.359 E1.93997
G1 X65.358 Y110 E1.98573
G1 X65.573 Y108.641 E2.0315
G1 X66.197 Y107.417 E2.07719
G1 X67.167 Y106.447 E2.12282
G1 X68.391 Y105.823 E2.16851
G1 X69.799 Y105.6 E2.21593
G1 X81.055 Y105.6 E2.5903
G1 X81.796 Y100.915 E2.74806
G1 X85.97 Y92.723 E3.05386
G1 X92.473 Y86.22 E3.35974
G1 X100.665 Y82.046 E3.66554
G1 X109.75 Y80.608 E3.97147
G1 X118.835 Y82.046 E4.2774
G1 X127.027 Y86.22 E4.5832
G1 X133.53 Y92.723 E4.88908
G1 X137.704 Y100.915 E5.19487
G1 X138.445 Y105.6 E5.35263
G1 X150.201 Y105.6 E5.74364
G1 X151.609 Y105.823 E5.79105
G1 X152.833 Y106.447 E5.83675
G1 X153.803 Y107.417 E5.88238
G1 X154.427 Y108.641 E5.92807
G1 X154.642 Y110 E5.97383
G1 X154.427 Y111.359 E6.0196
G1 X153.803 Y112.583 E6.06529
G1 X152.833 Y113.553 E6.11092
G1 X151.609 Y114.177 E6.15661
G1 X150.201 Y114.4 E6.20403
G1 X138.445 Y114.4 E6.59503
G1 X137.704 Y119.085 E6.75279
G1 X133.53 Y127.277 E7.05859
G1 X127.027 Y133.78 E7.36447
G1 X118.835 Y137.954 E7.67027
G1 X109.75 Y139.392 E7.9762
G0 F6000 X109.75 Y139.797
;TYPE:WALL-OUTER
G1 F1200 X100.54 Y138.339 E8.28634
G1 X92.234 Y134.107 E8.59639
G1 X85.643 Y127.516 E8.90641
G1 X81.411 Y119.21 E9.21646
G1 X80.713 Y114.8 E9.36496
G1 X69.768 Y114.8 E9.729
G1 X68.266 Y114.562 E9.77958
G1 X66.928 Y113.88 E9.82952
G1 X65.87 Y112.822 E9.87929
G1 X65.188 Y111.484 E9.92924
G1 X64.953 Y110 E9.97921
G1 X65.188 Y108.516 E10.02919
G1 X65.87 Y107.178 E10.07914
G1 X66.928 Y106.12 E10.1289
G1 X68.266 Y105.438 E10.17885
G1 X69.768 Y105.2 E10.22943
G1 X80.713 Y105.2 E10.59346
G1 X81.411 Y100.79 E10.74197
G1 X85.643 Y92.484 E11.05202
G1 X92.234 Y85.893 E11.36204
G1 X100.54 Y81.661 E11.67209
G1 X109.75 Y80.203 E11.98223
G1 X118.96 Y81.661 E12.29237
G1 X127.266 Y85.893 E12.60242
G1 X133.857 Y92.484 E12.91244
G1 X138.089 Y100.79 E13.22249
G1 X138.787 Y105.2 E13.37099
G1 X150.232 Y105.2 E13.75165
G1 X151.734 Y105.438 E13.80223
G1 X153.072 Y106.12 E13.85218
G1 X154.13 Y107.178 E13.90195
G1 X154.812 Y108.516 E13.9519
G1 X155.047 Y110 E14.00187
G1 X154.812 Y111.484 E14.05185
G1 X154.13 Y112.822 E14.1018
G1 X153.072 Y113.88 E14.15156
G1 X151.734 Y114.562 E14.20151
G1 X150.232 Y114.8 E14.25209
G1 X138.787 Y114.8 E14.63275
G1 X138.089 Y119.21 E14.78126
G1 X133.857 Y127.516 E15.09131
G1 X127.266 Y134.107 E15.40133
G1 X118.96 Y138.339 E15.71138
G1 X109.75 Y139.797 E16.02152
G0 F6000 X109.75 Y139.357
G0 X109.75 Y138.996
;TYPE:SKIN
G1 F1200 X100.783 Y137.577 E16.32347
G1 X92.704 Y133.461 E16.62504
G1 X86.289 Y127.046 E16.92679
G1 X82.173 Y118.967 E17.22836
G1 X81.388 Y114.01 E17.39528
G1 X69.834 Y114.01 E17.77957
G1 X68.509 Y113.8 E17.82419
G1 X67.398 Y113.234 E17.86566
G1 X66.516 Y112.352 E17.90715
G1 X65.95 Y111.241 E17.94862
G1 X65.754 Y110 E17.99041
G1 X65.95 Y108.759 E18.03219
G1 X66.516 Y107.648 E18.07366
G1 X67.398 Y106.766 E18.11515
G1 X68.509 Y106.2 E18.15662
G1 X69.834 Y105.99 E18.20124
G1 X81.388 Y105.99 E18.58553
G1 X82.173 Y101.033 E18.75245
G1 X86.289 Y92.954 E19.05403
G1 X92.704 Y86.539 E19.35577
G1 X100.783 Y82.423 E19.65734
G1 X109.75 Y81.004 E19.95929
G1 X118.717 Y82.423 E20.26125
G1 X126.796 Y86.539 E20.56282
G1 X133.211 Y92.954 E20.86456
G1 X137.327 Y101.033 E21.16614
G1 X138.112 Y105.99 E21.33306
G1 X150.166 Y105.99 E21.73398
G1 X151.491 Y106.2 E21.7786
G1 X152.602 Y106.766 E21.82007
G1 X153.484 Y107.648 E21.86156
G1 X154.05 Y108.759 E21.90303
G1 X154.246 Y110 E21.94481
G1 X154.05 Y111.241 E21.9866
G1 X153.484 Y112.352 E22.02807
G1 X152.602 Y113.234 E22.06956
G1 X151.491 Y113.8 E22.11103
G1 X150.166 Y114.01 E22.15565
G1 X138.112 Y114.01 E22.55657
G1 X137.327 Y118.967 E22.72349
G1 X133.211 Y127.046 E23.02506
G1 X126.796 Y133.461 E23.32681
G1 X118.717 Y137.577 E23.62838
G1 X109.75 Y138.996 E23.93033
G1 F2700 E18.93033
G0 F6000 X109.706 Y139.273
G0 X100.719 Y137.79
G0 X92.574 Y133.64
G0 X86.11 Y127.176
G0 X81.642 Y119.137
G0 X80.909 Y114.57
G0 X70.188 Y114.471
G0 X68.016 Y113.862
G1 F2700 E23.93033
G0 F6000 X68.216 Y113.47
G1 F1200 X66.277 Y111.531 E24.02154
G0 F6000 X66.029 Y110.718
G1 F1200 X69.029 Y113.719 E24.16267
G0 F6000 X69.702 Y113.825
G1 F1200 X65.924 Y110.047 E24.34038
G0 F6000 X65.987 Y109.545
G1 F1200 X70.291 Y113.849 E24.54282
G0 F6000 X70.857 Y113.849
G1 F1200 X66.064 Y109.056 E24.76827
G0 F6000 X66.196 Y108.622
G1 F1200 X71.422 Y113.849 E25.01411
G0 F6000 X71.988 Y113.849
G1 F1200 X66.387 Y108.248 E25.27756
G0 F6000 X66.579 Y107.874
G1 F1200 X72.554 Y113.849 E25.55861
G0 F6000 X73.119 Y113.849
G1 F1200 X66.829 Y107.558 E25.8545
G0 F6000 X67.112 Y107.275
G1 F1200 X73.685 Y113.849 E26.16369
G0 F6000 X74.251 Y113.849
G1 F1200 X67.395 Y106.993 E26.48618
G0 F6000 X67.738 Y106.771
G1 F1200 X74.816 Y113.849 E26.81911
G0 F6000 X75.382 Y113.849
G1 F1200 X68.113 Y106.58 E27.16102
G0 F6000 X68.487 Y106.388
G1 F1200 X75.948 Y113.849 E27.51196
G0 F6000 X76.513 Y113.849
G1 F1200 X68.955 Y106.29 E27.86749
G0 F6000 X69.444 Y106.213
G1 F1200 X77.079 Y113.849 E28.22664
G0 F6000 X77.645 Y113.849
G1 F1200 X69.945 Y106.149 E28.58882
G0 F6000 X70.511 Y106.149
G1 F1200 X78.21 Y113.849 E28.95098
G0 F6000 X78.776 Y113.849
G1 F1200 X71.076 Y106.149 E29.31317
G0 F6000 X71.642 Y106.149
G1 F1200 X79.342 Y113.849 E29.67535
G0 F6000 X79.908 Y113.849
G1 F1200 X72.208 Y106.149 E30.03754
G0 F6000 X72.774 Y106.149
G1 F1200 X80.473 Y113.849 E30.3997
G0 F6000 X81.039 Y113.849
G1 F1200 X73.339 Y106.149 E30.76188
G0 F6000 X73.905 Y106.149
G1 F1200 X105.993 Y138.237 E32.2712
G0 F6000 X105.322 Y138.131
G1 F1200 X81.615 Y114.425 E33.38629
G0 F6000 X81.721 Y115.097
G1 F1200 X104.65 Y138.025 E34.46477
G0 F6000 X103.978 Y137.919
G1 F1200 X81.827 Y115.768 E35.50669
G0 F6000 X81.934 Y116.441
G1 F1200 X103.306 Y137.813 E36.51196
G0 F6000 X102.635 Y137.707
G1 F1200 X82.04 Y117.113 E37.48066
G0 F6000 X82.147 Y117.785
G1 F1200 X101.962 Y137.6 E38.4127
G0 F6000 X101.29 Y137.494
G1 F1200 X82.253 Y118.457 E39.30814
G0 F6000 X82.511 Y119.281
G1 F1200 X100.467 Y137.237 E40.15274
G0 F6000 X100.268 Y137.628
G0 X99.114 Y137.04
G0 X99.314 Y136.649
G1 F1200 X83.099 Y120.434 E40.91544
G0 F6000 X82.708 Y120.632
G0 X83.295 Y121.785
G0 X83.686 Y121.587
G1 F1200 X98.16 Y136.061 E41.59625
G0 F6000 X97.96 Y136.452
G0 X96.807 Y135.865
G0 X97.007 Y135.473
G1 F1200 X84.274 Y122.741 E42.19515
G0 F6000 X83.883 Y122.939
G0 X84.471 Y124.092
G0 X84.862 Y123.894
G1 F1200 X95.853 Y134.886 E42.71216
G0 F6000 X95.653 Y135.277
G0 X94.5 Y134.689
G0 X94.7 Y134.298
G1 F1200 X85.449 Y125.047 E43.1473
G0 F6000 X85.058 Y125.245
G0 X85.645 Y126.398
G0 X86.037 Y126.2
G1 F1200 X93.547 Y133.711 E43.50057
G0 F6000 X93.347 Y134.102
G0 X100.719 Y137.79
G0 X106.596 Y138.781
G0 X106.665 Y138.344
G1 F1200 X74.471 Y106.149 E45.0149
G0 F6000 X75.036 Y106.149
G1 F1200 X107.338 Y138.45 E46.53426
G0 F6000 X108.009 Y138.556
G1 F1200 X75.602 Y106.149 E48.05859
G0 F6000 X76.168 Y106.149
G1 F1200 X108.681 Y138.662 E49.5879
G0 F6000 X109.353 Y138.768
G1 F1200 X76.733 Y106.149 E51.12222
G0 F6000 X77.299 Y106.149
G1 F1200 X109.95 Y138.8 E52.65802
G0 F6000 X110.438 Y138.723
G1 F1200 X77.865 Y106.149 E54.19018
G0 F6000 X78.43 Y106.149
G1 F1200 X110.926 Y138.645 E55.71869
G0 F6000 X111.415 Y138.568
G1 F1200 X78.996 Y106.149 E57.24358
G0 F6000 X79.562 Y106.149
G1 F1200 X111.903 Y138.491 E58.76483
G0 F6000 X112.392 Y138.414
G1 F1200 X80.127 Y106.149 E60.28247
G0 F6000 X80.693 Y106.149
G1 F1200 X112.881 Y138.336 E61.79648
G0 F6000 X113.369 Y138.259
G1 F1200 X81.259 Y106.149 E63.30683
G0 F6000 X81.564 Y105.889
G1 F1200 X113.857 Y138.182 E64.8258
G0 F6000 X114.346 Y138.105
G1 F1200 X81.641 Y105.4 E66.36414
G0 F6000 X81.719 Y104.912
G1 F1200 X114.834 Y138.027 E67.92177
G0 F6000 X115.323 Y137.95
G1 F1200 X81.796 Y104.424 E69.49875
G0 F6000 X81.874 Y103.936
G1 F1200 X115.812 Y137.873 E71.09507
G0 F6000 X116.3 Y137.796
G1 F1200 X81.951 Y103.447 E72.71074
G0 F6000 X82.028 Y102.958
G1 F1200 X116.788 Y137.718 E74.34574
G0 F6000 X117.277 Y137.641
G1 F1200 X82.106 Y102.471 E76.00005
G0 F6000 X82.183 Y101.982
G1 F1200 X117.765 Y137.564 E77.67372
G0 F6000 X118.254 Y137.487
G1 F1200 X82.261 Y101.494 E79.36672
G0 F6000 X82.356 Y101.023
G1 F1200 X118.725 Y137.392 E81.07741
G0 F6000 X119.1 Y137.202
G1 F1200 X82.546 Y100.648 E82.7968
G0 F6000 X82.737 Y100.274
G1 F1200 X119.474 Y137.011 E84.52479
G0 F6000 X119.849 Y136.82
G1 F1200 X82.928 Y99.899 E86.26144
G0 F6000 X83.119 Y99.524
G1 F1200 X120.224 Y136.629 E88.00675
G0 F6000 X120.599 Y136.438
G1 F1200 X83.31 Y99.149 E89.76071
G0 F6000 X83.501 Y98.775
G1 F1200 X120.973 Y136.247 E91.52328
G0 F6000 X121.348 Y136.056
G1 F1200 X83.692 Y98.4 E93.2945
G0 F6000 X83.883 Y98.025
G1 F1200 X121.723 Y135.865 E95.07438
G0 F6000 X122.098 Y135.674
G1 F1200 X84.074 Y97.65 E96.86291
G0 F6000 X84.265 Y97.275
G1 F1200 X122.473 Y135.483 E98.6601
G0 F6000 X122.847 Y135.292
G1 F1200 X84.456 Y96.901 E100.46589
G0 F6000 X84.647 Y96.526
G1 F1200 X123.222 Y135.101 E102.28034
G0 F6000 X123.597 Y134.911
G1 F1200 X84.837 Y96.151 E104.10349
G0 F6000 X85.028 Y95.776
G1 F1200 X123.972 Y134.72 E105.9353
G0 F6000 X124.346 Y134.529
G1 F1200 X85.219 Y95.402 E107.77571
G0 F6000 X85.41 Y95.027
G1 F1200 X124.721 Y134.338 E109.62478
G0 F6000 X125.096 Y134.147
G1 F1200 X85.601 Y94.652 E111.48251
G0 F6000 X85.792 Y94.277
G1 F1200 X125.471 Y133.956 E113.34888
G0 F6000 X125.845 Y133.765
G1 F1200 X85.983 Y93.903 E115.22387
G0 F6000 X86.174 Y93.528
G1 F1200 X126.22 Y133.574 E117.10751
G0 F6000 X126.594 Y133.382
G1 F1200 X86.366 Y93.154 E118.99971
G0 F6000 X86.622 Y92.845
G1 F1200 X126.904 Y133.126 E120.89443
G0 F6000 X127.187 Y132.844
G1 F1200 X86.905 Y92.562 E122.78917
G0 F6000 X87.188 Y92.279
G1 F1200 X127.47 Y132.561 E124.68392
G0 F6000 X127.752 Y132.278
G1 F1200 X87.471 Y91.996 E126.57863
G0 F6000 X87.754 Y91.713
G1 F1200 X128.035 Y131.995 E128.47335
G0 F6000 X128.318 Y131.712
G1 F1200 X88.036 Y91.431 E130.36807
G0 F6000 X88.319 Y91.148
G1 F1200 X128.601 Y131.429 E132.26279
G0 F6000 X128.884 Y131.147
G1 F1200 X88.602 Y90.865 E134.15753
G0 F6000 X88.885 Y90.582
G1 F1200 X129.167 Y130.864 E136.05227
G0 F6000 X129.45 Y130.581
G1 F1200 X89.168 Y90.299 E137.94701
G0 F6000 X89.451 Y90.016
G1 F1200 X129.732 Y130.298 E139.84173
G0 F6000 X130.015 Y130.015
G1 F1200 X89.733 Y89.733 E141.73647
G0 F6000 X90.016 Y89.451
G1 F1200 X130.298 Y129.732 E143.63119
G0 F6000 X130.581 Y129.45
G1 F1200 X90.299 Y89.168 E145.52593
G0 F6000 X90.582 Y88.885
G1 F1200 X130.864 Y129.167 E147.42068
G0 F6000 X131.147 Y128.884
G1 F1200 X90.865 Y88.602 E149.31542
G0 F6000 X91.148 Y88.319
G1 F1200 X131.429 Y128.601 E151.21014
G0 F6000 X131.712 Y128.318
G1 F1200 X91.431 Y88.036 E153.10485
G0 F6000 X91.713 Y87.754
G1 F1200 X131.995 Y128.035 E154.99957
G0 F6000 X132.278 Y127.752
G1 F1200 X91.996 Y87.471 E156.89429
G0 F6000 X92.279 Y87.188
G1 F1200 X132.561 Y127.47 E158.78903
G0 F6000 X132.844 Y127.187
G1 F1200 X92.562 Y86.905 E160.68377
G0 F6000 X92.86 Y86.638
G1 F1200 X133.112 Y126.889 E162.57708
G0 F6000 X133.303 Y126.514
G1 F1200 X93.235 Y86.447 E164.46173
G0 F6000 X93.61 Y86.256
G1 F1200 X133.493 Y126.14 E166.33773
G0 F6000 X133.684 Y125.765
G1 F1200 X93.985 Y86.065 E168.20507
G0 F6000 X94.359 Y85.874
G1 F1200 X133.875 Y125.39 E170.06379
G0 F6000 X134.066 Y125.015
G1 F1200 X94.734 Y85.683 E171.91384
G0 F6000 X95.109 Y85.492
G1 F1200 X134.257 Y124.641 E173.75527
G0 F6000 X134.448 Y124.266
G1 F1200 X95.484 Y85.301 E175.58804
G0 F6000 X95.858 Y85.11
G1 F1200 X134.639 Y123.891 E177.41218
G0 F6000 X134.83 Y123.516
G1 F1200 X96.233 Y84.919 E179.22766
G0 F6000 X96.608 Y84.729
G1 F1200 X135.021 Y123.141 E181.03447
G0 F6000 X135.212 Y122.767
G1 F1200 X96.983 Y84.538 E182.83264
G0 F6000 X97.357 Y84.347
G1 F1200 X135.403 Y122.392 E184.62219
G0 F6000 X135.594 Y122.017
G1 F1200 X97.732 Y84.156 E186.40308
G0 F6000 X98.107 Y83.965
G1 F1200 X135.785 Y121.642 E188.17531
G0 F6000 X135.975 Y121.268
G1 F1200 X98.482 Y83.774 E189.93889
G0 F6000 X98.857 Y83.583
G1 F1200 X136.166 Y120.893 E191.69381
G0 F6000 X136.357 Y120.518
G1 F1200 X99.231 Y83.392 E193.44011
G0 F6000 X99.606 Y83.201
G1 F1200 X136.548 Y120.143 E195.17775
G0 F6000 X136.739 Y119.769
G1 F1200 X99.981 Y83.01 E196.90675
G0 F6000 X100.356 Y82.819
G1 F1200 X136.93 Y119.394 E198.62711
G0 F6000 X137.121 Y119.019
G1 F1200 X100.73 Y82.628 E200.33883
G0 F6000 X101.188 Y82.52
G1 F1200 X137.229 Y118.562 E202.03411
G0 F6000 X137.306 Y118.073
G1 F1200 X101.677 Y82.443 E203.71001
G0 F6000 X102.165 Y82.366
G1 F1200 X137.383 Y117.584 E205.36656
G0 F6000 X137.461 Y117.096
G1 F1200 X102.654 Y82.289 E207.00377
G0 F6000 X103.142 Y82.211
G1 F1200 X137.538 Y116.608 E208.62168
G0 F6000 X137.615 Y116.119
G1 F1200 X103.63 Y82.134 E210.22023
G0 F6000 X104.119 Y82.057
G1 F1200 X137.693 Y115.631 E211.79945
G0 F6000 X137.77 Y115.143
G1 F1200 X104.607 Y81.98 E213.35933
G0 F6000 X105.095 Y81.902
G1 F1200 X137.847 Y114.654 E214.89989
G0 F6000 X137.925 Y114.166
G1 F1200 X105.584 Y81.825 E216.42111
G0 F6000 X106.073 Y81.748
G1 F1200 X138.174 Y113.849 E217.93104
G0 F6000 X138.74 Y113.849
G1 F1200 X106.561 Y81.671 E219.44462
G0 F6000 X107.049 Y81.593
G1 F1200 X139.305 Y113.849 E220.96184
G0 F6000 X139.871 Y113.849
G1 F1200 X107.538 Y81.516 E222.48269
G0 F6000 X108.026 Y81.439
G1 F1200 X140.437 Y113.849 E224.00718
G0 F6000 X141.002 Y113.849
G1 F1200 X108.515 Y81.362 E225.53527
G0 F6000 X109.003 Y81.284
G1 F1200 X141.568 Y113.849 E227.06702
G0 F6000 X142.134 Y113.849
G1 F1200 X109.491 Y81.207 E228.60243
G0 F6000 X110.067 Y81.217
G1 F1200 X142.699 Y113.849 E230.13734
G0 F6000 X143.265 Y113.849
G1 F1200 X110.739 Y81.323 E231.66726
G0 F6000 X111.411 Y81.429
G1 F1200 X143.831 Y113.849 E233.1922
G0 F6000 X144.396 Y113.849
G1 F1200 X112.082 Y81.535 E234.71215
G0 F6000 X112.755 Y81.642
G1 F1200 X144.962 Y113.849 E236.22707
G0 F6000 X145.528 Y113.849
G1 F1200 X113.426 Y81.748 E237.73702
G0 F6000 X114.098 Y81.854
G1 F1200 X137.897 Y105.653 E238.85645
G0 F6000 X137.79 Y104.98
G1 F1200 X114.771 Y81.961 E239.9392
G0 F6000 X115.442 Y82.067
G1 F1200 X137.684 Y104.308 E240.98537
G0 F6000 X137.577 Y103.636
G1 F1200 X116.114 Y82.173 E241.99492
G0 F6000 X116.787 Y82.28
G1 F1200 X137.47 Y102.963 E242.96779
G0 F6000 X137.364 Y102.292
G1 F1200 X117.458 Y82.386 E243.90411
G0 F6000 X118.13 Y82.492
G1 F1200 X137.257 Y101.619 E244.80378
G0 F6000 X137.054 Y100.851
G1 F1200 X118.899 Y82.695 E245.65776
G0 F6000 X119.099 Y82.304
G0 X120.252 Y82.892
G0 X120.052 Y83.283
G1 F1200 X136.467 Y99.697 E246.42985
G0 F6000 X136.859 Y99.498
G0 X136.271 Y98.345
G0 X135.879 Y98.544
G1 F1200 X121.205 Y83.87 E247.12007
G0 F6000 X121.405 Y83.479
G0 X122.559 Y84.067
G0 X122.359 Y84.458
G1 F1200 X135.292 Y97.391 E247.7284
G0 F6000 X135.684 Y97.192
G0 X135.096 Y96.038
G0 X134.704 Y96.237
G1 F1200 X123.512 Y85.045 E248.25483
G0 F6000 X123.711 Y84.654
G0 X124.865 Y85.242
G0 X124.665 Y85.633
G1 F1200 X134.116 Y95.083 E248.69936
G0 F6000 X134.508 Y94.884
G0 X133.921 Y93.731
G0 X133.528 Y93.93
