;FLAVOR:Marlin
;TIME:4140
;Filament used: 4.73954m
;Layer height: 0.2
;MINX:54.953
;MINY:70.203
;MINZ:0.2
;MAXX:165.047
;MAXY:149.797
;MAXZ:4
;Generated with Cura_SteamEngine 4.12.1
M140 S50
M105
M190 S50
M104 S200
M105
M109 S200
M82 ;absolute extrusion mode
M201 X500.00 Y500.00 Z100.00 E5000.00 ;Setup machine max acceleration
M203 X500.00 Y500.00 Z10.00 E50.00 ;Setup machine max feedrate
M204 P500.00 R1000.00 T500.00 ;Setup Print/Retract/Travel acceleration
M205 X8.00 Y8.00 Z0.40 E5.00 ;Setup Jerk
M220 S100 ;Reset Feedrate
M221 S100 ;Reset Flowrate

G28 ;Home

G92 E0 ;Reset Extruder
G1 Z2.0 F3000 ;Move Z Axis up
G1 X10.1 Y20 Z0.28 F5000.0 ;Move to start position
G1 X10.1 Y200.0 Z0.28 F1500.0 E15 ;Draw the first line
G1 X10.4 Y200.0 Z0.28 F5000.0 ;Move to side a little
G1 X10.4 Y20 Z0.28 F1500.0 E30 ;Draw the second line
G92 E0 ;Reset Extruder
G1 Z2.0 F3000 ;Move Z Axis up

G92 E0
G92 E0
G1 F2700 E-5
;LAYER_COUNT:20
;LAYER:0
M107
;MESH:a2e3s.stl
G0 F6000 X109.75 Y149.392 Z0.2
;TYPE:WALL-INNER
G1 F2700 E0
G1 F1200 X97.575 Y147.464 E0.40999
G1 X86.596 Y141.87 E0.81982
G1 X77.88 Y133.154 E1.22979
G1 X72.286 Y122.175 E1.63962
G1 X71.055 Y114.4 E1.90144
G1 X59.799 Y114.4 E2.27582
G1 X58.391 Y114.177 E2.32323
G1 X57.167 Y113.553 E2.36893
G1 X56.197 Y112.583 E2.41455
G1 X55.573 Y111.359 E2.46025
G1 X55.358 Y110 E2.50601
G1 X55.573 Y108.641 E2.55177
G1 X56.197 Y107.417 E2.59747
G1 X57.167 Y106.447 E2.6431
G1 X58.391 Y105.823 E2.68879
G1 X59.799 Y105.6 E2.73621
G1 X71.055 Y105.6 E3.11058
G1 X72.286 Y97.825 E3.3724
G1 X77.88 Y86.846 E3.78223
G1 X86.596 Y78.13 E4.19221
G1 X97.575 Y72.536 E4.60204
G1 X109.75 Y70.608 E5.01202
G1 X121.925 Y72.536 E5.42201
G1 X132.904 Y78.13 E5.83184
G1 X141.62 Y86.846 E6.24182
G1 X147.214 Y97.825 E6.65165
G1 X148.445 Y105.6 E6.91347
G1 X160.201 Y105.6 E7.30447
G1 X161.609 Y105.823 E7.35189
G1 X162.833 Y106.447 E7.39758
G1 X163.803 Y107.417 E7.44321
G1 X164.427 Y108.641 E7.4889
G1 X164.642 Y110 E7.53467
G1 X164.427 Y111.359 E7.58043
G1 X163.803 Y112.583 E7.62612
G1 X162.833 Y113.553 E7.67175
G1 X161.609 Y114.177 E7.71745
G1 X160.201 Y114.4 E7.76486
G1 X148.445 Y114.4 E8.15587
G1 X147.214 Y122.175 E8.41768
G1 X141.62 Y133.154 E8.82752
G1 X132.904 Y141.87 E9.23749
G1 X121.925 Y147.464 E9.64732
G1 X109.75 Y149.392 E10.05731
G0 F6000 X109.75 Y149.797
;TYPE:WALL-OUTER
G1 F1200 X97.45 Y147.849 E10.47151
G1 X86.357 Y142.197 E10.88559
G1 X77.553 Y133.393 E11.2997
G1 X71.901 Y122.3 E11.71379
G1 X70.713 Y114.8 E11.96635
G1 X59.768 Y114.8 E12.33038
G1 X58.266 Y114.562 E12.38096
G1 X56.928 Y113.88 E12.43091
G1 X55.87 Y112.822 E12.48068
G1 X55.188 Y111.484 E12.53063
G1 X54.953 Y110 E12.5806
G1 X55.188 Y108.516 E12.63057
G1 X55.87 Y107.178 E12.68052
G1 X56.928 Y106.12 E12.73029
G1 X58.266 Y105.438 E12.78024
G1 X59.768 Y105.2 E12.83082
G1 X70.713 Y105.2 E13.19485
G1 X71.901 Y97.7 E13.44741
G1 X77.553 Y86.607 E13.8615
G1 X86.357 Y77.803 E14.27561
G1 X97.45 Y72.151 E14.68969
G1 X109.75 Y70.203 E15.10389
G1 X122.05 Y72.151 E15.51809
G1 X133.143 Y77.803 E15.93218
G1 X141.947 Y86.607 E16.34629
G1 X147.599 Y97.7 E16.76037
G1 X148.787 Y105.2 E17.01294
G1 X160.232 Y105.2 E17.3936
G1 X161.734 Y105.438 E17.44418
G1 X163.072 Y106.12 E17.49413
G1 X164.13 Y107.178 E17.54389
G1 X164.812 Y108.516 E17.59384
G1 X165.047 Y110 E17.64382
G1 X164.812 Y111.484 E17.69379
G1 X164.13 Y112.822 E17.74374
G1 X163.072 Y113.88 E17.7935
G1 X161.734 Y114.562 E17.84345
G1 X160.232 Y114.8 E17.89403
G1 X148.787 Y114.8 E18.2747
G1 X147.599 Y122.3 E18.52726
G1 X141.947 Y133.393 E18.94134
G1 X133.143 Y142.197 E19.35545
G1 X122.05 Y147.849 E19.76954
G1 X109.75 Y149.797 E20.18374
G0 F6000 X109.75 Y149.357
G0 X109.75 Y148.996
;TYPE:SKIN
G1 F1200 X97.693 Y147.087 E20.58975
G1 X86.827 Y141.551 E20.99536
G1 X78.199 Y132.923 E21.40119
G1 X72.663 Y122.057 E21.8068
G1 X71.388 Y114.01 E22.07778
G1 X59.834 Y114.01 E22.46207
G1 X58.509 Y113.8 E22.50669
G1 X57.398 Y113.234 E22.54816
G1 X56.516 Y112.352 E22.58965
G1 X55.95 Y111.241 E22.63112
G1 X55.754 Y110 E22.6729
G1 X55.95 Y108.759 E22.71469
G1 X56.516 Y107.648 E22.75616
G1 X57.398 Y106.766 E22.79765
G1 X58.509 Y106.2 E22.83912
G1 X59.834 Y105.99 E22.88374
G1 X71.388 Y105.99 E23.26803
G1 X72.663 Y97.943 E23.53901
G1 X78.199 Y87.077 E23.94462
G1 X86.827 Y78.449 E24.35045
G1 X97.693 Y72.913 E24.75606
G1 X109.75 Y71.004 E25.16207
G1 X121.807 Y72.913 E25.56808
G1 X132.673 Y78.449 E25.97369
G1 X141.301 Y87.077 E26.37952
G1 X146.837 Y97.943 E26.78513
G1 X148.112 Y105.99 E27.05611
G1 X160.166 Y105.99 E27.45703
G1 X161.491 Y106.2 E27.50165
G1 X162.602 Y106.766 E27.54312
G1 X163.484 Y107.648 E27.58461
G1 X164.05 Y108.759 E27.62608
G1 X164.246 Y110 E27.66787
G1 X164.05 Y111.241 E27.70965
G1 X163.484 Y112.352 E27.75113
G1 X162.602 Y113.234 E27.79261
G1 X161.491 Y113.8 E27.83408
G1 X160.166 Y114.01 E27.8787
G1 X148.112 Y114.01 E28.27962
G1 X146.837 Y122.057 E28.5506
G1 X141.301 Y132.923 E28.95621
G1 X132.673 Y141.551 E29.36204
G1 X121.807 Y147.087 E29.76765
G1 X109.75 Y148.996 E30.17366
G1 F2700 E25.17366
G0 F6000 X109.706 Y149.273
G0 X97.629 Y147.3
G0 X86.697 Y141.73
G0 X78.02 Y133.053
G0 X72.132 Y122.227
G0 X70.909 Y114.57
G0 X58.73 Y114.415
G0 X57.643 Y113.672
G1 F2700 E30.17366
G0 F6000 X57.843 Y113.28
G1 F1200 X56.467 Y111.904 E30.23839
G0 F6000 X56.075 Y112.102
G0 X55.628 Y111.003
G0 X56.063 Y110.935
G1 F1200 X58.813 Y113.685 E30.36774
G0 F6000 X59.485 Y113.791
G1 F1200 X55.958 Y110.264 E30.53364
G0 F6000 X55.963 Y109.703
G1 F1200 X60.109 Y113.849 E30.72865
G0 F6000 X60.674 Y113.849
G1 F1200 X56.039 Y109.214 E30.94667
G0 F6000 X56.135 Y108.743
G1 F1200 X61.24 Y113.849 E31.18682
G0 F6000 X61.806 Y113.849
G1 F1200 X56.326 Y108.369 E31.44458
G0 F6000 X56.516 Y107.994
G1 F1200 X62.371 Y113.849 E31.71998
G0 F6000 X62.937 Y113.849
G1 F1200 X56.738 Y107.649 E32.01158
G0 F6000 X57.021 Y107.367
G1 F1200 X63.503 Y113.849 E32.31648
G0 F6000 X64.068 Y113.849
G1 F1200 X57.303 Y107.084 E32.63468
G0 F6000 X57.617 Y106.832
G1 F1200 X64.634 Y113.849 E32.96474
G0 F6000 X65.2 Y113.849
G1 F1200 X57.992 Y106.641 E33.30378
G0 F6000 X58.367 Y106.45
G1 F1200 X65.765 Y113.849 E33.65179
G0 F6000 X66.331 Y113.849
G1 F1200 X58.798 Y106.315 E34.00614
G0 F6000 X59.286 Y106.238
G1 F1200 X66.897 Y113.849 E34.36414
G0 F6000 X67.462 Y113.849
G1 F1200 X59.775 Y106.161 E34.72573
G0 F6000 X60.328 Y106.149
G1 F1200 X68.028 Y113.849 E35.08792
G0 F6000 X68.594 Y113.849
G1 F1200 X60.894 Y106.149 E35.4501
G0 F6000 X61.46 Y106.149
G1 F1200 X69.159 Y113.849 E35.81226
G0 F6000 X69.725 Y113.849
G1 F1200 X62.025 Y106.149 E36.17445
G0 F6000 X62.591 Y106.149
G1 F1200 X70.291 Y113.849 E36.53663
G0 F6000 X70.857 Y113.849
G1 F1200 X63.157 Y106.149 E36.89882
G0 F6000 X63.723 Y106.149
G1 F1200 X71.422 Y113.849 E37.26098
G0 F6000 X71.542 Y113.968
G1 F1200 X105.776 Y148.202 E38.87124
G0 F6000 X105.104 Y148.096
G1 F1200 X71.649 Y114.641 E40.44486
G0 F6000 X71.755 Y115.313
G1 F1200 X104.432 Y147.99 E41.98189
G0 F6000 X103.76 Y147.883
G1 F1200 X71.861 Y115.985 E43.48229
G0 F6000 X71.968 Y116.657
G1 F1200 X103.088 Y147.777 E44.94608
G0 F6000 X102.416 Y147.671
G1 F1200 X72.075 Y117.33 E46.37323
G0 F6000 X72.182 Y118.002
G1 F1200 X101.744 Y147.564 E47.76374
G0 F6000 X101.072 Y147.458
G1 F1200 X72.288 Y118.674 E49.11765
G0 F6000 X72.395 Y119.346
G1 F1200 X100.4 Y147.352 E50.43494
G0 F6000 X99.728 Y147.245
G1 F1200 X72.501 Y120.019 E51.71559
G0 F6000 X72.607 Y120.691
G1 F1200 X99.056 Y147.139 E52.95965
G0 F6000 X98.384 Y147.032
G1 F1200 X72.714 Y121.363 E54.16706
G0 F6000 X72.841 Y122.056
G1 F1200 X97.691 Y146.906 E55.33593
G0 F6000 X97.491 Y147.297
G0 X96.338 Y146.71
G0 X96.538 Y146.318
G1 F1200 X73.429 Y123.209 E56.42291
G0 F6000 X73.037 Y123.407
G0 X73.625 Y124.561
G0 X74.017 Y124.363
G1 F1200 X95.385 Y145.731 E57.42799
G0 F6000 X95.185 Y146.122
G0 X94.031 Y145.535
G0 X94.231 Y145.143
G1 F1200 X74.604 Y125.516 E58.35119
G0 F6000 X74.213 Y125.714
G0 X74.8 Y126.866
G0 X75.191 Y126.668
G1 F1200 X93.079 Y144.556 E59.19258
G0 F6000 X92.879 Y144.948
G0 X91.726 Y144.36
G0 X91.926 Y143.969
G1 F1200 X75.779 Y127.822 E59.95209
G0 F6000 X75.388 Y128.02
G0 X75.975 Y129.173
G0 X76.366 Y128.975
G1 F1200 X90.772 Y143.381 E60.6297
G0 F6000 X90.572 Y143.772
G0 X89.419 Y143.185
G0 X89.619 Y142.793
G1 F1200 X76.954 Y130.128 E61.22542
G0 F6000 X76.562 Y130.326
G0 X77.15 Y131.48
G0 X77.542 Y131.282
G1 F1200 X88.466 Y142.206 E61.73926
G0 F6000 X88.266 Y142.597
G0 X87.112 Y142.009
G0 X87.312 Y141.618
G1 F1200 X78.129 Y132.435 E62.1712
G1 F2700 E57.1712
G0 F6000 X77.738 Y132.633
G0 X72.45 Y122.121
G0 X71.209 Y114.22
G0 X59.81 Y114.229
G0 X58.445 Y114.013
G0 X57.268 Y113.413
G0 X56.337 Y112.482
G0 X55.737 Y111.305
G0 X55.53 Y110
G0 X55.737 Y108.695
G0 X56.337 Y107.518
G0 X57.268 Y106.587
G0 X58.445 Y105.987
G0 X59.673 Y105.793
G0 X71.17 Y105.734
G1 F2700 E62.1712
G0 F6000 X71.539 Y106.046
G1 F1200 X113.699 Y148.206 E64.15427
G0 F6000 X113.211 Y148.283
G1 F1200 X71.076 Y106.149 E66.13615
G0 F6000 X70.511 Y106.149
G1 F1200 X112.722 Y148.36 E68.12163
G0 F6000 X112.234 Y148.438
G1 F1200 X69.945 Y106.149 E70.11077
G0 F6000 X69.379 Y106.149
G1 F1200 X111.746 Y148.515 E72.10356
G0 F6000 X111.257 Y148.592
G1 F1200 X68.814 Y106.149 E74.09995
G0 F6000 X68.248 Y106.149
G1 F1200 X110.768 Y148.669 E76.09996
G0 F6000 X110.281 Y148.747
G1 F1200 X67.682 Y106.149 E78.10366
G0 F6000 X67.117 Y106.149
G1 F1200 X109.792 Y148.824 E80.11097
G0 F6000 X109.136 Y148.734
G1 F1200 X66.551 Y106.149 E82.11403
G0 F6000 X65.985 Y106.149
G1 F1200 X108.464 Y148.628 E84.11212
G0 F6000 X107.792 Y148.522
G1 F1200 X65.42 Y106.149 E86.10519
G0 F6000 X64.854 Y106.149
G1 F1200 X107.12 Y148.415 E88.09325
G0 F6000 X106.448 Y148.309
G1 F1200 X64.288 Y106.149 E90.07633
G0 F6000 X64.288 Y105.71
G0 X71.185 Y105.489
G0 X71.617 Y105.558
G1 F1200 X114.187 Y148.128 E92.07869
G0 F6000 X114.676 Y148.051
G1 F1200 X71.694 Y105.069 E94.10043
G0 F6000 X71.772 Y104.581
G1 F1200 X115.165 Y147.974 E96.14151
G0 F6000 X115.653 Y147.897
G1 F1200 X71.849 Y104.093 E98.20191
G0 F6000 X71.926 Y103.605
G1 F1200 X116.141 Y147.819 E100.28163
G0 F6000 X116.63 Y147.742
G1 F1200 X72.003 Y103.116 E102.38072
G0 F6000 X72.081 Y102.628
G1 F1200 X117.118 Y147.665 E104.49912
G0 F6000 X117.606 Y147.588
G1 F1200 X72.158 Y102.14 E106.63686
G0 F6000 X72.236 Y101.652
G1 F1200 X118.095 Y147.51 E108.7939
G0 F6000 X118.583 Y147.433
G1 F1200 X72.313 Y101.163 E110.9703
G0 F6000 X72.39 Y100.675
G1 F1200 X119.072 Y147.356 E113.16605
G0 F6000 X119.56 Y147.279
G1 F1200 X72.468 Y100.187 E115.38112
G0 F6000 X72.545 Y99.698
G1 F1200 X120.049 Y147.201 E117.61554
G0 F6000 X120.537 Y147.124
G1 F1200 X72.623 Y99.21 E119.86926
G0 F6000 X72.7 Y98.722
G1 F1200 X121.025 Y147.047 E122.14232
G0 F6000 X121.514 Y146.97
G1 F1200 X72.778 Y98.234 E124.43472
G0 F6000 X72.912 Y97.802
G1 F1200 X121.945 Y146.835 E126.74108
G0 F6000 X122.32 Y146.644
G1 F1200 X73.103 Y97.428 E129.05607
G0 F6000 X73.294 Y97.053
G1 F1200 X122.695 Y146.453 E131.37972
G0 F6000 X123.069 Y146.262
G1 F1200 X73.485 Y96.678 E133.712
G0 F6000 X73.676 Y96.303
G1 F1200 X123.444 Y146.071 E136.05293
G0 F6000 X123.819 Y145.881
G1 F1200 X73.867 Y95.928 E138.40254
G0 F6000 X74.058 Y95.554
G1 F1200 X124.194 Y145.69 E140.76079
G0 F6000 X124.568 Y145.499
G1 F1200 X74.249 Y95.179 E143.12766
G0 F6000 X74.439 Y94.804
G1 F1200 X124.943 Y145.308 E145.50322
G0 F6000 X125.318 Y145.117
G1 F1200 X74.63 Y94.429 E147.88742
G0 F6000 X74.821 Y94.055
G1 F1200 X125.693 Y144.926 E150.28026
G0 F6000 X126.067 Y144.735
G1 F1200 X75.012 Y93.68 E152.68173
G0 F6000 X75.203 Y93.305
G1 F1200 X126.442 Y144.544 E155.09186
G0 F6000 X126.817 Y144.353
G1 F1200 X75.394 Y92.93 E157.51064
G0 F6000 X75.585 Y92.556
G1 F1200 X127.192 Y144.162 E159.93805
G0 F6000 X127.567 Y143.971
G1 F1200 X75.776 Y92.181 E162.37412
G0 F6000 X75.967 Y91.806
G1 F1200 X127.941 Y143.78 E164.81882
G0 F6000 X128.316 Y143.59
G1 F1200 X76.158 Y91.431 E167.27219
G0 F6000 X76.349 Y91.056
G1 F1200 X128.691 Y143.399 E169.73422
G0 F6000 X129.066 Y143.208
G1 F1200 X76.54 Y90.682 E172.20488
G0 F6000 X76.73 Y90.307
G1 F1200 X129.44 Y143.017 E174.6842
G0 F6000 X129.815 Y142.826
G1 F1200 X76.921 Y89.932 E177.17217
G0 F6000 X77.112 Y89.557
G1 F1200 X130.19 Y142.635 E179.6688
G0 F6000 X130.565 Y142.444
G1 F1200 X77.303 Y89.183 E182.17406
G0 F6000 X77.494 Y88.808
G1 F1200 X130.939 Y142.253 E184.68795
G0 F6000 X131.314 Y142.062
G1 F1200 X77.685 Y88.433 E187.21049
G0 F6000 X77.876 Y88.058
G1 F1200 X131.689 Y141.871 E189.74169
G0 F6000 X132.064 Y141.68
G1 F1200 X78.067 Y87.684 E192.28152
G0 F6000 X78.258 Y87.309
G1 F1200 X132.438 Y141.489 E194.82998
G0 F6000 X132.756 Y141.241
G1 F1200 X78.507 Y86.992 E197.38169
G0 F6000 X78.79 Y86.709
G1 F1200 X133.039 Y140.958 E199.93339
G0 F6000 X133.322 Y140.676
G1 F1200 X79.072 Y86.426 E202.48515
G0 F6000 X79.355 Y86.143
G1 F1200 X133.604 Y140.393 E205.03688
G0 F6000 X133.887 Y140.11
G1 F1200 X79.638 Y85.861 E207.58858
G0 F6000 X79.921 Y85.578
G1 F1200 X134.17 Y139.827 E210.14029
G0 F6000 X134.453 Y139.544
G1 F1200 X80.204 Y85.295 E212.692
G0 F6000 X80.487 Y85.012
G1 F1200 X134.736 Y139.261 E215.2437
G0 F6000 X135.019 Y138.979
G1 F1200 X80.769 Y84.729 E217.79546
G0 F6000 X81.052 Y84.446
G1 F1200 X135.302 Y138.696 E220.34721
G0 F6000 X135.584 Y138.413
G1 F1200 X81.335 Y84.164 E222.89892
G0 F6000 X81.618 Y83.881
G1 F1200 X135.867 Y138.13 E225.45062
G0 F6000 X136.15 Y137.847
G1 F1200 X81.901 Y83.598 E228.00233
G0 F6000 X82.184 Y83.315
G1 F1200 X136.433 Y137.564 E230.55404
G0 F6000 X136.716 Y137.281
G1 F1200 X82.467 Y83.032 E233.10574
G0 F6000 X82.749 Y82.749
G1 F1200 X136.999 Y136.999 E235.6575
G0 F6000 X137.281 Y136.716
G1 F1200 X83.032 Y82.467 E238.2092
G0 F6000 X83.315 Y82.184
G1 F1200 X137.564 Y136.433 E240.76091
G0 F6000 X137.847 Y136.15
G1 F1200 X83.598 Y81.901 E243.31262
G0 F6000 X83.881 Y81.618
G1 F1200 X138.13 Y135.867 E245.86432
G0 F6000 X138.413 Y135.584
G1 F1200 X84.164 Y81.335 E248.41603
G0 F6000 X84.446 Y81.052
G1 F1200 X138.696 Y135.302 E250.96778
G0 F6000 X138.979 Y135.019
G1 F1200 X84.729 Y80.769 E253.51954
G0 F6000 X85.012 Y80.487
G1 F1200 X139.261 Y134.736 E256.07124
G0 F6000 X139.544 Y134.453
G1 F1200 X85.295 Y80.204 E258.62295
G0 F6000 X85.578 Y79.921
G1 F1200 X139.827 Y134.17 E261.17466
G0 F6000 X140.11 Y133.887
G1 F1200 X85.861 Y79.638 E263.72636
G0 F6000 X86.143 Y79.355
G1 F1200 X140.393 Y133.604 E266.27809
G0 F6000 X140.676 Y133.322
G1 F1200 X86.426 Y79.072 E268.82985
G0 F6000 X86.709 Y78.79
G1 F1200 X140.958 Y133.039 E271.38155
G0 F6000 X141.218 Y132.733
G1 F1200 X87.016 Y78.531 E273.93105
G0 F6000 X87.391 Y78.34
G1 F1200 X141.409 Y132.358 E276.47189
G0 F6000 X141.6 Y131.983
G1 F1200 X87.766 Y78.149 E279.00408
G0 F6000 X88.14 Y77.958
G1 F1200 X141.791 Y131.608 E281.52763
G0 F6000 X141.982 Y131.234
G1 F1200 X88.515 Y77.767 E284.04256
G0 F6000 X88.89 Y77.576
G1 F1200 X142.173 Y130.859 E286.54883
G0 F6000 X142.363 Y130.484
G1 F1200 X89.265 Y77.385 E289.04642
G0 F6000 X89.639 Y77.194
G1 F1200 X142.554 Y130.109 E291.53538
G0 F6000 X142.745 Y129.735
G1 F1200 X90.014 Y77.003 E294.0157
G0 F6000 X90.389 Y76.813
G1 F1200 X142.936 Y129.36 E296.48735
G0 F6000 X143.127 Y128.985
G1 F1200 X90.764 Y76.622 E298.95035
G0 F6000 X91.138 Y76.431
G1 F1200 X143.318 Y128.61 E301.40471
G0 F6000 X143.509 Y128.235
G1 F1200 X91.513 Y76.24 E303.85042
G0 F6000 X91.888 Y76.049
G1 F1200 X143.7 Y127.861 E306.2875
G0 F6000 X143.891 Y127.486
G1 F1200 X92.263 Y75.858 E308.71592
G0 F6000 X92.638 Y75.667
G1 F1200 X144.082 Y127.111 E311.13569
G0 F6000 X144.273 Y126.736
G1 F1200 X93.012 Y75.476 E313.54683
G0 F6000 X93.387 Y75.285
G1 F1200 X144.464 Y126.362 E315.94933
G0 F6000 X144.654 Y125.987
G1 F1200 X93.762 Y75.094 E318.34316
G0 F6000 X94.136 Y74.903
G1 F1200 X144.846 Y125.613 E320.7284
G0 F6000 X145.037 Y125.238
G1 F1200 X94.511 Y74.712 E323.10499
G0 F6000 X94.885 Y74.521
G1 F1200 X145.228 Y124.863 E325.47295
G0 F6000 X145.419 Y124.488
G1 F1200 X95.26 Y74.33 E327.83225
G0 F6000 X95.635 Y74.139
G1 F1200 X145.61 Y124.114 E330.18292
G0 F6000 X145.801 Y123.739
G1 F1200 X96.01 Y73.948 E332.52494
G0 F6000 X96.385 Y73.757
G1 F1200 X145.992 Y123.364 E334.8583
